; generated by SuperSlicer 2.2.53 on 2020-11-19 at 17:51:56 UTC

; 

; external perimeters extrusion width = 0.44mm
; perimeters extrusion width = 0.44mm
; infill extrusion width = 0.44mm
; solid infill extrusion width = 0.44mm
; top infill extrusion width = 0.40mm
; first layer extrusion width = 0.42mm

; object:{"name":"xyzCalibration_cube","id":"xyzCalibration_cube.stl id:0 copy 0","object_center":[125.000000,105.000000,0.000000],"boundingbox_center":[125.000000,105.000000,10.000000],"boundingbox_size":[20.000000,20.000000,20.000000]}

M107
; PrusaSlicer Start G-Code:
; Set nozzle and bed to the specific temperatures declared within this slicer
M140 S50 ; set bed temp
M104 S210 ; set extruder temp
M116 ; wait for all temperatures
; Run macro to print primeline at a 'randomized' Y position from -1.1 to -2.9
M98 P"0:/sys/primeLine.g" ; primeline macro
; Set pressure advance
M572 D0 S0.07 ; set pressure advance
G21 ; set units to millimeters
G90 ; use absolute coordinates
M83 ; use relative distances for extrusion
;BEFORE_LAYER_CHANGE
G92 E0.0
;0.2


G1 E-0.40000 F1800.00000
G1 Z0.600000 F10800.000
;AFTER_LAYER_CHANGE
;0.2
G1 X112.282 Y92.692
G1 Z0.200000
G1 E0.40000 F1800.00000
G1 F1200.000
M204 S1000
G1 X112.802 Y92.192 E0.02331
G1 X113.413 Y91.807 E0.02331
G1 X114.088 Y91.553 E0.02331
G1 X114.801 Y91.440 E0.02331
G1 X135.005 Y91.434 E0.65246
G1 X135.654 Y91.495 E0.02106
G1 X136.282 Y91.673 E0.02106
G1 X136.866 Y91.962 E0.02106
G1 X137.388 Y92.352 E0.02106
G1 X137.831 Y92.832 E0.02106
G1 X138.178 Y93.384 E0.02106
G1 X138.419 Y93.990 E0.02106
G1 X138.546 Y94.629 E0.02106
G1 X138.563 Y115.131 E0.66209
G1 X138.324 Y116.290 E0.03824
G1 X137.718 Y117.308 E0.03824
G1 X137.168 Y117.831 E0.02451
G1 X136.524 Y118.223 E0.02436
G1 X135.807 Y118.473 E0.02451
G1 X135.059 Y118.565 E0.02436
G1 X114.865 Y118.563 E0.65216
G1 X113.705 Y118.322 E0.03824
G1 X112.692 Y117.718 E0.03809
G1 X112.169 Y117.168 E0.02451
G1 X111.777 Y116.524 E0.02436
G1 X111.527 Y115.807 E0.02451
G1 X111.435 Y115.059 E0.02436
G1 X111.437 Y94.865 E0.65216
G1 X111.678 Y93.705 E0.03824
G1 X112.251 Y92.744 E0.03615
G1 X112.573 Y92.938 F10800.000
G1 F1200.000
G1 X113.054 Y92.474 E0.02159
G1 X113.601 Y92.135 E0.02077
G1 X114.204 Y91.912 E0.02077
G1 X114.844 Y91.815 E0.02091
G1 X135.004 Y91.811 E0.65107
G1 X135.588 Y91.866 E0.01892
G1 X136.151 Y92.027 E0.01892
G1 X136.680 Y92.290 E0.01906
G1 X137.147 Y92.643 E0.01892
G1 X137.542 Y93.075 E0.01892
G1 X137.851 Y93.573 E0.01892
G1 X138.064 Y94.119 E0.01892
G1 X138.174 Y94.699 E0.01906
G1 X138.187 Y115.110 E0.65918
G1 X137.970 Y116.159 E0.03460
G1 X137.416 Y117.081 E0.03474
G1 X136.925 Y117.542 E0.02176
G1 X136.347 Y117.890 E0.02176
G1 X135.714 Y118.107 E0.02162
G1 X135.046 Y118.188 E0.02176
G1 X114.890 Y118.187 E0.65093
G1 X113.841 Y117.970 E0.03460
G1 X112.919 Y117.416 E0.03474
G1 X112.458 Y116.925 E0.02176
G1 X112.110 Y116.347 E0.02176
G1 X111.893 Y115.714 E0.02162
G1 X111.812 Y115.046 E0.02176
G1 X111.813 Y94.890 E0.65093
G1 X112.030 Y93.841 E0.03460
G1 X112.542 Y92.989 E0.03209
; printing object xyzCalibration_cube.stl id:0 copy 0
G1 E-0.01200 F1800.00000
G1 F8640.000
G1 X113.054 Y92.474 E-0.14381
G1 X113.601 Y92.135 E-0.12726
G1 X114.063 Y91.964 E-0.09753
G1 E-0.01940 F1800.00000
G1 Z1.200000 F10800.000
G1 X134.036 Y114.036
G1 Z0.200000
G1 E0.40000 F1800.00000
G1 F1200.000
G1 X115.964 Y114.036 E0.58362
G1 X115.964 Y95.964 E0.58362
G1 X134.036 Y95.964 E0.58362
G1 X134.036 Y113.976 E0.58169
G1 X134.413 Y114.413 F10800.000
G1 F1200.000
G1 X115.587 Y114.413 E0.60798
G1 X115.587 Y95.587 E0.60798
G1 X134.413 Y95.587 E0.60798
G1 X134.413 Y114.353 E0.60604
G1 X134.790 Y114.790 F10800.000
G1 F1200.000
G1 X115.210 Y114.790 E0.63233
G1 X115.210 Y95.210 E0.63233
G1 X134.790 Y95.210 E0.63233
G1 X134.790 Y114.730 E0.63040
G1 X134.444 Y114.590 F10800.000
G1 E-0.01200 F1800.00000
G1 F8640.000
G1 X132.928 Y114.736 E-0.36860
G1 E-0.01940 F1800.00000
G1 Z0.800000 F10800.000
G1 X116.104 Y113.203
G1 Z0.200000
G1 E0.40000 F1800.00000
G1 X116.458 Y113.557 E0.01619
G1 X116.991 Y113.557 E0.01722
G1 X116.443 Y113.009 E0.02504
G1 X116.443 Y112.475 E0.01722
G1 X117.525 Y113.557 E0.04940
G1 X118.058 Y113.557 E0.01722
G1 X116.443 Y111.942 E0.07375
G1 X116.443 Y111.409 E0.01722
G1 X118.591 Y113.557 E0.09811
G1 X119.124 Y113.557 E0.01722
G1 X116.443 Y110.876 E0.12247
G1 X116.443 Y110.342 E0.01722
G1 X119.658 Y113.557 E0.14682
G1 X120.191 Y113.557 E0.01722
G1 X116.443 Y109.809 E0.17118
G1 X116.443 Y109.276 E0.01722
G1 X120.724 Y113.557 E0.19553
G1 X121.258 Y113.557 E0.01722
G1 X116.443 Y108.742 E0.21989
G1 X116.443 Y108.209 E0.01722
G1 X121.791 Y113.557 E0.24424
G1 X122.324 Y113.557 E0.01722
G1 X116.443 Y107.676 E0.26860
G1 X116.443 Y107.143 E0.01722
G1 X122.857 Y113.557 E0.29295
G1 X123.391 Y113.557 E0.01722
G1 X116.443 Y106.609 E0.31731
G1 X116.443 Y106.076 E0.01722
G1 X123.924 Y113.557 E0.34167
G1 X124.457 Y113.557 E0.01722
G1 X116.443 Y105.543 E0.36602
G1 X116.443 Y105.010 E0.01722
G1 X124.990 Y113.557 E0.39038
G1 X125.524 Y113.557 E0.01722
G1 X116.443 Y104.476 E0.41473
G1 X116.443 Y103.943 E0.01722
G1 X126.057 Y113.557 E0.43909
G1 X126.590 Y113.557 E0.01722
G1 X116.443 Y103.410 E0.46344
G1 X116.443 Y102.876 E0.01722
G1 X127.124 Y113.557 E0.48780
G1 X127.657 Y113.557 E0.01722
G1 X116.443 Y102.343 E0.51215
G1 X116.443 Y101.810 E0.01722
G1 X128.190 Y113.557 E0.53651
G1 X128.723 Y113.557 E0.01722
G1 X116.443 Y101.277 E0.56086
G1 X116.443 Y100.743 E0.01722
G1 X129.257 Y113.557 E0.58522
G1 X129.790 Y113.557 E0.01722
G1 X116.443 Y100.210 E0.60958
G1 X116.443 Y99.677 E0.01722
G1 X130.323 Y113.557 E0.63393
G1 X130.856 Y113.557 E0.01722
G1 X116.443 Y99.144 E0.65829
G1 X116.443 Y98.610 E0.01722
G1 X131.390 Y113.557 E0.68264
G1 X131.923 Y113.557 E0.01722
G1 X116.443 Y98.077 E0.70700
G1 X116.443 Y97.544 E0.01722
G1 X132.456 Y113.557 E0.73135
G1 X132.989 Y113.557 E0.01722
G1 X116.443 Y97.011 E0.75571
G1 X116.443 Y96.477 E0.01722
G1 X133.523 Y113.557 E0.78006
G1 X133.557 Y113.058 E0.01615
G1 X116.942 Y96.443 E0.75883
G1 X117.475 Y96.443 E0.01722
G1 X133.557 Y112.525 E0.73448
G1 X133.557 Y111.991 E0.01722
G1 X118.009 Y96.443 E0.71012
G1 X118.542 Y96.443 E0.01722
G1 X133.557 Y111.458 E0.68577
G1 X133.557 Y110.925 E0.01722
G1 X119.075 Y96.443 E0.66141
G1 X119.608 Y96.443 E0.01722
G1 X133.557 Y110.392 E0.63706
G1 X133.557 Y109.858 E0.01722
G1 X120.142 Y96.443 E0.61270
G1 X120.675 Y96.443 E0.01722
G1 X133.557 Y109.325 E0.58835
G1 X133.557 Y108.792 E0.01722
G1 X121.208 Y96.443 E0.56399
G1 X121.742 Y96.443 E0.01722
G1 X133.557 Y108.258 E0.53964
G1 X133.557 Y107.725 E0.01722
G1 X122.275 Y96.443 E0.51528
G1 X122.808 Y96.443 E0.01722
G1 X133.557 Y107.192 E0.49092
G1 X133.557 Y106.659 E0.01722
G1 X123.341 Y96.443 E0.46657
G1 X123.875 Y96.443 E0.01722
G1 X133.557 Y106.125 E0.44221
G1 X133.557 Y105.592 E0.01722
G1 X124.408 Y96.443 E0.41786
G1 X124.941 Y96.443 E0.01722
G1 X133.557 Y105.059 E0.39350
G1 X133.557 Y104.526 E0.01722
G1 X125.474 Y96.443 E0.36915
G1 X126.008 Y96.443 E0.01722
G1 X133.557 Y103.992 E0.34479
G1 X133.557 Y103.459 E0.01722
G1 X126.541 Y96.443 E0.32044
G1 X127.074 Y96.443 E0.01722
G1 X133.557 Y102.926 E0.29608
G1 X133.557 Y102.393 E0.01722
G1 X127.607 Y96.443 E0.27173
G1 X128.141 Y96.443 E0.01722
G1 X133.557 Y101.859 E0.24737
G1 X133.557 Y101.326 E0.01722
G1 X128.674 Y96.443 E0.22301
G1 X129.207 Y96.443 E0.01722
G1 X133.557 Y100.793 E0.19866
G1 X133.557 Y100.259 E0.01722
G1 X129.741 Y96.443 E0.17430
G1 X130.274 Y96.443 E0.01722
G1 X133.557 Y99.726 E0.14995
G1 X133.557 Y99.193 E0.01722
G1 X130.807 Y96.443 E0.12559
G1 X131.340 Y96.443 E0.01722
G1 X133.557 Y98.660 E0.10124
G1 X133.557 Y98.126 E0.01722
G1 X131.874 Y96.443 E0.07688
G1 X132.407 Y96.443 E0.01722
G1 X133.557 Y97.593 E0.05253
G1 X133.557 Y97.060 E0.01722
G1 X132.940 Y96.443 E0.02817
G1 X133.473 Y96.443 E0.01722
G1 X133.896 Y96.866 E0.01931
; stop printing object xyzCalibration_cube.stl id:0 copy 0
;BEFORE_LAYER_CHANGE
G92 E0.0
;0.4


G1 E-0.01200 F1800.00000
G1 F8640.000
G1 X133.473 Y96.443 E-0.11837
G1 X132.940 Y96.443 E-0.10554
G1 X133.457 Y96.960 E-0.14469
G1 E-0.01940 F1800.00000
G1 Z0.800000 F10800.000
;AFTER_LAYER_CHANGE
;0.4
G1 X138.548 Y96.956
G1 Z0.400000
G1 E0.40000 F1800.00000
G1 F3000.000
G1 X138.563 Y115.131 E0.58696
G1 X138.324 Y116.290 E0.03824
G1 X137.718 Y117.308 E0.03824
G1 X137.168 Y117.831 E0.02451
G1 X136.524 Y118.223 E0.02436
G1 X135.807 Y118.473 E0.02451
G1 X135.059 Y118.565 E0.02436
G1 X114.865 Y118.563 E0.65216
G1 X113.705 Y118.322 E0.03824
G1 X112.692 Y117.718 E0.03809
G1 X112.169 Y117.168 E0.02451
G1 X111.777 Y116.524 E0.02436
G1 X111.527 Y115.807 E0.02451
G1 X111.435 Y115.059 E0.02436
G1 X111.437 Y94.865 E0.65216
G1 X111.678 Y93.705 E0.03824
G1 X112.282 Y92.692 E0.03809
G1 X112.802 Y92.192 E0.02331
G1 X113.413 Y91.807 E0.02331
G1 X114.088 Y91.553 E0.02331
G1 X114.801 Y91.440 E0.02331
G1 X135.005 Y91.434 E0.65246
G1 X135.654 Y91.495 E0.02106
G1 X136.282 Y91.673 E0.02106
G1 X136.866 Y91.962 E0.02106
G1 X137.388 Y92.352 E0.02106
G1 X137.831 Y92.832 E0.02106
G1 X138.178 Y93.384 E0.02106
G1 X138.419 Y93.990 E0.02106
G1 X138.546 Y94.629 E0.02106
G1 X138.548 Y96.896 E0.07319
G1 X138.176 Y96.896 F10800.000
G1 F3000.000
G1 X138.187 Y115.110 E0.58823
G1 X137.970 Y116.159 E0.03460
G1 X137.416 Y117.081 E0.03474
G1 X136.925 Y117.542 E0.02176
G1 X136.347 Y117.890 E0.02176
G1 X135.714 Y118.107 E0.02162
G1 X135.046 Y118.188 E0.02176
G1 X114.890 Y118.187 E0.65093
G1 X113.841 Y117.970 E0.03460
G1 X112.919 Y117.416 E0.03474
G1 X112.458 Y116.925 E0.02176
G1 X112.110 Y116.347 E0.02176
G1 X111.893 Y115.714 E0.02162
G1 X111.812 Y115.046 E0.02176
G1 X111.813 Y94.890 E0.65093
G1 X112.030 Y93.841 E0.03460
G1 X112.584 Y92.919 E0.03474
G1 X113.054 Y92.474 E0.02091
G1 X113.601 Y92.135 E0.02077
G1 X114.204 Y91.912 E0.02077
G1 X114.844 Y91.815 E0.02091
G1 X135.004 Y91.811 E0.65107
G1 X135.588 Y91.866 E0.01892
G1 X136.151 Y92.027 E0.01892
G1 X136.680 Y92.290 E0.01906
G1 X137.147 Y92.643 E0.01892
G1 X137.542 Y93.075 E0.01892
G1 X137.851 Y93.573 E0.01892
G1 X138.064 Y94.119 E0.01892
G1 X138.174 Y94.699 E0.01906
G1 X138.176 Y96.836 E0.06901
; printing object xyzCalibration_cube.stl id:0 copy 0
G1 E-0.01200 F1800.00000
G1 F8640.000
G1 X138.177 Y98.698 E-0.36860
G1 E-0.01940 F1800.00000
G1 Z1.000000 F10800.000
G1 X133.986 Y113.986
G1 Z0.400000
G1 E0.40000 F1800.00000
G1 F3600.000
M204 S800
G1 X116.014 Y113.986 E0.61118
G1 X116.014 Y96.014 E0.61118
G1 X133.986 Y96.014 E0.61118
G1 X133.986 Y113.926 E0.60914
M204 S1000
G1 X134.383 Y114.383 F10800.000
G1 F3600.000
M204 S800
G1 X115.617 Y114.383 E0.63819
G1 X115.617 Y95.617 E0.63819
G1 X134.383 Y95.617 E0.63819
G1 X134.383 Y114.323 E0.63615
M204 S1000
G1 X134.780 Y114.780 F10800.000
G1 F2400.000
M204 S800
G1 X115.220 Y114.780 E0.66519
G1 X115.220 Y95.220 E0.66519
G1 X134.780 Y95.220 E0.66519
G1 X134.780 Y114.720 E0.66315
M204 S1000
G1 X134.434 Y114.580 F10800.000
G1 E-0.01200 F1800.00000
G1 F8640.000
G1 X132.918 Y114.726 E-0.36860
G1 E-0.01940 F1800.00000
G1 Z1.000000 F10800.000
G1 X133.036 Y113.839
G1 Z0.400000
G1 E0.40000 F1800.00000
G1 F4800.000
M204 S1250
G1 X133.482 Y113.394 E0.02142
G1 X133.482 Y112.832 E0.01910
G1 X132.832 Y113.482 E0.03124
G1 X132.271 Y113.482 E0.01910
G1 X133.482 Y112.271 E0.05825
G1 X133.482 Y111.709 E0.01910
G1 X131.709 Y113.482 E0.08525
G1 X131.147 Y113.482 E0.01910
G1 X133.482 Y111.147 E0.11226
G1 X133.482 Y110.586 E0.01910
G1 X130.586 Y113.482 E0.13927
G1 X130.024 Y113.482 E0.01910
G1 X133.482 Y110.024 E0.16628
G1 X133.482 Y109.463 E0.01910
G1 X129.463 Y113.482 E0.19328
G1 X128.901 Y113.482 E0.01910
G1 X133.482 Y108.901 E0.22029
G1 X133.482 Y108.340 E0.01910
G1 X128.340 Y113.482 E0.24730
G1 X127.778 Y113.482 E0.01910
G1 X133.482 Y107.778 E0.27431
G1 X133.482 Y107.217 E0.01910
G1 X127.217 Y113.482 E0.30131
G1 X126.655 Y113.482 E0.01910
G1 X133.482 Y106.655 E0.32832
G1 X133.482 Y106.093 E0.01910
G1 X126.093 Y113.482 E0.35533
G1 X125.532 Y113.482 E0.01910
G1 X133.482 Y105.532 E0.38234
G1 X133.482 Y104.970 E0.01910
G1 X124.970 Y113.482 E0.40934
G1 X124.409 Y113.482 E0.01910
G1 X133.482 Y104.409 E0.43635
G1 X133.482 Y103.847 E0.01910
G1 X123.847 Y113.482 E0.46336
G1 X123.286 Y113.482 E0.01910
G1 X133.482 Y103.286 E0.49037
G1 X133.482 Y102.724 E0.01910
G1 X122.724 Y113.482 E0.51737
G1 X122.163 Y113.482 E0.01910
G1 X133.482 Y102.163 E0.54438
G1 X133.482 Y101.601 E0.01910
G1 X121.601 Y113.482 E0.57139
G1 X121.039 Y113.482 E0.01910
G1 X133.482 Y101.039 E0.59840
G1 X133.482 Y100.478 E0.01910
G1 X120.478 Y113.482 E0.62540
G1 X119.916 Y113.482 E0.01910
G1 X133.482 Y99.916 E0.65241
G1 X133.482 Y99.355 E0.01910
G1 X119.355 Y113.482 E0.67942
G1 X118.793 Y113.482 E0.01910
G1 X133.482 Y98.793 E0.70643
G1 X133.482 Y98.232 E0.01910
G1 X118.232 Y113.482 E0.73343
G1 X117.670 Y113.482 E0.01910
G1 X133.482 Y97.670 E0.76044
G1 X133.482 Y97.109 E0.01910
G1 X117.109 Y113.482 E0.78745
G1 X116.547 Y113.482 E0.01910
G1 X133.482 Y96.547 E0.81446
G1 X132.949 Y96.518 E0.01815
G1 X116.518 Y112.949 E0.79020
G1 X116.518 Y112.387 E0.01910
G1 X132.387 Y96.518 E0.76319
G1 X131.825 Y96.518 E0.01910
G1 X116.518 Y111.825 E0.73618
G1 X116.518 Y111.264 E0.01910
G1 X131.264 Y96.518 E0.70917
G1 X130.702 Y96.518 E0.01910
G1 X116.518 Y110.702 E0.68216
G1 X116.518 Y110.141 E0.01910
G1 X130.141 Y96.518 E0.65516
G1 X129.579 Y96.518 E0.01910
G1 X116.518 Y109.579 E0.62815
G1 X116.518 Y109.018 E0.01910
G1 X129.018 Y96.518 E0.60114
G1 X128.456 Y96.518 E0.01910
G1 X116.518 Y108.456 E0.57413
G1 X116.518 Y107.895 E0.01910
G1 X127.895 Y96.518 E0.54713
G1 X127.333 Y96.518 E0.01910
G1 X116.518 Y107.333 E0.52012
G1 X116.518 Y106.771 E0.01910
G1 X126.771 Y96.518 E0.49311
G1 X126.210 Y96.518 E0.01910
G1 X116.518 Y106.210 E0.46610
G1 X116.518 Y105.648 E0.01910
G1 X125.648 Y96.518 E0.43910
G1 X125.087 Y96.518 E0.01910
G1 X116.518 Y105.087 E0.41209
G1 X116.518 Y104.525 E0.01910
G1 X124.525 Y96.518 E0.38508
G1 X123.964 Y96.518 E0.01910
G1 X116.518 Y103.964 E0.35807
G1 X116.518 Y103.402 E0.01910
G1 X123.402 Y96.518 E0.33107
G1 X122.841 Y96.518 E0.01910
G1 X116.518 Y102.841 E0.30406
G1 X116.518 Y102.279 E0.01910
G1 X122.279 Y96.518 E0.27705
G1 X121.717 Y96.518 E0.01910
G1 X116.518 Y101.717 E0.25004
G1 X116.518 Y101.156 E0.01910
G1 X121.156 Y96.518 E0.22304
G1 X120.594 Y96.518 E0.01910
G1 X116.518 Y100.594 E0.19603
G1 X116.518 Y100.033 E0.01910
G1 X120.033 Y96.518 E0.16902
G1 X119.471 Y96.518 E0.01910
G1 X116.518 Y99.471 E0.14201
G1 X116.518 Y98.910 E0.01910
G1 X118.910 Y96.518 E0.11501
G1 X118.348 Y96.518 E0.01910
G1 X116.518 Y98.348 E0.08800
G1 X116.518 Y97.787 E0.01910
G1 X117.787 Y96.518 E0.06099
G1 X117.225 Y96.518 E0.01910
G1 X116.518 Y97.225 E0.03398
G1 X116.518 Y96.663 E0.01910
G1 X117.021 Y96.161 E0.02416
G1 E-0.01200 F1800.00000
G1 F8640.000
M204 S1000
G1 X116.518 Y96.663 E-0.14062
G1 X116.518 Y97.225 E-0.11114
G1 X116.936 Y96.808 E-0.11684
G1 E-0.01940 F1800.00000
G1 Z1.000000 F10800.000
G1 X133.641 Y113.859
G1 Z0.400000
G1 E0.40000 F1800.00000
G1 F2400.000
G1 X133.668 Y113.777 E0.00268
G1 X133.715 Y113.643 E0.00398
G1 X133.743 Y113.570 E0.00165
G1 X133.758 Y113.508 E0.00119
G1 X133.750 Y112.640 E0.01382
G1 X133.718 Y112.562 E0.00186
G1 X133.721 Y112.507 E0.00145
G1 X133.743 Y112.447 E0.00134
G1 X133.758 Y112.385 E0.00119
G1 X133.750 Y111.517 E0.01382
G1 X133.718 Y111.439 E0.00186
G1 X133.721 Y111.384 E0.00145
G1 X133.743 Y111.324 E0.00134
G1 X133.758 Y111.262 E0.00119
G1 X133.750 Y110.393 E0.01382
G1 X133.718 Y110.316 E0.00186
G1 X133.721 Y110.261 E0.00145
G1 X133.743 Y110.201 E0.00134
G1 X133.758 Y110.139 E0.00119
G1 X133.750 Y109.270 E0.01382
G1 X133.718 Y109.193 E0.00186
G1 X133.721 Y109.137 E0.00145
G1 X133.743 Y109.078 E0.00134
G1 X133.758 Y109.016 E0.00119
G1 X133.750 Y108.147 E0.01382
G1 X133.718 Y108.070 E0.00186
G1 X133.721 Y108.014 E0.00145
G1 X133.743 Y107.955 E0.00134
G1 X133.758 Y107.893 E0.00119
G1 X133.750 Y107.024 E0.01382
G1 X133.718 Y106.946 E0.00186
G1 X133.721 Y106.891 E0.00145
G1 X133.743 Y106.831 E0.00134
G1 X133.758 Y106.769 E0.00119
G1 X133.750 Y105.901 E0.01382
G1 X133.718 Y105.823 E0.00186
G1 X133.721 Y105.768 E0.00145
