;Sliced by ideaMaker 3.5.3.4250, 2020-11-08 12:14:09 UTC+0100
;Dimension: 250.000 215.000 205.000 0.400
;Plate Shape: 0
;Extruder Offset #1: 25.000 0.000
;Filament Diameter #1: 1.750
;Filament Diameter #2: 1.750
;Filament Compensation #1: 94.00
;Filament Compensation #2: 94.00
;Filament Density #1: 1240.00
;Filament Density #2: 1240.00
;Bounding Box: 95.000 155.001 91.998 123.002 0.000 48.000
;Model Gap: 0.000
M92 E830.00000
M221 T0 S94.00
; ideaMaker Start G-Code
; Layer height=0.2000 ; Pass layer height information to DWC
; Set nozzle and bed to the specific temperatures declared within this slicer
M140 S60 ; set bed temp
M104 S215 ; set extruder temp
M116 ; wait for all temperatures
; Run macro to print primeline at a 'randomized' Y position from -1.1 to -2.9
M98 P"0:/sys/primeLine.g" ; primeline macro
; Set pressure advance
M572 D0 S0.07 ; set pressure advance
;end of Start GCode
M83
;LAYER:0
;Z:0.200
;HEIGHT:0.200
M106 S0
G1 F2700 E-0.5000
M204 T1250.00
M566 X480.00 Y480.00
M82
G92 E0.0
;1
M83
G0 F6000 X104.157 Y107.176
G0 F600 Z0.200
M204 P1000.00
;TYPE:WALL-INNER
;WIDTH:0.450
G1 F2400 E0.5000
G1 F1800 X104.815 Y106.597 E0.0328
G1 X106.153 Y106.610 E0.0501
G1 X106.144 Y110.502 E0.1456
G1 X106.912 Y111.456 E0.0458
G1 X108.329 Y111.529 E0.0531
G1 X109.188 Y110.747 E0.0435
G1 X109.370 Y109.915 E0.0319
G1 X109.388 Y106.609 E0.1237
G1 X110.432 Y106.521 E0.0392
G1 X110.608 Y106.333 E0.0096
G1 X110.912 Y106.664 E0.0168
G1 X110.643 Y107.322 E0.0266
G1 X111.090 Y108.177 E0.0361
G1 X110.743 Y108.229 E0.0131
G1 X110.034 Y109.271 E0.0472
G1 X110.247 Y110.638 E0.0518
G1 X111.542 Y111.549 E0.0592
G1 X113.007 Y111.688 E0.0551
G1 X114.148 Y111.422 E0.0438
G1 X115.217 Y110.619 E0.0500
G1 X115.330 Y111.152 E0.0204
G1 X116.384 Y111.552 E0.0422
G1 X118.830 Y111.445 E0.0916
G1 X120.012 Y110.948 E0.0480
G1 X120.229 Y111.448 E0.0204
G1 X121.654 Y112.067 E0.0581
G1 X123.313 Y111.498 E0.0656
G1 X123.719 Y111.771 E0.0183
G1 X124.946 Y111.510 E0.0469
G1 X125.097 Y111.276 E0.0104
G1 X126.079 Y111.733 E0.0405
G1 X126.292 Y113.333 E0.0604
G1 X127.093 Y114.192 E0.0439
G1 X127.052 Y114.316 E0.0049
G1 X124.324 Y114.454 E0.1022
G1 X100.939 Y113.030 E0.8766
G1 X100.474 Y112.810 E0.0192
G1 X100.271 Y112.378 E0.0179
G1 X100.270 Y110.922 E0.0545
G1 X101.328 Y111.487 E0.0449
G1 X102.419 Y111.691 E0.0415
G1 X103.925 Y111.486 E0.0569
G1 X105.014 Y110.707 E0.0501
G1 X105.613 Y109.570 E0.0481
G1 X105.076 Y108.325 E0.0507
G1 X103.696 Y107.795 E0.0553
G1 X102.749 Y108.356 E0.0412
G1 X102.377 Y108.253 E0.0144
G1 X102.235 Y107.896 E0.0144
G1 X102.274 Y106.848 E0.0392
G1 X102.487 Y106.551 E0.0137
G1 X103.689 Y107.001 E0.0480
G0 F1800 X104.157 Y107.176
G1 F2700 E-0.5000
G0 F6000 X104.068 Y106.655
G1 F2400 E0.5000
G1 F1800 X104.887 Y105.934 E0.0408
G1 X105.053 Y105.918 E0.0062
G1 X105.146 Y106.150 E0.0094
G1 X106.604 Y106.165 E0.0546
G1 X106.594 Y110.344 E0.1564
G1 X107.136 Y111.017 E0.0323
G1 X108.165 Y111.070 E0.0386
G1 X108.779 Y110.511 E0.0311
G1 X108.920 Y109.865 E0.0247
G1 X108.940 Y106.195 E0.1373
G1 X110.222 Y106.087 E0.0481
G1 X110.611 Y105.671 E0.0213
G1 X111.437 Y106.570 E0.0457
G1 X111.139 Y107.299 E0.0295
G1 X111.573 Y108.129 E0.0350
G1 X112.549 Y108.378 E0.0377
G1 X112.893 Y108.719 E0.0181
G1 X112.839 Y108.892 E0.0068
G1 X111.958 Y108.503 E0.0360
G1 X111.004 Y108.645 E0.0361
G1 X110.506 Y109.377 E0.0331
G1 X110.662 Y110.380 E0.0380
G1 X111.703 Y111.112 E0.0476
G1 X112.976 Y111.233 E0.0478
G1 X113.954 Y111.005 E0.0376
G1 X114.778 Y110.386 E0.0386
G1 X115.271 Y109.454 E0.0395
G1 X115.439 Y109.496 E0.0065
G1 X115.719 Y110.818 E0.0506
G1 X116.457 Y111.098 E0.0295
G1 X118.730 Y110.999 E0.0851
G1 X120.248 Y110.361 E0.0616
G1 X120.571 Y111.106 E0.0304
G1 X121.673 Y111.585 E0.0450
G1 X122.923 Y111.156 E0.0494
G1 X123.089 Y110.806 E0.0145
G1 X123.812 Y111.291 E0.0326
G1 X124.669 Y111.109 E0.0328
G1 X125.093 Y110.449 E0.0294
G1 X125.491 Y111.056 E0.0272
G1 X126.298 Y111.332 E0.0319
G1 X127.299 Y110.819 E0.0421
G1 X127.305 Y109.671 E0.0430
G1 X126.541 Y108.203 E0.0619
G1 X127.049 Y107.194 E0.0423
G1 X127.194 Y107.202 E0.0054
G1 X128.325 Y110.220 E0.1206
G1 X127.870 Y111.304 E0.0440
G1 X126.575 Y112.048 E0.0559
G1 X126.719 Y113.131 E0.0409
G1 X127.267 Y113.719 E0.0301
G1 X128.134 Y113.787 E0.0325
G1 X129.099 Y113.433 E0.0385
G1 X129.876 Y112.443 E0.0471
G1 X131.828 Y107.224 E0.2085
G1 X132.778 Y107.715 E0.0400
G1 X131.604 Y109.478 E0.0793
G1 X131.528 Y110.425 E0.0355
G1 X132.157 Y111.245 E0.0387
G1 X134.331 Y111.242 E0.0813
G1 X134.385 Y111.386 E0.0058
G1 X132.082 Y113.063 E0.1066
G1 X130.434 Y113.865 E0.0686
G1 X128.619 Y114.468 E0.0716
G1 X126.923 Y114.800 E0.0647
G1 X124.319 Y114.905 E0.0975
G1 X100.825 Y113.474 E0.8807
G1 X100.135 Y113.148 E0.0286
G1 X99.821 Y112.478 E0.0277
G1 X99.820 Y109.749 E0.1021
G1 X99.972 Y109.698 E0.0060
G1 X100.668 Y110.624 E0.0433
G1 X101.479 Y111.057 E0.0344
G1 X102.430 Y111.235 E0.0362
G1 X103.754 Y111.055 E0.0500
G1 X104.666 Y110.403 E0.0419
G1 X105.115 Y109.551 E0.0360
G1 X104.738 Y108.677 E0.0356
G1 X103.738 Y108.293 E0.0401
G1 X102.814 Y108.841 E0.0402
G1 X102.041 Y108.627 E0.0300
G1 X101.782 Y107.974 E0.0263
G1 X101.829 Y106.696 E0.0479
G1 X102.234 Y106.133 E0.0260
G1 X102.627 Y106.077 E0.0149
G1 X103.604 Y106.469 E0.0394
G0 F1800 X104.068 Y106.655
G1 F2700 E-0.5000
G0 F6000 X104.758 Y105.149
G0 X104.300 Y104.565
G0 X99.829 Y102.628
G0 F6000 X99.462 Y102.469
G0 F6000 X99.368 Y102.436
M204 P800.00
;TYPE:WALL-OUTER
;WIDTH:0.450
G1 F2400 E0.5000
G1 F1800 X99.808 Y101.501 E0.0387
G1 X100.705 Y101.082 E0.0370
G1 X124.436 Y99.639 E0.8896
G1 X127.479 Y99.829 E0.1141
G1 X130.685 Y100.751 E0.1248
G1 X133.635 Y102.401 E0.1265
G1 X136.089 Y104.638 E0.1242
G1 X137.281 Y106.199 E0.0735
G1 X137.853 Y107.252 E0.0448
G1 X137.755 Y108.024 E0.0291
G1 X136.770 Y109.526 E0.0672
G1 X135.354 Y111.145 E0.0805
G1 X133.843 Y112.447 E0.0746
G1 X132.305 Y113.455 E0.0688
G1 X130.604 Y114.283 E0.0708
G1 X128.734 Y114.904 E0.0737
G1 X126.976 Y115.248 E0.0670
G1 X124.314 Y115.356 E0.0997
G1 X100.711 Y113.918 E0.8848
G1 X99.796 Y113.486 E0.0379
G1 X99.371 Y112.578 E0.0375
G1 X99.368 Y102.936 E0.3608
G0 F1800 X99.368 Y102.436
G1 F2700 E-0.5000
G0 F6000 X99.462 Y102.469
G0 X126.040 Y104.644
G0 F6000 X126.538 Y104.684
M204 P1000.00
;TYPE:WALL-INNER
;WIDTH:0.450
G1 F2400 E0.5000
G1 F1800 X125.170 Y105.275 E0.0558
G1 X124.945 Y104.963 E0.0144
G1 X123.639 Y104.830 E0.0491
G1 X122.481 Y105.819 E0.0570
G1 X122.669 Y107.083 E0.0478
G1 X123.206 Y108.101 E0.0431
G1 X123.098 Y108.216 E0.0059
G1 X121.817 Y107.645 E0.0525
G1 X121.652 Y107.710 E0.0066
G1 X121.637 Y106.212 E0.0561
G1 X121.051 Y104.835 E0.0560
G1 X120.251 Y104.010 E0.0430
G1 X119.131 Y103.539 E0.0455
G1 X116.663 Y103.401 E0.0925
G1 X115.476 Y103.690 E0.0457
G1 X115.202 Y104.222 E0.0224
G1 X115.072 Y104.227 E0.0049
G1 X114.874 Y103.901 E0.0143
G1 X113.746 Y103.328 E0.0473
G1 X111.867 Y103.322 E0.0703
G1 X110.795 Y103.847 E0.0447
G1 X110.024 Y103.418 E0.0330
G1 X105.112 Y103.416 E0.1838
G1 X104.726 Y103.966 E0.0251
G1 X103.577 Y103.345 E0.0489
G1 X102.322 Y103.244 E0.0471
G1 X101.237 Y103.468 E0.0415
G1 X100.387 Y104.045 E0.0384
G1 X100.269 Y103.983 E0.0050
G1 X100.268 Y102.638 E0.0503
G1 X100.484 Y102.179 E0.0190
G1 X100.931 Y101.970 E0.0185
G1 X124.436 Y100.541 E0.8811
G1 X127.325 Y100.721 E0.1083
G1 X130.337 Y101.587 E0.1173
G1 X133.105 Y103.135 E0.1187
G1 X134.950 Y104.818 E0.0934
G1 X134.894 Y104.960 E0.0057
G1 X132.032 Y104.914 E0.1071
G1 X131.790 Y105.161 E0.0129
G1 X131.624 Y104.950 E0.0100
G1 X130.281 Y104.856 E0.0504
G1 X129.588 Y105.624 E0.0387
G1 X129.519 Y105.436 E0.0075
G1 X128.172 Y104.730 E0.0569
G1 X127.141 Y105.214 E0.0426
G1 X126.913 Y105.014 E0.0113
G0 F1800 X126.538 Y104.684
G1 F2700 E-0.5000
G0 F6000 X126.455 Y105.210
G1 F2400 E0.5000
G1 F1800 X125.350 Y105.687 E0.0450
G1 X125.150 Y106.016 E0.0144
G1 X124.698 Y105.390 E0.0289
G1 X123.785 Y105.297 E0.0343
G1 X122.963 Y105.999 E0.0404
G1 X123.103 Y106.941 E0.0356
G1 X123.820 Y108.300 E0.0575
G1 X123.331 Y109.121 E0.0358
G1 X123.192 Y109.108 E0.0052
G1 X123.033 Y108.680 E0.0171
G1 X121.807 Y108.133 E0.0502
G1 X121.309 Y108.330 E0.0200
G1 X121.207 Y108.241 E0.0051
G1 X121.188 Y106.306 E0.0724
G1 X120.670 Y105.088 E0.0495
G1 X119.992 Y104.389 E0.0364
G1 X119.028 Y103.984 E0.0391
G1 X116.705 Y103.854 E0.0871
G1 X115.782 Y104.079 E0.0355
G1 X115.419 Y104.784 E0.0297
G1 X115.433 Y107.964 E0.1190
G1 X115.244 Y107.993 E0.0072
G1 X114.963 Y107.097 E0.0351
G1 X114.777 Y106.994 E0.0080
G1 X114.962 Y106.866 E0.0084
G1 X115.134 Y105.194 E0.0629
G1 X114.556 Y104.244 E0.0416
G1 X113.638 Y103.778 E0.0385
G1 X111.957 Y103.772 E0.0629
G1 X111.173 Y104.102 E0.0318
G1 X110.883 Y104.410 E0.0158
G1 X109.907 Y103.868 E0.0418
G1 X105.346 Y103.866 E0.1707
G1 X104.752 Y104.713 E0.0387
G1 X104.355 Y104.222 E0.0236
G1 X103.457 Y103.787 E0.0373
G1 X102.350 Y103.698 E0.0416
G1 X101.416 Y103.891 E0.0357
G1 X100.263 Y104.673 E0.0521
G1 X99.985 Y105.171 E0.0213
G1 X99.819 Y105.127 E0.0064
G1 X99.818 Y102.537 E0.0969
G1 X100.146 Y101.840 E0.0288
G1 X100.818 Y101.526 E0.0278
G1 X124.436 Y100.090 E0.8854
G1 X127.402 Y100.275 E0.1112
G1 X130.511 Y101.169 E0.1210
G1 X133.370 Y102.768 E0.1226
G1 X135.756 Y104.943 E0.1208
G1 X136.902 Y106.444 E0.0707
G1 X137.388 Y107.339 E0.0381
G1 X137.322 Y107.864 E0.0198
G1 X136.107 Y109.600 E0.0793
G1 X135.655 Y109.042 E0.0269
G1 X134.836 Y108.959 E0.0308
G1 X136.029 Y107.121 E0.0820
G1 X136.145 Y106.290 E0.0314
G1 X135.746 Y105.424 E0.0357
G1 X132.218 Y105.367 E0.1320
G1 X131.752 Y105.843 E0.0249
G1 X131.393 Y105.385 E0.0218
G1 X130.468 Y105.320 E0.0347
G1 X129.859 Y105.995 E0.0340
G1 X129.627 Y106.619 E0.0249
G1 X129.472 Y106.619 E0.0058
G1 X129.156 Y105.754 E0.0345
G1 X128.161 Y105.232 E0.0420
G1 X127.065 Y105.747 E0.0453
G1 X126.830 Y105.540 E0.0117
G0 F1800 X126.455 Y105.210
G1 F2700 E-0.5000
G0 F6000 X128.509 Y110.581
G0 X126.882 Y112.200
G0 X126.966 Y113.014
G0 X127.206 Y113.268
G0 X129.127 Y113.448
G0 F6000 X129.624 Y113.494
G1 F2400 E0.5000
G1 F1800 X130.273 Y112.666 E0.0394
G1 X131.015 Y110.683 E0.0792
G1 X131.144 Y110.664 E0.0049
G1 X131.935 Y111.695 E0.0486
G1 X132.937 Y111.694 E0.0375
G1 X132.987 Y111.847 E0.0060
G1 X131.849 Y112.676 E0.0527
G1 X130.024 Y113.492 E0.0748
G0 F1800 X129.718 Y113.629
G0 F1800 X129.624 Y113.494
G1 F2700 E-0.5000
G0 F6000 X135.907 Y110.489
G0 X136.421 Y107.466
G0 F6000 X136.504 Y106.974
G1 F2400 E0.5000
G1 F1800 X136.662 Y106.945 E0.0060
G1 X136.923 Y107.427 E0.0205
G1 X136.889 Y107.697 E0.0102
G1 X136.081 Y108.853 E0.0528
G1 X135.887 Y108.613 E0.0115
G1 X135.615 Y108.586 E0.0102
G1 X136.358 Y107.441 E0.0511
G0 F1800 X136.461 Y107.282
G0 F1800 X136.504 Y106.974
G1 F2700 E-0.5000
G0 F6000 X135.710 Y106.069
G0 F6000 X135.447 Y105.769
G0 F6000 X135.456 Y105.869
M204 P800.00
;TYPE:WALL-OUTER
;WIDTH:0.450
G1 F2400 E0.5000
G1 F1800 X132.404 Y105.820 E0.1142
G1 X132.039 Y106.193 E0.0195
G1 X132.079 Y106.850 E0.0246
G1 X132.483 Y107.141 E0.0186
G1 X133.541 Y107.174 E0.0396
G1 X133.601 Y107.290 E0.0049
G1 X132.043 Y109.630 E0.1052
G1 X131.990 Y110.288 E0.0247
G1 X132.379 Y110.795 E0.0239
G1 X135.194 Y110.790 E0.1053
G1 X135.731 Y110.396 E0.0249
G1 X135.752 Y109.877 E0.0194
G1 X135.423 Y109.471 E0.0196
G1 X134.057 Y109.332 E0.0514
G1 X135.597 Y106.960 E0.1058
G1 X135.681 Y106.358 E0.0227
G1 X135.665 Y106.323 E0.0014
G0 F1800 X135.456 Y105.869
G1 F2700 E-0.5000
G0 F6000 X135.447 Y105.769
G0 X128.154 Y105.534
G0 X127.763 Y105.807
G0 F6000 X127.435 Y106.036
G0 F6000 X127.535 Y106.023
G1 F2400 E0.5000
G1 F1800 X127.571 Y106.926 E0.0338
G1 X128.809 Y110.229 E0.1320
G1 X128.226 Y111.618 E0.0564
G1 X127.061 Y112.288 E0.0503
G1 X127.146 Y112.929 E0.0242
G1 X127.477 Y113.284 E0.0182
G1 X128.071 Y113.331 E0.0223
G1 X128.824 Y113.055 E0.0300
G1 X129.479 Y112.220 E0.0397
G1 X131.533 Y106.727 E0.2194
G1 X131.529 Y106.287 E0.0165
G1 X131.162 Y105.820 E0.0222
G1 X130.655 Y105.784 E0.0190
G1 X130.251 Y106.232 E0.0226
G1 X129.624 Y107.919 E0.0673
G1 X129.469 Y107.918 E0.0058
G1 X128.793 Y106.072 E0.0736
G1 X128.150 Y105.734 E0.0272
G1 X127.987 Y105.811 E0.0067
G0 F1800 X127.535 Y106.023
G1 F2700 E-0.5000
G0 F6000 X127.435 Y106.036
G0 X126.701 Y105.779
G0 F6000 X126.324 Y105.648
G0 F6000 X126.372 Y105.736
G1 F2400 E0.5000
G1 F1800 X125.660 Y106.043 E0.0290
G1 X125.183 Y106.831 E0.0345
G1 X124.451 Y105.817 E0.0468
G1 X123.931 Y105.764 E0.0196
G1 X123.445 Y106.179 E0.0239
G1 X123.537 Y106.799 E0.0235
G1 X124.336 Y108.314 E0.0641
G1 X123.464 Y109.776 E0.0637
G1 X123.430 Y110.493 E0.0269
G1 X123.905 Y110.811 E0.0214
G1 X124.392 Y110.708 E0.0186
G1 X125.089 Y109.622 E0.0483
G1 X125.783 Y110.680 E0.0473
G1 X126.263 Y110.844 E0.0190
G1 X126.850 Y110.543 E0.0247
G1 X126.854 Y109.780 E0.0286
G1 X126.035 Y108.206 E0.0664
G1 X126.853 Y106.584 E0.0680
G1 X126.790 Y106.104 E0.0181
G1 X126.747 Y106.066 E0.0021
G0 F1800 X126.372 Y105.736
G1 F2700 E-0.5000
G0 F6000 X126.324 Y105.648
G0 X123.872 Y105.574
G0 X121.071 Y108.507
G0 X120.600 Y109.549
G0 F6000 X120.436 Y109.913
G0 F6000 X120.524 Y109.865
G1 F2400 E0.5000
G1 F1800 X120.913 Y110.764 E0.0367
G1 X121.692 Y111.103 E0.0318
G1 X122.598 Y110.792 E0.0358
G1 X123.012 Y109.920 E0.0361
G1 X122.677 Y109.014 E0.0361
G1 X121.796 Y108.621 E0.0361
G1 X120.898 Y108.976 E0.0361
G1 X120.717 Y109.404 E0.0174
G0 F1800 X120.524 Y109.865
G1 F2700 E-0.5000
G0 F6000 X120.436 Y109.913
G0 X118.673 Y110.748
G0 X117.442 Y110.799
G0 X116.450 Y110.635
G0 F6000 X116.055 Y110.570
G0 F6000 X116.081 Y110.474
G1 F2400 E0.5000
G1 F1800 X116.530 Y110.644 E0.0180
G1 X118.630 Y110.553 E0.0787
G1 X119.836 Y110.046 E0.0490
G1 X120.517 Y109.148 E0.0422
G1 X120.830 Y107.891 E0.0485
G1 X120.743 Y106.410 E0.0555
G1 X120.289 Y105.341 E0.0435
G1 X119.733 Y104.768 E0.0299
G1 X118.925 Y104.429 E0.0328
G1 X116.747 Y104.307 E0.0816
G1 X116.088 Y104.468 E0.0254
G1 X115.869 Y104.892 E0.0179
G1 X115.891 Y109.882 E0.1867
G1 X115.929 Y109.998 E0.0046
G0 F1800 X116.081 Y110.474
G1 F2700 E-0.5000
G0 F6000 X116.055 Y110.570
G0 X111.795 Y110.862
G0 X110.907 Y110.227
G0 X110.873 Y110.005
G0 X111.457 Y106.441
G0 F6000 X111.521 Y106.046
G0 F6000 X111.482 Y105.954
G1 F2400 E0.5000
G1 F1800 X112.798 Y105.526 E0.0518
G1 X113.088 Y105.822 E0.0155
G1 X112.951 Y106.195 E0.0149
G1 X111.916 Y106.587 E0.0414
G1 X111.635 Y107.276 E0.0278
G1 X111.879 Y107.743 E0.0197
G1 X112.743 Y107.963 E0.0334
G1 X113.178 Y108.277 E0.0201
G1 X113.376 Y108.683 E0.0169
G1 X113.195 Y109.260 E0.0226
G1 X112.903 Y109.412 E0.0123
G1 X111.895 Y108.967 E0.0412
G1 X111.265 Y109.061 E0.0238
G1 X110.978 Y109.483 E0.0191
G1 X111.077 Y110.122 E0.0242
G1 X111.864 Y110.675 E0.0360
G1 X112.945 Y110.778 E0.0406
G1 X113.760 Y110.588 E0.0313
G1 X114.427 Y110.087 E0.0312
G1 X114.870 Y109.250 E0.0354
G1 X114.918 Y108.458 E0.0297
G1 X114.587 Y107.403 E0.0414
G1 X113.924 Y107.035 E0.0284
G1 X114.536 Y106.613 E0.0278
G1 X114.671 Y105.299 E0.0494
G1 X114.238 Y104.587 E0.0312
G1 X113.530 Y104.228 E0.0297
G1 X112.047 Y104.222 E0.0555
G1 X111.435 Y104.480 E0.0249
G1 X111.001 Y104.940 E0.0237
G1 X111.025 Y105.456 E0.0193
G1 X111.144 Y105.586 E0.0066
G0 F1800 X111.482 Y105.954
G1 F2700 E-0.5000
G0 F6000 X111.521 Y106.046
G0 X108.068 Y110.799
G0 X107.270 Y110.756
G0 X107.154 Y110.614
G0 X105.593 Y106.180
G0 F6000 X105.461 Y105.803
G0 F6000 X105.452 Y105.703
G1 F2400 E0.5000
G1 F1800 X106.792 Y105.717 E0.0501
G1 X107.055 Y105.933 E0.0127
G1 X107.044 Y110.186 E0.1591
G1 X107.360 Y110.578 E0.0188
G1 X108.001 Y110.611 E0.0240
G1 X108.370 Y110.275 E0.0187
G1 X108.470 Y109.815 E0.0176
G1 X108.492 Y105.781 E0.1509
G1 X110.012 Y105.653 E0.0571
G1 X110.354 Y105.287 E0.0187
G1 X110.329 Y104.617 E0.0251
G1 X109.790 Y104.318 E0.0231
G1 X105.580 Y104.316 E0.1575
G1 X105.146 Y104.935 E0.0283
G1 X105.267 Y105.239 E0.0122
G0 F1800 X105.452 Y105.703
G1 F2700 E-0.5000
G0 F6000 X105.461 Y105.803
G0 X104.454 Y106.105
G0 F6000 X104.071 Y106.219
G0 F6000 X104.004 Y106.144
G1 F2400 E0.5000
G1 F1800 X104.451 Y105.817 E0.0207
G1 X104.565 Y105.198 E0.0236
G1 X104.068 Y104.583 E0.0296
G1 X103.337 Y104.229 E0.0304
G1 X102.378 Y104.152 E0.0360
G1 X101.595 Y104.314 E0.0299
G1 X100.604 Y104.986 E0.0448
