;Sliced by ideaMaker 3.5.3.4250, 2020-11-01 18:33:44 UTC+0100
;Dimension: 250.000 215.000 205.000 0.400
;Plate Shape: 0
;Extruder Offset #1: 25.000 0.000
;Filament Diameter #1: 1.750
;Filament Diameter #2: 1.750
;Filament Compensation #1: 94.00
;Filament Compensation #2: 94.00
;Filament Density #1: 1240.00
;Filament Density #2: 1240.00
;Bounding Box: 113.359 136.641 95.854 119.146 0.000 2.300
;Model Gap: 0.000
M92 E830.00000
M221 T0 S94.00
; ideaMaker Start G-Code
; Layer height=0.1500 ; Pass layer height information to DWC
; Set nozzle and bed to the specific temperatures declared within this slicer
M140 S65 ; set bed temp
M104 S215 ; set extruder temp
M116 ; wait for all temperatures
; Run macro to print primeline at a 'randomized' Y position from -1.1 to -2.9
M98 P"0:/sys/primeLine.g" ; primeline macro
; Set pressure advance
M572 D0 S0.07 ; set pressure advance
;end of Start GCode
M83
;LAYER:0
;Z:0.200
;HEIGHT:0.200
M106 S0
M104 T0 S240
G1 F2700 E-1.4000
M204 T1250.00
M566 X480.00 Y480.00
M82
G92 E0.0
;1
M83
G0 F9000 X115.272 Y111.516
G0 F600 Z0.200
M204 P1000.00
;TYPE:WALL-INNER
;WIDTH:0.450
G1 F2400 E1.4000
G1 F1800 X114.631 Y109.294 E0.0865
G1 X114.487 Y106.953 E0.0878
G1 X114.602 Y105.862 E0.0410
G1 X115.225 Y103.602 E0.0877
G1 X116.315 Y101.562 E0.0865
G1 X117.824 Y99.807 E0.0866
G1 X119.679 Y98.427 E0.0865
G1 X121.792 Y97.484 E0.0866
G1 X124.089 Y97.021 E0.0877
G1 X125.187 Y96.984 E0.0411
G1 X127.512 Y97.292 E0.0878
G1 X129.683 Y98.090 E0.0865
G1 X131.652 Y99.360 E0.0877
G1 X132.465 Y100.098 E0.0411
G1 X133.933 Y101.961 E0.0888
G1 X134.518 Y103.045 E0.0461
G1 X135.237 Y105.134 E0.0827
G1 X135.509 Y107.503 E0.0892
G1 X135.266 Y109.736 E0.0840
G1 X134.527 Y111.930 E0.0866
G1 X133.312 Y113.935 E0.0877
G1 X132.596 Y114.766 E0.0410
G1 X130.795 Y116.266 E0.0877
G1 X128.737 Y117.324 E0.0866
G1 X126.467 Y117.914 E0.0878
G1 X125.309 Y118.016 E0.0435
G1 X122.975 Y117.824 E0.0876
G1 X120.766 Y117.132 E0.0866
G1 X118.739 Y115.962 E0.0876
G1 X117.843 Y115.214 E0.0437
G1 X116.388 Y113.546 E0.0828
G1 X115.512 Y111.954 E0.0680
G0 F1800 X115.272 Y111.516
G0 F9000 X114.854 Y111.689
G1 F1800 X114.185 Y109.371 E0.0903
G1 X114.036 Y106.943 E0.0910
G1 X114.158 Y105.778 E0.0438
G1 X114.804 Y103.434 E0.0910
G1 X115.941 Y101.306 E0.0903
G1 X117.515 Y99.476 E0.0903
G1 X119.450 Y98.036 E0.0903
G1 X121.654 Y97.053 E0.0903
G1 X124.037 Y96.572 E0.0910
G1 X125.209 Y96.533 E0.0439
G1 X127.620 Y96.852 E0.0910
G1 X129.885 Y97.685 E0.0903
G1 X131.927 Y99.002 E0.0909
G1 X132.795 Y99.790 E0.0439
G1 X134.310 Y101.713 E0.0916
G1 X134.932 Y102.864 E0.0490
G1 X135.678 Y105.034 E0.0859
G1 X135.962 Y107.502 E0.0930
G1 X135.708 Y109.833 E0.0877
G1 X134.938 Y112.121 E0.0903
G1 X133.677 Y114.200 E0.0910
G1 X132.913 Y115.088 E0.0438
G1 X131.045 Y116.644 E0.0910
G1 X128.898 Y117.747 E0.0903
G1 X126.544 Y118.359 E0.0910
G1 X125.310 Y118.468 E0.0464
G1 X122.888 Y118.268 E0.0909
G1 X120.584 Y117.547 E0.0903
G1 X118.480 Y116.332 E0.0909
G1 X117.527 Y115.537 E0.0464
G1 X116.017 Y113.805 E0.0860
G1 X115.094 Y112.127 E0.0717
G0 F1800 X114.854 Y111.689
G0 F9000 X114.436 Y111.862
M204 P800.00
;TYPE:WALL-OUTER
;WIDTH:0.450
G1 F1800 X113.739 Y109.448 E0.0940
G1 X113.585 Y106.933 E0.0943
G1 X113.714 Y105.694 E0.0466
G1 X114.384 Y103.266 E0.0942
G1 X115.567 Y101.050 E0.0940
G1 X117.206 Y99.145 E0.0940
G1 X119.221 Y97.645 E0.0940
G1 X121.516 Y96.622 E0.0940
G1 X123.985 Y96.124 E0.0942
G1 X125.231 Y96.082 E0.0466
G1 X127.728 Y96.412 E0.0942
G1 X130.087 Y97.280 E0.0941
G1 X132.202 Y98.644 E0.0942
G1 X133.125 Y99.482 E0.0466
G1 X134.687 Y101.465 E0.0945
G1 X135.346 Y102.683 E0.0518
G1 X136.119 Y104.934 E0.0891
G1 X136.415 Y107.501 E0.0967
G1 X136.150 Y109.930 E0.0914
G1 X135.349 Y112.312 E0.0940
G1 X134.042 Y114.465 E0.0942
G1 X133.230 Y115.410 E0.0466
G1 X131.295 Y117.022 E0.0942
G1 X129.059 Y118.170 E0.0940
G1 X126.621 Y118.804 E0.0943
G1 X125.311 Y118.920 E0.0492
G1 X122.801 Y118.712 E0.0942
G1 X120.402 Y117.962 E0.0940
G1 X118.221 Y116.702 E0.0942
G1 X117.211 Y115.860 E0.0492
G1 X115.646 Y114.064 E0.0891
G1 X114.676 Y112.300 E0.0753
G0 F1800 X114.436 Y111.862
G1 F2700 E-1.4000
G0 F9000 X114.530 Y111.826
G0 X119.889 Y103.773
G0 X121.276 Y102.388
G0 X124.019 Y101.257
G0 X125.980 Y101.258
G0 X126.755 Y101.580
G0 X130.226 Y103.159
G0 F9000 X130.681 Y103.366
M204 P1000.00
;TYPE:WALL-INNER
;WIDTH:0.450
G1 F2400 E1.4000
G1 F1800 X129.157 Y101.843 E0.0806
G1 X128.141 Y101.219 E0.0446
G1 X126.091 Y100.555 E0.0806
G1 X123.936 Y100.555 E0.0806
G1 X122.778 Y100.833 E0.0446
G1 X120.857 Y101.811 E0.0807
G1 X119.334 Y103.334 E0.0806
G1 X118.711 Y104.350 E0.0446
G1 X118.046 Y106.400 E0.0806
G1 X118.046 Y108.555 E0.0806
G1 X118.324 Y109.713 E0.0446
G1 X119.282 Y111.594 E0.0790
G1 X120.054 Y112.499 E0.0445
G1 X121.799 Y113.766 E0.0807
G1 X123.891 Y114.445 E0.0823
G1 X126.046 Y114.445 E0.0806
G1 X127.204 Y114.167 E0.0446
G1 X129.125 Y113.189 E0.0807
G1 X130.649 Y111.665 E0.0806
G1 X131.272 Y110.645 E0.0447
G1 X131.940 Y108.544 E0.0825
G1 X131.936 Y106.445 E0.0785
G1 X131.659 Y105.287 E0.0446
G1 X130.907 Y103.811 E0.0620
G0 F1800 X130.681 Y103.366
G0 F9000 X130.312 Y103.634
G1 F1800 X128.876 Y102.199 E0.0760
G1 X127.951 Y101.631 E0.0406
G1 X126.020 Y101.005 E0.0760
G1 X123.989 Y101.005 E0.0760
G1 X122.935 Y101.258 E0.0406
G1 X121.125 Y102.180 E0.0760
G1 X119.690 Y103.615 E0.0759
G1 X119.123 Y104.540 E0.0406
G1 X118.496 Y106.471 E0.0760
G1 X118.496 Y108.502 E0.0760
G1 X118.749 Y109.556 E0.0406
G1 X119.659 Y111.342 E0.0750
G1 X120.362 Y112.166 E0.0405
G1 X122.006 Y113.360 E0.0760
G1 X123.962 Y113.995 E0.0769
G1 X125.993 Y113.995 E0.0760
G1 X127.047 Y113.742 E0.0406
G1 X128.857 Y112.820 E0.0760
G1 X130.293 Y111.385 E0.0760
G1 X130.860 Y110.457 E0.0407
G1 X131.490 Y108.475 E0.0778
G1 X131.486 Y106.498 E0.0740
G1 X131.234 Y105.444 E0.0405
G1 X130.538 Y104.079 E0.0573
G0 F1800 X130.312 Y103.634
G0 F9000 X129.943 Y103.902
M204 P800.00
;TYPE:WALL-OUTER
;WIDTH:0.450
G1 F1800 X128.595 Y102.555 E0.0713
G1 X127.761 Y102.043 E0.0366
G1 X125.949 Y101.455 E0.0713
G1 X124.042 Y101.455 E0.0714
G1 X123.092 Y101.683 E0.0366
G1 X121.393 Y102.549 E0.0714
G1 X120.046 Y103.896 E0.0713
G1 X119.535 Y104.730 E0.0366
G1 X118.946 Y106.542 E0.0713
G1 X118.946 Y108.449 E0.0714
G1 X119.174 Y109.399 E0.0366
G1 X120.036 Y111.090 E0.0710
G1 X120.670 Y111.833 E0.0365
G1 X122.213 Y112.954 E0.0714
G1 X124.033 Y113.545 E0.0716
G1 X125.940 Y113.545 E0.0714
G1 X126.890 Y113.317 E0.0366
G1 X128.589 Y112.451 E0.0714
G1 X129.937 Y111.104 E0.0713
G1 X130.448 Y110.269 E0.0366
G1 X131.040 Y108.406 E0.0731
G1 X131.036 Y106.551 E0.0694
G1 X130.809 Y105.601 E0.0365
G1 X130.170 Y104.347 E0.0527
G0 F1800 X129.943 Y103.902
G1 F2700 E-1.4000
G0 F9000 X130.006 Y103.825
G0 X132.209 Y100.768
G0 F9000 X132.501 Y100.363
M204 P1500.00
;TYPE:SOLID-FILL
;WIDTH:0.450
G1 F2400 E1.4000
G1 F1800 X131.966 Y99.828 E0.0283
G1 F2700 E-1.4000
G1 F600 Z0.240
G0 F9000 X129.880 Y98.379
G1 F600 Z0.200
G1 F2400 E1.4000
G1 F1800 X134.150 Y102.649 E0.2260
G1 F2700 E-1.4000
G1 F600 Z0.240
G0 F9000 X134.618 Y103.753
G1 F600 Z0.200
G1 F2400 E1.4000
G1 F1800 X128.760 Y97.895 E0.3100
G1 F2700 E-1.4000
G1 F600 Z0.240
G0 F9000 X127.754 Y97.525
G1 F600 Z0.200
G1 F2400 E1.4000
G1 F1800 X134.952 Y104.723 E0.3809
G1 F2700 E-1.4000
G1 F600 Z0.240
G0 F9000 X135.148 Y105.556
G1 F600 Z0.200
G1 F2400 E1.4000
G1 F1800 X126.946 Y97.354 E0.4340
G1 F2700 E-1.4000
G1 F600 Z0.240
G0 F9000 X126.212 Y97.256
G1 F600 Z0.200
G1 F2400 E1.4000
G1 F1800 X135.232 Y106.276 E0.4773
G1 F2700 E-1.4000
G1 F600 Z0.240
G0 F9000 X135.314 Y106.995
G1 F600 Z0.200
G1 F2400 E1.4000
G1 F1800 X125.479 Y97.160 E0.5204
G1 F2700 E-1.4000
G1 F600 Z0.240
G0 F9000 X124.814 Y97.131
G1 F600 Z0.200
G1 F2400 E1.4000
G1 F1800 X135.355 Y107.671 E0.5578
G1 F2700 E-1.4000
G1 F600 Z0.240
G0 F9000 X135.292 Y108.246
G1 F600 Z0.200
G1 F2400 E1.4000
G1 F1800 X131.265 Y104.219 E0.2131
G1 F2700 E-1.4000
G1 F600 Z0.240
G0 F9000 X131.828 Y105.417
G1 F600 Z0.200
G1 F2400 E1.4000
G1 F1800 X135.229 Y108.819 E0.1800
G1 F2700 E-1.4000
G1 F600 Z0.240
G0 F9000 X135.166 Y109.392
G1 F600 Z0.200
G1 F2400 E1.4000
G1 F1800 X132.028 Y106.254 E0.1661
G1 F2700 E-1.4000
G1 F600 Z0.240
G0 F9000 X132.071 Y106.933
G1 F600 Z0.200
G1 F2400 E1.4000
G1 F1800 X135.060 Y109.922 E0.1582
G1 F2700 E-1.4000
G1 F600 Z0.240
G0 F9000 X134.899 Y110.398
G1 F600 Z0.200
G1 F2400 E1.4000
G1 F1800 X132.072 Y107.571 E0.1496
G1 F2700 E-1.4000
G1 F600 Z0.240
G0 F9000 X132.074 Y108.209
G1 F600 Z0.200
G1 F2400 E1.4000
G1 F1800 X134.739 Y110.875 E0.1410
G1 F2700 E-1.4000
G1 F600 Z0.240
G0 F9000 X134.579 Y111.350
G1 F600 Z0.200
G1 F2400 E1.4000
G1 F1800 X132.006 Y108.777 E0.1362
G1 F2700 E-1.4000
G1 F600 Z0.240
G0 F9000 X131.852 Y109.260
G1 F600 Z0.200
G1 F2400 E1.4000
G1 F1800 X134.419 Y111.827 E0.1358
G0 F9000 X134.186 Y112.231
G1 F1800 X131.698 Y109.742 E0.1317
G1 F2700 E-1.4000
G1 F600 Z0.240
G0 F9000 X131.545 Y110.225
G1 F600 Z0.200
G1 F2400 E1.4000
G1 F1800 X133.946 Y112.627 E0.1271
G0 F9000 X133.706 Y113.023
G1 F1800 X131.389 Y110.706 E0.1226
G0 F9000 X131.148 Y111.102
G1 F1800 X133.465 Y113.419 E0.1226
G0 F9000 X133.225 Y113.815
G1 F1800 X130.907 Y111.497 E0.1227
G0 F9000 X130.638 Y111.864
G1 F1800 X132.936 Y114.163 E0.1216
G0 F9000 X132.641 Y114.504
G1 F1800 X130.320 Y112.183 E0.1228
G0 F9000 X130.002 Y112.501
G1 F1800 X132.319 Y114.818 E0.1226
G0 F9000 X131.972 Y115.107
G1 F1800 X129.684 Y112.819 E0.1211
G0 F9000 X129.365 Y113.137
G1 F1800 X131.625 Y115.396 E0.1196
G0 F9000 X131.277 Y115.686
G1 F1800 X128.997 Y113.405 E0.1207
G0 F9000 X128.576 Y113.620
G1 F1800 X130.931 Y115.976 E0.1246
G0 F9000 X130.555 Y116.236
G1 F1800 X128.153 Y113.834 E0.1271
G0 F9000 X127.732 Y114.049
G1 F1800 X130.135 Y116.452 E0.1272
G0 F9000 X129.715 Y116.669
G1 F1800 X127.311 Y114.264 E0.1272
G1 F2700 E-1.4000
G1 F600 Z0.240
G0 F9000 X126.810 Y114.400
G1 F600 Z0.200
G1 F2400 E1.4000
G1 F1800 X129.294 Y116.884 E0.1314
G0 F9000 X128.874 Y117.101
G1 F1800 X126.297 Y114.523 E0.1364
G1 F2700 E-1.4000
G1 F600 Z0.240
G0 F9000 X125.717 Y114.580
G1 F600 Z0.200
G1 F2400 E1.4000
G1 F1800 X128.407 Y117.270 E0.1423
G1 F2700 E-1.4000
G1 F600 Z0.240
G0 F9000 X127.902 Y117.401
G1 F600 Z0.200
G1 F2400 E1.4000
G1 F1800 X125.080 Y114.580 E0.1493
G1 F2700 E-1.4000
G1 F600 Z0.240
G0 F9000 X124.444 Y114.580
G1 F600 Z0.200
G1 F2400 E1.4000
G1 F1800 X127.397 Y117.533 E0.1563
G1 F2700 E-1.4000
G1 F600 Z0.240
G0 F9000 X126.891 Y117.663
G1 F600 Z0.200
G1 F2400 E1.4000
G1 F1800 X123.778 Y114.550 E0.1647
G1 F2700 E-1.4000
G1 F600 Z0.240
G0 F9000 X122.835 Y114.244
G1 F600 Z0.200
G1 F2400 E1.4000
G1 F1800 X126.377 Y117.786 E0.1874
G1 F2700 E-1.4000
G1 F600 Z0.240
G0 F9000 X125.792 Y117.837
G1 F600 Z0.200
G1 F2400 E1.4000
G1 F1800 X121.893 Y113.938 E0.2063
G1 F2700 E-1.4000
G1 F600 Z0.240
G0 F9000 X120.081 Y116.581
G1 F600 Z0.200
G1 F2400 E1.4000
G1 F1800 X115.923 Y112.423 E0.2200
G1 F2700 E-1.4000
G1 F600 Z0.240
G0 F9000 X115.312 Y111.176
G1 F600 Z0.200
G1 F2400 E1.4000
G1 F1800 X121.292 Y117.155 E0.3164
G1 F2700 E-1.4000
G1 F600 Z0.240
G0 F9000 X122.218 Y117.445
G1 F600 Z0.200
G1 F2400 E1.4000
G1 F1800 X115.055 Y110.282 E0.3790
G1 F2700 E-1.4000
G1 F600 Z0.240
G0 F9000 X114.798 Y109.388
G1 F600 Z0.200
G1 F2400 E1.4000
G1 F1800 X123.108 Y117.699 E0.4398
G1 F2700 E-1.4000
G1 F600 Z0.240
G0 F9000 X123.801 Y117.755
G1 F600 Z0.200
G1 F2400 E1.4000
G1 F1800 X114.728 Y108.682 E0.4801
G1 F2700 E-1.4000
G1 F600 Z0.240
G0 F9000 X114.686 Y108.004
G1 F600 Z0.200
G1 F2400 E1.4000
G1 F1800 X124.495 Y117.813 E0.5191
G1 F2700 E-1.4000
G1 F600 Z0.240
G0 F9000 X125.188 Y117.869
G1 F600 Z0.200
G1 F2400 E1.4000
G1 F1800 X114.645 Y107.326 E0.5579
G1 F2700 E-1.4000
G1 F600 Z0.240
G0 F9000 X114.649 Y106.694
G1 F600 Z0.200
G1 F2400 E1.4000
G1 F1800 X118.694 Y110.739 E0.2140
G1 F2700 E-1.4000
G1 F600 Z0.240
G0 F9000 X118.146 Y109.555
G1 F600 Z0.200
G1 F2400 E1.4000
G1 F1800 X114.709 Y106.118 E0.1819
G1 F2700 E-1.4000
G1 F600 Z0.240
G0 F9000 X114.816 Y105.588
G1 F600 Z0.200
G1 F2400 E1.4000
G1 F1800 X117.946 Y108.718 E0.1656
G1 F2700 E-1.4000
G1 F600 Z0.240
G0 F9000 X117.910 Y108.045
G1 F600 Z0.200
G1 F2400 E1.4000
G1 F1800 X114.953 Y105.089 E0.1564
G1 F2700 E-1.4000
G1 F600 Z0.240
G0 F9000 X115.091 Y104.590
G1 F600 Z0.200
G1 F2400 E1.4000
G1 F1800 X117.910 Y107.409 E0.1492
G1 F2700 E-1.4000
G1 F600 Z0.240
G0 F9000 X117.910 Y106.773
G1 F600 Z0.200
G1 F2400 E1.4000
G1 F1800 X115.228 Y104.091 E0.1419
G1 F2700 E-1.4000
G1 F600 Z0.240
G0 F9000 X115.375 Y103.602
G1 F600 Z0.200
G1 F2400 E1.4000
G1 F1800 X117.970 Y106.196 E0.1373
G1 F2700 E-1.4000
G1 F600 Z0.240
G0 F9000 X118.125 Y105.715
G1 F600 Z0.200
G1 F2400 E1.4000
G1 F1800 X115.597 Y103.188 E0.1337
G0 F9000 X115.819 Y102.773
G1 F1800 X118.281 Y105.235 E0.1303
G1 F2700 E-1.4000
G1 F600 Z0.240
G0 F9000 X118.437 Y104.755
G1 F600 Z0.200
G1 F2400 E1.4000
G1 F1800 X116.041 Y102.358 E0.1268
G0 F9000 X116.262 Y101.943
G1 F1800 X118.595 Y104.277 E0.1235
G0 F9000 X118.838 Y103.883
G1 F1800 X116.503 Y101.548 E0.1236
G0 F9000 X116.797 Y101.206
G1 F1800 X119.080 Y103.488 E0.1208
G0 F9000 X119.352 Y103.124
G1 F1800 X117.091 Y100.863 E0.1196
G0 F9000 X117.386 Y100.521
G1 F1800 X119.670 Y102.806 E0.1209
G0 F9000 X119.988 Y102.488
G1 F1800 X117.680 Y100.179 E0.1222
G0 F9000 X117.989 Y99.852
G1 F1800 X120.307 Y102.169 E0.1226
G0 F9000 X120.625 Y101.851
G1 F1800 X118.354 Y99.581 E0.1201
G0 F9000 X118.719 Y99.309
G1 F1800 X120.997 Y101.587 E0.1205
G0 F9000 X121.418 Y101.372
G1 F1800 X119.084 Y99.038 E0.1235
G0 F9000 X119.449 Y98.766
G1 F1800 X121.840 Y101.157 E0.1265
G0 F9000 X122.262 Y100.943
G1 F1800 X119.827 Y98.508 E0.1289
G0 F9000 X120.268 Y98.312
G1 F1800 X122.683 Y100.728 E0.1278
G1 F2700 E-1.4000
G1 F600 Z0.240
G0 F9000 X123.187 Y100.595
G1 F600 Z0.200
G1 F2400 E1.4000
G1 F1800 X120.708 Y98.116 E0.1312
G0 F9000 X121.147 Y97.919
G1 F1800 X123.700 Y100.472 E0.1351
G1 F2700 E-1.4000
G1 F600 Z0.240
G0 F9000 X124.284 Y100.419
G1 F600 Z0.200
G1 F2400 E1.4000
G1 F1800 X121.588 Y97.723 E0.1427
G1 F2700 E-1.4000
G1 F600 Z0.240
G0 F9000 X122.067 Y97.566
G1 F600 Z0.200
G1 F2400 E1.4000
G1 F1800 X124.921 Y100.419 E0.1510
G1 F2700 E-1.4000
G1 F600 Z0.240
G0 F9000 X125.557 Y100.419
G1 F600 Z0.200
G1 F2400 E1.4000
G1 F1800 X122.597 Y97.459 E0.1566
G1 F2700 E-1.4000
G1 F600 Z0.240
G0 F9000 X123.127 Y97.353
G1 F600 Z0.200
G1 F2400 E1.4000
G1 F1800 X126.233 Y100.459 E0.1644
G1 F2700 E-1.4000
G1 F600 Z0.240
G0 F9000 X127.175 Y100.764
G1 F600 Z0.200
G1 F2400 E1.4000
G1 F1800 X123.656 Y97.246 E0.1862
G1 F2700 E-1.4000
G1 F600 Z0.240
G0 F9000 X124.199 Y97.152
G1 F600 Z0.200
G1 F2400 E1.4000
G1 F1800 X128.116 Y101.069 E0.2073
G1 F2700 E-1.4000
G1 F600 Z0.240
G0 F9000 X123.023 Y101.496
G0 X121.276 Y102.388
G0 X119.354 Y104.647
G0 X119.012 Y105.703
G0 X117.711 Y114.280
G0 F9000 X117.637 Y114.774
G1 F600 Z0.200
G1 F2400 E1.4000
G1 F1800 X118.204 Y115.340 E0.0300
;LAYER:1
;Z:0.350
;HEIGHT:0.150
M104 T0 S235
G1 F2700 E-1.4000
M82
G92 E0.0
;2
M83
G0 F600 Z0.350
G0 F9000 X115.740 Y112.507
M204 P1000.00
;TYPE:WALL-INNER
;WIDTH:0.450
G1 F600 Z0.350
G1 F2400 E1.4000
G1 F2250 X114.871 Y110.362 E0.0649
G1 X114.484 Y108.049 E0.0658
G1 X114.484 Y106.951 E0.0308
G1 X114.871 Y104.635 E0.0659
G1 X115.689 Y102.596 E0.0617
G1 X116.330 Y101.527 E0.0350
G1 X117.868 Y99.762 E0.0657
G1 X119.731 Y98.391 E0.0649
G1 X121.851 Y97.461 E0.0650
G1 X124.154 Y97.012 E0.0658
G1 X125.250 Y96.981 E0.0308
G1 X127.576 Y97.304 E0.0659
G1 X129.636 Y98.068 E0.0617
G1 X130.725 Y98.679 E0.0350
G1 X132.530 Y100.166 E0.0656
G1 X133.951 Y101.992 E0.0649
G1 X134.953 Y104.112 E0.0658
G1 X135.251 Y105.167 E0.0308
G1 X135.509 Y107.500 E0.0659
G1 X135.251 Y109.833 E0.0659
G1 X134.953 Y110.888 E0.0308
G1 X133.951 Y113.008 E0.0658
G1 X132.530 Y114.834 E0.0649
G1 X130.743 Y116.305 E0.0650
G1 X128.679 Y117.350 E0.0649
G1 X126.433 Y117.920 E0.0650
G1 X124.237 Y117.988 E0.0617
G1 X122.998 Y117.831 E0.0350
G1 X120.766 Y117.132 E0.0656
G1 X118.762 Y115.975 E0.0649
G1 X117.059 Y114.408 E0.0649
G1 X116.025 Y112.917 E0.0509
G0 F2250 X115.740 Y112.507
G0 F9000 X115.342 Y112.722
G1 F2250 X114.435 Y110.485 E0.0677
G1 X114.034 Y108.086 E0.0683
