;Sliced by ideaMaker 3.5.3.4250, 2020-11-14 19:44:35 UTC+0100
;Dimension: 250.000 215.000 205.000 0.400
;Plate Shape: 0
;Extruder Offset #1: 25.000 0.000
;Filament Diameter #1: 1.750
;Filament Diameter #2: 1.750
;Filament Compensation #1: 94.00
;Filament Compensation #2: 94.00
;Filament Density #1: 1240.00
;Filament Density #2: 1240.00
;Bounding Box: 12.775 237.225 15.275 199.725 0.000 0.200
;Model Gap: 0.000
M92 E830.00000
M221 T0 S94.00
; ideaMaker Start G-Code
; Layer height=0.2000 ; Pass layer height information to DWC
; Set nozzle and bed to the specific temperatures declared within this slicer
M140 S60 ; set bed temp
M104 S215 ; set extruder temp
M116 ; wait for all temperatures
; Run macro to print primeline at a 'randomized' Y position from -1.1 to -2.9
M98 P"0:/sys/primeLine.g" ; primeline macro
; Set pressure advance
M572 D0 S0.07 ; set pressure advance
;end of Start GCode
M83
;LAYER:0
;Z:0.200
;HEIGHT:0.200
M106 S0
G1 F2700 E-0.5000
M204 T1250.00
M566 X480.00 Y480.00
M82
G92 E0.0
;1
M83
G0 F6000 X13.205 Y15.451
G0 F600 Z0.200
G0 F6000 X13.529 Y15.831
M204 P1000.00
;TYPE:SKIRT
;WIDTH:0.450
G1 F2400 E0.5000
G1 F900 X14.168 Y15.436 E0.0281
G1 X15.000 Y15.275 E0.0317
G1 X33.376 Y15.307 E0.6876
G1 X34.084 Y15.557 E0.0281
G1 X34.669 Y16.029 E0.0281
G1 X35.174 Y17.028 E0.0419
G1 X35.225 Y23.875 E0.2562
G1 X63.275 Y23.875 E1.0496
G1 X63.307 Y17.124 E0.2526
G1 X63.557 Y16.416 E0.0281
G1 X64.029 Y15.831 E0.0281
G1 X64.668 Y15.436 E0.0281
G1 X65.500 Y15.275 E0.0317
G1 X83.500 Y15.275 E0.6735
G1 X84.241 Y15.402 E0.0281
G1 X85.169 Y16.029 E0.0419
G1 X85.674 Y17.028 E0.0419
G1 X85.725 Y23.875 E0.2562
G1 X113.775 Y23.875 E1.0496
G1 X113.807 Y17.124 E0.2526
G1 X114.057 Y16.416 E0.0281
G1 X114.529 Y15.831 E0.0281
G1 X115.168 Y15.436 E0.0281
G1 X116.000 Y15.275 E0.0317
G1 X134.000 Y15.275 E0.6735
G1 X134.741 Y15.402 E0.0281
G1 X135.669 Y16.029 E0.0419
G1 X136.174 Y17.028 E0.0419
G1 X136.225 Y23.875 E0.2562
G1 X164.275 Y23.875 E1.0496
G1 X164.307 Y17.124 E0.2526
G1 X164.768 Y16.103 E0.0419
G1 X165.668 Y15.436 E0.0419
G1 X166.500 Y15.275 E0.0317
G1 X184.500 Y15.275 E0.6735
G1 X185.241 Y15.402 E0.0281
G1 X185.897 Y15.768 E0.0281
G1 X186.393 Y16.332 E0.0281
G1 X186.674 Y17.028 E0.0281
G1 X186.725 Y23.875 E0.2562
G1 X214.775 Y23.875 E1.0496
G1 X214.807 Y17.124 E0.2526
G1 X215.268 Y16.103 E0.0419
G1 X216.168 Y15.436 E0.0419
G1 X217.000 Y15.275 E0.0317
G1 X235.000 Y15.275 E0.6735
G1 X235.741 Y15.402 E0.0281
G1 X236.397 Y15.768 E0.0281
G1 X237.064 Y16.668 E0.0419
G1 X237.225 Y17.500 E0.0317
G1 X237.193 Y35.876 E0.6876
G1 X236.943 Y36.584 E0.0281
G1 X236.471 Y37.169 E0.0281
G1 X235.472 Y37.674 E0.0419
G1 X228.625 Y37.725 E0.2562
G1 X228.625 Y55.775 E0.6754
G1 X235.376 Y55.807 E0.2526
G1 X236.397 Y56.268 E0.0419
G1 X237.064 Y57.168 E0.0419
G1 X237.225 Y58.000 E0.0317
G1 X237.193 Y76.376 E0.6876
G1 X236.943 Y77.084 E0.0281
G1 X236.471 Y77.669 E0.0281
G1 X235.472 Y78.174 E0.0419
G1 X228.625 Y78.225 E0.2562
G1 X228.625 Y96.275 E0.6754
G1 X235.376 Y96.307 E0.2526
G1 X236.397 Y96.768 E0.0419
G1 X237.064 Y97.668 E0.0419
G1 X237.225 Y98.500 E0.0317
G1 X237.225 Y116.500 E0.6735
G1 X237.098 Y117.241 E0.0281
G1 X236.732 Y117.897 E0.0281
G1 X236.168 Y118.393 E0.0281
G1 X235.472 Y118.674 E0.0281
G1 X228.625 Y118.725 E0.2562
G1 X228.625 Y136.775 E0.6754
G1 X235.376 Y136.807 E0.2526
G1 X236.397 Y137.268 E0.0419
G1 X237.064 Y138.168 E0.0419
G1 X237.225 Y139.000 E0.0317
G1 X237.225 Y157.000 E0.6735
G1 X237.098 Y157.741 E0.0281
G1 X236.732 Y158.397 E0.0281
G1 X236.168 Y158.893 E0.0281
G1 X235.472 Y159.174 E0.0281
G1 X228.625 Y159.225 E0.2562
G1 X228.625 Y177.275 E0.6754
G1 X235.376 Y177.307 E0.2526
G1 X236.397 Y177.768 E0.0419
G1 X237.064 Y178.668 E0.0419
G1 X237.225 Y179.500 E0.0317
G1 X237.225 Y197.500 E0.6735
G1 X237.098 Y198.241 E0.0281
G1 X236.732 Y198.897 E0.0281
G1 X235.832 Y199.564 E0.0419
G1 X235.000 Y199.725 E0.0317
G1 X217.000 Y199.725 E0.6735
G1 X216.259 Y199.598 E0.0281
G1 X215.331 Y198.971 E0.0419
G1 X214.826 Y197.972 E0.0419
G1 X214.775 Y191.125 E0.2562
G1 X186.725 Y191.125 E1.0496
G1 X186.693 Y197.876 E0.2526
G1 X186.232 Y198.897 E0.0419
G1 X185.332 Y199.564 E0.0419
G1 X184.500 Y199.725 E0.0317
G1 X166.500 Y199.725 E0.6735
G1 X165.759 Y199.598 E0.0281
G1 X165.103 Y199.232 E0.0281
G1 X164.607 Y198.668 E0.0281
G1 X164.326 Y197.972 E0.0281
G1 X164.275 Y191.125 E0.2562
G1 X136.225 Y191.125 E1.0496
G1 X136.193 Y197.876 E0.2526
G1 X135.732 Y198.897 E0.0419
G1 X134.832 Y199.564 E0.0419
G1 X134.000 Y199.725 E0.0317
G1 X116.000 Y199.725 E0.6735
G1 X115.259 Y199.598 E0.0281
G1 X114.603 Y199.232 E0.0281
G1 X114.107 Y198.668 E0.0281
G1 X113.826 Y197.972 E0.0281
G1 X113.775 Y191.125 E0.2562
G1 X85.725 Y191.125 E1.0496
G1 X85.693 Y197.876 E0.2526
G1 X85.232 Y198.897 E0.0419
G1 X84.332 Y199.564 E0.0419
G1 X83.500 Y199.725 E0.0317
G1 X65.500 Y199.725 E0.6735
G1 X64.759 Y199.598 E0.0281
G1 X64.103 Y199.232 E0.0281
G1 X63.607 Y198.668 E0.0281
G1 X63.326 Y197.972 E0.0281
G1 X63.275 Y191.125 E0.2562
G1 X35.225 Y191.125 E1.0496
G1 X35.193 Y197.876 E0.2526
G1 X34.732 Y198.897 E0.0419
G1 X33.832 Y199.564 E0.0419
G1 X33.000 Y199.725 E0.0317
G1 X15.000 Y199.725 E0.6735
G1 X14.259 Y199.598 E0.0281
G1 X13.603 Y199.232 E0.0281
G1 X12.936 Y198.332 E0.0419
G1 X12.775 Y197.500 E0.0317
G1 X12.807 Y179.124 E0.6876
G1 X13.057 Y178.416 E0.0281
G1 X13.529 Y177.831 E0.0281
G1 X14.528 Y177.326 E0.0419
G1 X21.375 Y177.275 E0.2562
G1 X21.375 Y159.225 E0.6754
G1 X14.624 Y159.193 E0.2526
G1 X13.603 Y158.732 E0.0419
G1 X12.936 Y157.832 E0.0419
G1 X12.775 Y157.000 E0.0317
G1 X12.807 Y138.624 E0.6876
G1 X13.057 Y137.916 E0.0281
G1 X13.529 Y137.331 E0.0281
G1 X14.528 Y136.826 E0.0419
G1 X21.375 Y136.775 E0.2562
G1 X21.375 Y118.725 E0.6754
G1 X14.624 Y118.693 E0.2526
G1 X13.603 Y118.232 E0.0419
G1 X12.936 Y117.332 E0.0419
G1 X12.775 Y116.500 E0.0317
G1 X12.775 Y98.500 E0.6735
G1 X12.902 Y97.759 E0.0281
G1 X13.268 Y97.103 E0.0281
G1 X13.832 Y96.607 E0.0281
G1 X14.528 Y96.326 E0.0281
G1 X21.375 Y96.275 E0.2562
G1 X21.375 Y78.225 E0.6754
G1 X14.624 Y78.193 E0.2526
G1 X13.603 Y77.732 E0.0419
G1 X12.936 Y76.832 E0.0419
G1 X12.775 Y76.000 E0.0317
G1 X12.775 Y58.000 E0.6735
G1 X12.902 Y57.259 E0.0281
G1 X13.268 Y56.603 E0.0281
G1 X13.832 Y56.107 E0.0281
G1 X14.528 Y55.826 E0.0281
G1 X21.375 Y55.775 E0.2562
G1 X21.375 Y37.725 E0.6754
G1 X14.624 Y37.693 E0.2526
G1 X13.603 Y37.232 E0.0419
G1 X12.936 Y36.332 E0.0419
G1 X12.775 Y35.500 E0.0317
G1 X12.807 Y17.124 E0.6876
G1 X13.057 Y16.416 E0.0281
G1 X13.215 Y16.220 E0.0094
G0 F900 X13.529 Y15.831
G1 F2700 E-0.5000
G0 F6000 X16.125 Y34.375
;TYPE:WALL-INNER
;WIDTH:0.450
G1 F2400 E0.5000
G1 F1800 X16.125 Y18.625 E0.5893
G1 X31.875 Y18.625 E0.5893
G1 X31.875 Y34.375 E0.5893
G1 X16.625 Y34.375 E0.5706
G0 F1800 X16.125 Y34.375
G1 F2700 E-0.5000
G0 F6000 X15.675 Y34.825
G1 F2400 E0.5000
G1 F1800 X15.675 Y18.175 E0.6230
G1 X32.325 Y18.175 E0.6230
G1 X32.325 Y34.825 E0.6230
G1 X16.175 Y34.825 E0.6043
G0 F1800 X15.675 Y34.825
G1 F2700 E-0.5000
G1 F600 Z0.240
G0 F6000 X32.634 Y26.534
G0 X65.315 Y26.426
G0 F6000 X65.715 Y26.425
G0 F6000 X65.725 Y26.325
M204 P800.00
;TYPE:WALL-OUTER
;WIDTH:0.450
G1 F600 Z0.200
G1 F2400 E0.5000
G1 F1800 X65.725 Y17.725 E0.3218
G1 X83.275 Y17.725 E0.6567
G1 X83.275 Y26.325 E0.3218
G1 X116.225 Y26.325 E1.2329
G1 X116.225 Y17.725 E0.3218
G1 X133.775 Y17.725 E0.6567
G1 X133.775 Y26.325 E0.3218
G1 X166.725 Y26.325 E1.2329
G1 X166.725 Y17.725 E0.3218
G1 X184.275 Y17.725 E0.6567
G1 X184.275 Y26.325 E0.3218
G1 X217.225 Y26.325 E1.2329
G1 X217.225 Y17.725 E0.3218
G1 X234.775 Y17.725 E0.6567
G1 X234.775 Y35.275 E0.6567
G1 X226.175 Y35.275 E0.3218
G1 X226.175 Y58.225 E0.8587
G1 X234.775 Y58.225 E0.3218
G1 X234.775 Y75.775 E0.6567
G1 X226.175 Y75.775 E0.3218
G1 X226.175 Y98.725 E0.8587
G1 X234.775 Y98.725 E0.3218
G1 X234.775 Y116.275 E0.6567
G1 X226.175 Y116.275 E0.3218
G1 X226.175 Y139.225 E0.8587
G1 X234.775 Y139.225 E0.3218
G1 X234.775 Y156.775 E0.6567
G1 X226.175 Y156.775 E0.3218
G1 X226.175 Y179.725 E0.8587
G1 X234.775 Y179.725 E0.3218
G1 X234.775 Y197.275 E0.6567
G1 X217.225 Y197.275 E0.6567
G1 X217.225 Y188.675 E0.3218
G1 X184.275 Y188.675 E1.2329
G1 X184.275 Y197.275 E0.3218
G1 X166.725 Y197.275 E0.6567
G1 X166.725 Y188.675 E0.3218
G1 X133.775 Y188.675 E1.2329
G1 X133.775 Y197.275 E0.3218
G1 X116.225 Y197.275 E0.6567
G1 X116.225 Y188.675 E0.3218
G1 X83.275 Y188.675 E1.2329
G1 X83.275 Y197.275 E0.3218
G1 X65.725 Y197.275 E0.6567
G1 X65.725 Y188.675 E0.3218
G1 X32.775 Y188.675 E1.2329
G1 X32.775 Y197.275 E0.3218
G1 X15.225 Y197.275 E0.6567
G1 X15.225 Y179.725 E0.6567
G1 X23.825 Y179.725 E0.3218
G1 X23.825 Y156.775 E0.8587
G1 X15.225 Y156.775 E0.3218
G1 X15.225 Y139.225 E0.6567
G1 X23.825 Y139.225 E0.3218
G1 X23.825 Y116.275 E0.8587
G1 X15.225 Y116.275 E0.3218
G1 X15.225 Y98.725 E0.6567
G1 X23.825 Y98.725 E0.3218
G1 X23.825 Y75.775 E0.8587
G1 X15.225 Y75.775 E0.3218
G1 X15.225 Y58.225 E0.6567
G1 X23.825 Y58.225 E0.3218
G1 X23.825 Y35.275 E0.8587
G1 X15.225 Y35.275 E0.3218
G1 X15.225 Y17.725 E0.6567
G1 X32.775 Y17.725 E0.6567
G1 X32.775 Y26.325 E0.3218
G1 X65.225 Y26.325 E1.2142
G0 F1800 X65.725 Y26.325
G1 F2700 E-0.5000
G1 F600 Z0.240
G0 F6000 X65.715 Y26.425
G0 X32.634 Y26.534
G0 X24.034 Y35.134
G0 X24.034 Y58.366
G0 X16.341 Y74.425
G0 F6000 X16.125 Y74.875
M204 P1000.00
;TYPE:WALL-INNER
;WIDTH:0.450
G1 F600 Z0.200
G1 F2400 E0.5000
G1 F1800 X16.125 Y59.125 E0.5893
G1 X31.875 Y59.125 E0.5893
G1 X31.875 Y74.875 E0.5893
G1 X16.625 Y74.875 E0.5706
G0 F1800 X16.125 Y74.875
G1 F2700 E-0.5000
G0 F6000 X15.675 Y75.325
G1 F600 Z0.200
G1 F2400 E0.5000
G1 F1800 X15.675 Y58.675 E0.6230
G1 X32.325 Y58.675 E0.6230
G1 X32.325 Y75.325 E0.6230
G1 X16.175 Y75.325 E0.6043
G0 F1800 X15.675 Y75.325
G1 F2700 E-0.5000
G1 F600 Z0.240
G0 F6000 X23.966 Y75.634
G0 X23.966 Y98.866
G0 X16.339 Y114.924
G0 F6000 X16.125 Y115.375
G1 F600 Z0.200
G1 F2400 E0.5000
G1 F1800 X16.125 Y99.625 E0.5893
G1 X31.875 Y99.625 E0.5893
G1 X31.875 Y115.375 E0.5893
G1 X16.625 Y115.375 E0.5706
G0 F1800 X16.125 Y115.375
G1 F2700 E-0.5000
G0 F6000 X15.675 Y115.825
G1 F600 Z0.200
G1 F2400 E0.5000
G1 F1800 X15.675 Y99.175 E0.6230
G1 X32.325 Y99.175 E0.6230
G1 X32.325 Y115.825 E0.6230
G1 X16.175 Y115.825 E0.6043
G0 F1800 X15.675 Y115.825
G1 F2700 E-0.5000
G1 F600 Z0.240
G0 F6000 X23.966 Y116.134
G0 X23.966 Y139.366
G0 X16.339 Y155.424
G0 F6000 X16.125 Y155.875
G1 F600 Z0.200
G1 F2400 E0.5000
G1 F1800 X16.125 Y140.125 E0.5893
G1 X31.875 Y140.125 E0.5893
G1 X31.875 Y155.875 E0.5893
G1 X16.625 Y155.875 E0.5706
G0 F1800 X16.125 Y155.875
G1 F2700 E-0.5000
G0 F6000 X15.675 Y156.325
G1 F600 Z0.200
G1 F2400 E0.5000
G1 F1800 X15.675 Y139.675 E0.6230
G1 X32.325 Y139.675 E0.6230
G1 X32.325 Y156.325 E0.6230
G1 X16.175 Y156.325 E0.6043
G0 F1800 X15.675 Y156.325
G1 F2700 E-0.5000
G1 F600 Z0.240
G0 F6000 X23.966 Y156.634
G0 X23.966 Y179.866
G0 X16.339 Y195.924
G0 F6000 X16.125 Y196.375
G1 F600 Z0.200
G1 F2400 E0.5000
G1 F1800 X16.125 Y180.625 E0.5893
G1 X31.875 Y180.625 E0.5893
G1 X31.875 Y196.375 E0.5893
G1 X16.625 Y196.375 E0.5706
G0 F1800 X16.125 Y196.375
G1 F2700 E-0.5000
G0 F6000 X15.675 Y196.825
G1 F600 Z0.200
G1 F2400 E0.5000
G1 F1800 X15.675 Y180.175 E0.6230
G1 X32.325 Y180.175 E0.6230
G1 X32.325 Y196.825 E0.6230
G1 X16.175 Y196.825 E0.6043
G0 F1800 X15.675 Y196.825
G1 F2700 E-0.5000
G1 F600 Z0.240
G0 F6000 X32.634 Y188.534
G0 X65.866 Y188.534
G0 X66.577 Y195.878
G0 F6000 X66.625 Y196.375
G1 F600 Z0.200
G1 F2400 E0.5000
G1 F1800 X66.625 Y180.625 E0.5893
G1 X82.375 Y180.625 E0.5893
G1 X82.375 Y196.375 E0.5893
G1 X67.125 Y196.375 E0.5706
G0 F1800 X66.625 Y196.375
G1 F2700 E-0.5000
G0 F6000 X66.175 Y196.825
G1 F600 Z0.200
G1 F2400 E0.5000
G1 F1800 X66.175 Y180.175 E0.6230
G1 X82.825 Y180.175 E0.6230
G1 X82.825 Y196.825 E0.6230
G1 X66.675 Y196.825 E0.6043
G0 F1800 X66.175 Y196.825
G1 F2700 E-0.5000
G1 F600 Z0.240
G0 F6000 X74.466 Y179.866
G0 X74.466 Y156.634
G0 X67.122 Y155.923
G0 F6000 X66.625 Y155.875
G1 F600 Z0.200
G1 F2400 E0.5000
G1 F1800 X66.625 Y140.125 E0.5893
G1 X82.375 Y140.125 E0.5893
G1 X82.375 Y155.875 E0.5893
G1 X67.125 Y155.875 E0.5706
G0 F1800 X66.625 Y155.875
G1 F2700 E-0.5000
G0 F6000 X66.175 Y156.325
G1 F600 Z0.200
G1 F2400 E0.5000
G1 F1800 X66.175 Y139.675 E0.6230
G1 X82.825 Y139.675 E0.6230
G1 X82.825 Y156.325 E0.6230
G1 X66.675 Y156.325 E0.6043
G0 F1800 X66.175 Y156.325
G1 F2700 E-0.5000
G1 F600 Z0.240
G0 F6000 X74.466 Y139.366
G0 X74.466 Y116.134
G0 X67.122 Y115.423
G0 F6000 X66.625 Y115.375
G1 F600 Z0.200
G1 F2400 E0.5000
G1 F1800 X66.625 Y99.625 E0.5893
G1 X82.375 Y99.625 E0.5893
G1 X82.375 Y115.375 E0.5893
G1 X67.125 Y115.375 E0.5706
G0 F1800 X66.625 Y115.375
G1 F2700 E-0.5000
G0 F6000 X66.175 Y115.825
G1 F600 Z0.200
G1 F2400 E0.5000
G1 F1800 X66.175 Y99.175 E0.6230
G1 X82.825 Y99.175 E0.6230
G1 X82.825 Y115.825 E0.6230
G1 X66.675 Y115.825 E0.6043
G0 F1800 X66.175 Y115.825
G1 F2700 E-0.5000
G1 F600 Z0.240
G0 F6000 X74.466 Y98.866
G0 X74.466 Y75.634
G0 X67.122 Y74.923
G0 F6000 X66.625 Y74.875
G1 F600 Z0.200
G1 F2400 E0.5000
G1 F1800 X66.625 Y59.125 E0.5893
G1 X82.375 Y59.125 E0.5893
G1 X82.375 Y74.875 E0.5893
G1 X67.125 Y74.875 E0.5706
G0 F1800 X66.625 Y74.875
G1 F2700 E-0.5000
G0 F6000 X66.175 Y75.325
G1 F600 Z0.200
G1 F2400 E0.5000
G1 F1800 X66.175 Y58.675 E0.6230
G1 X82.825 Y58.675 E0.6230
G1 X82.825 Y75.325 E0.6230
G1 X66.675 Y75.325 E0.6043
G0 F1800 X66.175 Y75.325
G1 F2700 E-0.5000
G1 F600 Z0.240
G0 F6000 X74.466 Y58.366
G0 X74.466 Y35.134
G0 X67.122 Y34.423
G0 F6000 X66.625 Y34.375
G1 F600 Z0.200
G1 F2400 E0.5000
G1 F1800 X66.625 Y18.625 E0.5893
G1 X82.375 Y18.625 E0.5893
G1 X82.375 Y34.375 E0.5893
G1 X67.125 Y34.375 E0.5706
G0 F1800 X66.625 Y34.375
G1 F2700 E-0.5000
G0 F6000 X66.175 Y34.825
G1 F600 Z0.200
G1 F2400 E0.5000
G1 F1800 X66.175 Y18.175 E0.6230
G1 X82.825 Y18.175 E0.6230
G1 X82.825 Y34.825 E0.6230
G1 X66.675 Y34.825 E0.6043
G0 F1800 X66.175 Y34.825
G1 F2700 E-0.5000
G1 F600 Z0.240
G0 F6000 X83.134 Y26.534
G0 X116.366 Y26.534
G0 X117.077 Y33.878
G0 F6000 X117.125 Y34.375
G1 F600 Z0.200
G1 F2400 E0.5000
G1 F1800 X117.125 Y18.625 E0.5893
G1 X132.875 Y18.625 E0.5893
G1 X132.875 Y34.375 E0.5893
G1 X117.625 Y34.375 E0.5706
G0 F1800 X117.125 Y34.375
G1 F2700 E-0.5000
G0 F6000 X116.675 Y34.825
G1 F600 Z0.200
G1 F2400 E0.5000
G1 F1800 X116.675 Y18.175 E0.6230
G1 X133.325 Y18.175 E0.6230
G1 X133.325 Y34.825 E0.6230
G1 X117.175 Y34.825 E0.6043
G0 F1800 X116.675 Y34.825
G1 F2700 E-0.5000
G1 F600 Z0.240
G0 F6000 X124.966 Y35.134
G0 X124.966 Y58.366
G0 X117.339 Y74.424
G0 F6000 X117.125 Y74.875
G1 F600 Z0.200
G1 F2400 E0.5000
G1 F1800 X117.125 Y59.125 E0.5893
G1 X132.875 Y59.125 E0.5893
G1 X132.875 Y74.875 E0.5893
G1 X117.625 Y74.875 E0.5706
G0 F1800 X117.125 Y74.875
G1 F2700 E-0.5000
G0 F6000 X116.675 Y75.325
G1 F600 Z0.200
G1 F2400 E0.5000
G1 F1800 X116.675 Y58.675 E0.6230
G1 X133.325 Y58.675 E0.6230
G1 X133.325 Y75.325 E0.6230
G1 X117.175 Y75.325 E0.6043
G0 F1800 X116.675 Y75.325
G1 F2700 E-0.5000
G1 F600 Z0.240
G0 F6000 X124.966 Y75.634
G0 X124.966 Y98.866
G0 X117.339 Y114.924
G0 F6000 X117.125 Y115.375
G1 F600 Z0.200
G1 F2400 E0.5000
G1 F1800 X117.125 Y99.625 E0.5893
G1 X132.875 Y99.625 E0.5893
G1 X132.875 Y115.375 E0.5893
G1 X117.625 Y115.375 E0.5706
G0 F1800 X117.125 Y115.375
G1 F2700 E-0.5000
G0 F6000 X116.675 Y115.825
G1 F600 Z0.200
G1 F2400 E0.5000
G1 F1800 X116.675 Y99.175 E0.6230
G1 X133.325 Y99.175 E0.6230
G1 X133.325 Y115.825 E0.6230
G1 X117.175 Y115.825 E0.6043
G0 F1800 X116.675 Y115.825
G1 F2700 E-0.5000
G1 F600 Z0.240
G0 F6000 X124.966 Y116.134
G0 X124.966 Y139.366
G0 X117.339 Y155.424
G0 F6000 X117.125 Y155.875
G1 F600 Z0.200
G1 F2400 E0.5000
G1 F1800 X117.125 Y140.125 E0.5893
G1 X132.875 Y140.125 E0.5893
G1 X132.875 Y155.875 E0.5893
G1 X117.625 Y155.875 E0.5706
G0 F1800 X117.125 Y155.875
G1 F2700 E-0.5000
G0 F6000 X116.675 Y156.325
G1 F600 Z0.200
G1 F2400 E0.5000
G1 F1800 X116.675 Y139.675 E0.6230
G1 X133.325 Y139.675 E0.6230
G1 X133.325 Y156.325 E0.6230
G1 X117.175 Y156.325 E0.6043
G0 F1800 X116.675 Y156.325
G1 F2700 E-0.5000
G1 F600 Z0.240
G0 F6000 X124.966 Y156.634
G0 X124.966 Y179.866
G0 X117.339 Y195.924
