;Sliced by ideaMaker 3.5.3.4250, 2020-11-13 20:33:30 UTC+0100
;Dimension: 250.000 215.000 205.000 0.400
;Plate Shape: 0
;Extruder Offset #1: 25.000 0.000
;Filament Diameter #1: 1.750
;Filament Diameter #2: 1.750
;Filament Compensation #1: 94.00
;Filament Compensation #2: 94.00
;Filament Density #1: 1240.00
;Filament Density #2: 1240.00
;Bounding Box: 117.775 132.225 55.307 159.693 0.000 5.000
;Model Gap: 0.000
M92 E830.00000
M221 T0 S94.00
; ideaMaker Start G-Code
; Layer height=0.2000 ; Pass layer height information to DWC
; Set nozzle and bed to the specific temperatures declared within this slicer
M140 S60 ; set bed temp
M104 S215 ; set extruder temp
M116 ; wait for all temperatures
; Run macro to print primeline at a 'randomized' Y position from -1.1 to -2.9
M98 P"0:/sys/primeLine.g" ; primeline macro
; Set pressure advance
M572 D0 S0.07 ; set pressure advance
;end of Start GCode
M83
;LAYER:0
;Z:0.200
;HEIGHT:0.200
M106 S0
G1 F2700 E-0.5000
M204 T1250.00
M566 X480.00 Y480.00
M82
G92 E0.0
;1
M83
G0 F6000 X117.606 Y56.201
G0 F600 Z0.200
G0 F6000 X118.057 Y56.416
M204 P1000.00
;TYPE:SKIRT
;WIDTH:0.450
G1 F2400 E0.5000
G1 F900 X118.529 Y55.831 E0.0281
G1 X119.528 Y55.326 E0.0419
G1 X130.376 Y55.307 E0.4059
G1 X131.084 Y55.557 E0.0281
G1 X131.669 Y56.029 E0.0281
G1 X132.064 Y56.668 E0.0281
G1 X132.225 Y57.500 E0.0317
G1 X132.193 Y157.876 E3.7558
G1 X131.943 Y158.584 E0.0281
G1 X131.471 Y159.169 E0.0281
G1 X130.472 Y159.674 E0.0419
G1 X119.624 Y159.693 E0.4059
G1 X118.916 Y159.443 E0.0281
G1 X118.331 Y158.971 E0.0281
G1 X117.936 Y158.332 E0.0281
G1 X117.775 Y157.500 E0.0317
G1 X117.807 Y57.124 E3.7558
G1 X117.891 Y56.888 E0.0094
G0 F900 X118.057 Y56.416
G1 F2700 E-0.5000
G0 F6000 X121.125 Y156.375
;TYPE:WALL-INNER
;WIDTH:0.450
G1 F2400 E0.5000
G1 F1800 X121.125 Y58.625 E3.6576
G1 X128.875 Y58.625 E0.2900
G1 X128.875 Y156.375 E3.6576
G1 X121.625 Y156.375 E0.2713
G0 F1800 X121.125 Y156.375
G1 F2700 E-0.5000
G0 F6000 X120.675 Y156.825
G1 F2400 E0.5000
G1 F1800 X120.675 Y58.175 E3.6913
G1 X129.325 Y58.175 E0.3237
G1 X129.325 Y156.825 E3.6913
G1 X121.175 Y156.825 E0.3050
G0 F1800 X120.675 Y156.825
G1 F2700 E-0.5000
G0 F6000 X120.548 Y156.926
G0 F6000 X120.235 Y157.175
G0 F6000 X120.225 Y157.275
M204 P800.00
;TYPE:WALL-OUTER
;WIDTH:0.450
G1 F2400 E0.5000
G1 F1800 X120.225 Y57.725 E3.7249
G1 X129.775 Y57.725 E0.3573
G1 X129.775 Y157.275 E3.7249
G1 X120.725 Y157.275 E0.3386
G0 F1800 X120.225 Y157.275
G1 F2700 E-0.5000
G0 F6000 X120.235 Y157.175
G0 X121.148 Y156.528
G0 F6000 X121.555 Y156.239
M204 P1500.00
;TYPE:SOLID-FILL
;WIDTH:0.450
G1 F2400 E0.5000
G1 F1800 X121.259 Y155.943 E0.0157
G0 F6000 X121.259 Y155.306
G1 F1800 X122.192 Y156.239 E0.0494
G1 F2700 E-0.5000
G1 F600 Z0.240
G0 F6000 X122.828 Y156.239
G1 F600 Z0.200
G1 F2400 E0.5000
G1 F1800 X121.259 Y154.670 E0.0830
G1 F2700 E-0.5000
G1 F600 Z0.240
G0 F6000 X121.259 Y154.034
G1 F600 Z0.200
G1 F2400 E0.5000
G1 F1800 X123.465 Y156.239 E0.1167
G1 F2700 E-0.5000
G1 F600 Z0.240
G0 F6000 X124.101 Y156.239
G1 F600 Z0.200
G1 F2400 E0.5000
G1 F1800 X121.259 Y153.397 E0.1504
G1 F2700 E-0.5000
G1 F600 Z0.240
G0 F6000 X121.259 Y152.761
G1 F600 Z0.200
G1 F2400 E0.5000
G1 F1800 X124.737 Y156.239 E0.1840
G1 F2700 E-0.5000
G1 F600 Z0.240
G0 F6000 X125.374 Y156.239
G1 F600 Z0.200
G1 F2400 E0.5000
G1 F1800 X121.259 Y152.124 E0.2178
G1 F2700 E-0.5000
G1 F600 Z0.240
G0 F6000 X121.259 Y151.488
G1 F600 Z0.200
G1 F2400 E0.5000
G1 F1800 X126.010 Y156.239 E0.2514
G1 F2700 E-0.5000
G1 F600 Z0.240
G0 F6000 X126.647 Y156.239
G1 F600 Z0.200
G1 F2400 E0.5000
G1 F1800 X121.259 Y150.852 E0.2851
G1 F2700 E-0.5000
G1 F600 Z0.240
G0 F6000 X121.259 Y150.215
G1 F600 Z0.200
G1 F2400 E0.5000
G1 F1800 X127.283 Y156.239 E0.3188
G1 F2700 E-0.5000
G1 F600 Z0.240
G0 F6000 X127.919 Y156.239
G1 F600 Z0.200
G1 F2400 E0.5000
G1 F1800 X121.259 Y149.579 E0.3524
G1 F2700 E-0.5000
G1 F600 Z0.240
G0 F6000 X121.259 Y148.942
G1 F600 Z0.200
G1 F2400 E0.5000
G1 F1800 X128.556 Y156.239 E0.3861
G0 F6000 X128.740 Y155.786
G1 F1800 X121.259 Y148.306 E0.3958
G1 F2700 E-0.5000
G1 F600 Z0.240
G0 F6000 X121.259 Y147.670
G1 F600 Z0.200
G1 F2400 E0.5000
G1 F1800 X128.740 Y155.150 E0.3958
G1 F2700 E-0.5000
G1 F600 Z0.240
G0 F6000 X128.740 Y154.514
G1 F600 Z0.200
G1 F2400 E0.5000
G1 F1800 X121.259 Y147.033 E0.3959
G1 F2700 E-0.5000
G1 F600 Z0.240
G0 F6000 X121.259 Y146.397
G1 F600 Z0.200
G1 F2400 E0.5000
G1 F1800 X128.740 Y153.877 E0.3958
G1 F2700 E-0.5000
G1 F600 Z0.240
G0 F6000 X128.740 Y153.241
G1 F600 Z0.200
G1 F2400 E0.5000
G1 F1800 X121.259 Y145.760 E0.3959
G1 F2700 E-0.5000
G1 F600 Z0.240
G0 F6000 X121.259 Y145.124
G1 F600 Z0.200
G1 F2400 E0.5000
G1 F1800 X128.740 Y152.604 E0.3958
G1 F2700 E-0.5000
G1 F600 Z0.240
G0 F6000 X128.740 Y151.968
G1 F600 Z0.200
G1 F2400 E0.5000
G1 F1800 X121.259 Y144.488 E0.3958
G1 F2700 E-0.5000
G1 F600 Z0.240
G0 F6000 X121.259 Y143.851
G1 F600 Z0.200
G1 F2400 E0.5000
G1 F1800 X128.740 Y151.332 E0.3959
G1 F2700 E-0.5000
G1 F600 Z0.240
G0 F6000 X128.740 Y150.695
G1 F600 Z0.200
G1 F2400 E0.5000
G1 F1800 X121.259 Y143.215 E0.3958
G1 F2700 E-0.5000
G1 F600 Z0.240
G0 F6000 X121.259 Y142.578
G1 F600 Z0.200
G1 F2400 E0.5000
G1 F1800 X128.740 Y150.059 E0.3959
G1 F2700 E-0.5000
G1 F600 Z0.240
G0 F6000 X128.740 Y149.422
G1 F600 Z0.200
G1 F2400 E0.5000
G1 F1800 X121.259 Y141.942 E0.3958
G1 F2700 E-0.5000
G1 F600 Z0.240
G0 F6000 X121.259 Y141.306
G1 F600 Z0.200
G1 F2400 E0.5000
G1 F1800 X128.740 Y148.786 E0.3958
G1 F2700 E-0.5000
G1 F600 Z0.240
G0 F6000 X128.740 Y148.150
G1 F600 Z0.200
G1 F2400 E0.5000
G1 F1800 X121.259 Y140.669 E0.3959
G1 F2700 E-0.5000
G1 F600 Z0.240
G0 F6000 X121.259 Y140.033
G1 F600 Z0.200
G1 F2400 E0.5000
G1 F1800 X128.740 Y147.513 E0.3958
G1 F2700 E-0.5000
G1 F600 Z0.240
G0 F6000 X128.740 Y146.877
G1 F600 Z0.200
G1 F2400 E0.5000
G1 F1800 X121.259 Y139.396 E0.3959
G1 F2700 E-0.5000
G1 F600 Z0.240
G0 F6000 X121.259 Y138.760
G1 F600 Z0.200
G1 F2400 E0.5000
G1 F1800 X128.740 Y146.240 E0.3958
G1 F2700 E-0.5000
G1 F600 Z0.240
G0 F6000 X128.740 Y145.604
G1 F600 Z0.200
G1 F2400 E0.5000
G1 F1800 X121.259 Y138.124 E0.3958
G1 F2700 E-0.5000
G1 F600 Z0.240
G0 F6000 X121.259 Y137.487
G1 F600 Z0.200
G1 F2400 E0.5000
G1 F1800 X128.740 Y144.968 E0.3959
G1 F2700 E-0.5000
G1 F600 Z0.240
G0 F6000 X128.740 Y144.331
G1 F600 Z0.200
G1 F2400 E0.5000
G1 F1800 X121.259 Y136.851 E0.3958
G1 F2700 E-0.5000
G1 F600 Z0.240
G0 F6000 X121.259 Y136.214
G1 F600 Z0.200
G1 F2400 E0.5000
G1 F1800 X128.740 Y143.695 E0.3959
G1 F2700 E-0.5000
G1 F600 Z0.240
G0 F6000 X128.740 Y143.059
G1 F600 Z0.200
G1 F2400 E0.5000
G1 F1800 X121.259 Y135.578 E0.3959
G1 F2700 E-0.5000
G1 F600 Z0.240
G0 F6000 X121.259 Y134.942
G1 F600 Z0.200
G1 F2400 E0.5000
G1 F1800 X128.740 Y142.422 E0.3958
G1 F2700 E-0.5000
G1 F600 Z0.240
G0 F6000 X128.740 Y141.786
G1 F600 Z0.200
G1 F2400 E0.5000
G1 F1800 X121.259 Y134.305 E0.3959
G1 F2700 E-0.5000
G1 F600 Z0.240
G0 F6000 X121.259 Y133.669
G1 F600 Z0.200
G1 F2400 E0.5000
G1 F1800 X128.740 Y141.149 E0.3958
G1 F2700 E-0.5000
G1 F600 Z0.240
G0 F6000 X128.740 Y140.513
G1 F600 Z0.200
G1 F2400 E0.5000
G1 F1800 X121.259 Y133.032 E0.3959
G1 F2700 E-0.5000
G1 F600 Z0.240
G0 F6000 X121.259 Y132.396
G1 F600 Z0.200
G1 F2400 E0.5000
G1 F1800 X128.740 Y139.877 E0.3959
G1 F2700 E-0.5000
G1 F600 Z0.240
G0 F6000 X128.740 Y139.240
G1 F600 Z0.200
G1 F2400 E0.5000
G1 F1800 X121.259 Y131.760 E0.3958
G1 F2700 E-0.5000
G1 F600 Z0.240
G0 F6000 X121.259 Y131.123
G1 F600 Z0.200
G1 F2400 E0.5000
G1 F1800 X128.740 Y138.604 E0.3959
G1 F2700 E-0.5000
G1 F600 Z0.240
G0 F6000 X128.740 Y137.967
G1 F600 Z0.200
G1 F2400 E0.5000
G1 F1800 X121.259 Y130.487 E0.3958
G1 F2700 E-0.5000
G1 F600 Z0.240
G0 F6000 X121.259 Y129.850
G1 F600 Z0.200
G1 F2400 E0.5000
G1 F1800 X128.740 Y137.331 E0.3959
G1 F2700 E-0.5000
G1 F600 Z0.240
G0 F6000 X128.740 Y136.695
G1 F600 Z0.200
G1 F2400 E0.5000
G1 F1800 X121.259 Y129.214 E0.3959
G1 F2700 E-0.5000
G1 F600 Z0.240
G0 F6000 X121.259 Y128.578
G1 F600 Z0.200
G1 F2400 E0.5000
G1 F1800 X128.740 Y136.058 E0.3958
G1 F2700 E-0.5000
G1 F600 Z0.240
G0 F6000 X128.740 Y135.422
G1 F600 Z0.200
G1 F2400 E0.5000
G1 F1800 X121.259 Y127.941 E0.3959
G1 F2700 E-0.5000
G1 F600 Z0.240
G0 F6000 X121.259 Y127.305
G1 F600 Z0.200
G1 F2400 E0.5000
G1 F1800 X128.740 Y134.785 E0.3958
G1 F2700 E-0.5000
G1 F600 Z0.240
G0 F6000 X128.740 Y134.149
G1 F600 Z0.200
G1 F2400 E0.5000
G1 F1800 X121.259 Y126.668 E0.3959
G1 F2700 E-0.5000
G1 F600 Z0.240
G0 F6000 X121.259 Y126.032
G1 F600 Z0.200
G1 F2400 E0.5000
G1 F1800 X128.740 Y133.513 E0.3959
G1 F2700 E-0.5000
G1 F600 Z0.240
G0 F6000 X128.740 Y132.876
G1 F600 Z0.200
G1 F2400 E0.5000
G1 F1800 X121.259 Y125.396 E0.3958
G1 F2700 E-0.5000
G1 F600 Z0.240
G0 F6000 X121.259 Y124.759
G1 F600 Z0.200
G1 F2400 E0.5000
G1 F1800 X128.740 Y132.240 E0.3959
G1 F2700 E-0.5000
G1 F600 Z0.240
G0 F6000 X128.740 Y131.603
G1 F600 Z0.200
G1 F2400 E0.5000
G1 F1800 X121.259 Y124.123 E0.3958
G1 F2700 E-0.5000
G1 F600 Z0.240
G0 F6000 X121.259 Y123.487
G1 F600 Z0.200
G1 F2400 E0.5000
G1 F1800 X128.740 Y130.967 E0.3958
G1 F2700 E-0.5000
G1 F600 Z0.240
G0 F6000 X128.740 Y130.331
G1 F600 Z0.200
G1 F2400 E0.5000
G1 F1800 X121.259 Y122.850 E0.3959
G1 F2700 E-0.5000
G1 F600 Z0.240
G0 F6000 X121.259 Y122.214
G1 F600 Z0.200
G1 F2400 E0.5000
G1 F1800 X128.740 Y129.694 E0.3958
G1 F2700 E-0.5000
G1 F600 Z0.240
G0 F6000 X128.740 Y129.058
G1 F600 Z0.200
G1 F2400 E0.5000
G1 F1800 X121.259 Y121.577 E0.3959
G1 F2700 E-0.5000
G1 F600 Z0.240
G0 F6000 X121.259 Y120.941
G1 F600 Z0.200
G1 F2400 E0.5000
G1 F1800 X128.740 Y128.421 E0.3958
G1 F2700 E-0.5000
G1 F600 Z0.240
G0 F6000 X128.740 Y127.785
G1 F600 Z0.200
G1 F2400 E0.5000
G1 F1800 X121.259 Y120.305 E0.3958
G1 F2700 E-0.5000
G1 F600 Z0.240
G0 F6000 X121.259 Y119.668
G1 F600 Z0.200
G1 F2400 E0.5000
G1 F1800 X128.740 Y127.149 E0.3959
G1 F2700 E-0.5000
G1 F600 Z0.240
G0 F6000 X128.740 Y126.512
G1 F600 Z0.200
G1 F2400 E0.5000
G1 F1800 X121.259 Y119.032 E0.3958
G1 F2700 E-0.5000
G1 F600 Z0.240
G0 F6000 X121.259 Y118.395
G1 F600 Z0.200
G1 F2400 E0.5000
G1 F1800 X128.740 Y125.876 E0.3959
G1 F2700 E-0.5000
G1 F600 Z0.240
G0 F6000 X128.740 Y125.239
G1 F600 Z0.200
G1 F2400 E0.5000
G1 F1800 X121.259 Y117.759 E0.3958
G1 F2700 E-0.5000
G1 F600 Z0.240
G0 F6000 X121.259 Y117.123
G1 F600 Z0.200
G1 F2400 E0.5000
G1 F1800 X128.740 Y124.603 E0.3958
G1 F2700 E-0.5000
G1 F600 Z0.240
G0 F6000 X128.740 Y123.967
G1 F600 Z0.200
G1 F2400 E0.5000
G1 F1800 X121.259 Y116.486 E0.3959
G1 F2700 E-0.5000
G1 F600 Z0.240
G0 F6000 X121.259 Y115.850
G1 F600 Z0.200
G1 F2400 E0.5000
G1 F1800 X128.740 Y123.330 E0.3958
G1 F2700 E-0.5000
G1 F600 Z0.240
G0 F6000 X128.740 Y122.694
G1 F600 Z0.200
G1 F2400 E0.5000
G1 F1800 X121.259 Y115.213 E0.3959
G1 F2700 E-0.5000
G1 F600 Z0.240
G0 F6000 X121.259 Y114.577
G1 F600 Z0.200
G1 F2400 E0.5000
G1 F1800 X128.740 Y122.057 E0.3958
G1 F2700 E-0.5000
G1 F600 Z0.240
G0 F6000 X128.740 Y121.421
G1 F600 Z0.200
G1 F2400 E0.5000
G1 F1800 X121.259 Y113.941 E0.3958
G1 F2700 E-0.5000
G1 F600 Z0.240
G0 F6000 X121.259 Y113.304
G1 F600 Z0.200
G1 F2400 E0.5000
G1 F1800 X128.740 Y120.785 E0.3959
G1 F2700 E-0.5000
G1 F600 Z0.240
G0 F6000 X128.740 Y120.148
G1 F600 Z0.200
G1 F2400 E0.5000
G1 F1800 X121.259 Y112.668 E0.3958
G1 F2700 E-0.5000
G1 F600 Z0.240
G0 F6000 X121.259 Y112.031
G1 F600 Z0.200
G1 F2400 E0.5000
G1 F1800 X128.740 Y119.512 E0.3959
G1 F2700 E-0.5000
G1 F600 Z0.240
G0 F6000 X128.740 Y118.875
G1 F600 Z0.200
G1 F2400 E0.5000
G1 F1800 X121.259 Y111.395 E0.3958
G1 F2700 E-0.5000
G1 F600 Z0.240
G0 F6000 X121.259 Y110.759
G1 F600 Z0.200
G1 F2400 E0.5000
G1 F1800 X128.740 Y118.239 E0.3958
G1 F2700 E-0.5000
G1 F600 Z0.240
G0 F6000 X128.740 Y117.603
G1 F600 Z0.200
G1 F2400 E0.5000
G1 F1800 X121.259 Y110.122 E0.3959
G1 F2700 E-0.5000
G1 F600 Z0.240
G0 F6000 X121.259 Y109.486
G1 F600 Z0.200
G1 F2400 E0.5000
G1 F1800 X128.740 Y116.966 E0.3958
G1 F2700 E-0.5000
G1 F600 Z0.240
G0 F6000 X128.740 Y116.330
G1 F600 Z0.200
G1 F2400 E0.5000
G1 F1800 X121.259 Y108.849 E0.3959
G1 F2700 E-0.5000
G1 F600 Z0.240
G0 F6000 X121.259 Y108.213
G1 F600 Z0.200
G1 F2400 E0.5000
G1 F1800 X128.740 Y115.693 E0.3958
G1 F2700 E-0.5000
G1 F600 Z0.240
G0 F6000 X128.740 Y115.057
G1 F600 Z0.200
G1 F2400 E0.5000
G1 F1800 X121.259 Y107.577 E0.3958
G1 F2700 E-0.5000
G1 F600 Z0.240
G0 F6000 X121.259 Y106.940
G1 F600 Z0.200
G1 F2400 E0.5000
G1 F1800 X128.740 Y114.421 E0.3959
G1 F2700 E-0.5000
G1 F600 Z0.240
G0 F6000 X128.740 Y113.784
G1 F600 Z0.200
G1 F2400 E0.5000
G1 F1800 X121.259 Y106.304 E0.3958
G1 F2700 E-0.5000
G1 F600 Z0.240
G0 F6000 X121.259 Y105.667
G1 F600 Z0.200
G1 F2400 E0.5000
G1 F1800 X128.740 Y113.148 E0.3959
G1 F2700 E-0.5000
G1 F600 Z0.240
G0 F6000 X128.740 Y112.512
G1 F600 Z0.200
G1 F2400 E0.5000
G1 F1800 X121.259 Y105.031 E0.3959
G1 F2700 E-0.5000
G1 F600 Z0.240
G0 F6000 X121.259 Y104.395
G1 F600 Z0.200
G1 F2400 E0.5000
G1 F1800 X128.740 Y111.875 E0.3958
G1 F2700 E-0.5000
G1 F600 Z0.240
G0 F6000 X128.740 Y111.239
G1 F600 Z0.200
G1 F2400 E0.5000
G1 F1800 X121.259 Y103.758 E0.3959
G1 F2700 E-0.5000
G1 F600 Z0.240
G0 F6000 X121.259 Y103.122
G1 F600 Z0.200
G1 F2400 E0.5000
G1 F1800 X128.740 Y110.602 E0.3958
G1 F2700 E-0.5000
G1 F600 Z0.240
G0 F6000 X128.740 Y109.966
G1 F600 Z0.200
G1 F2400 E0.5000
G1 F1800 X121.259 Y102.485 E0.3959
G1 F2700 E-0.5000
G1 F600 Z0.240
G0 F6000 X121.259 Y101.849
G1 F600 Z0.200
G1 F2400 E0.5000
G1 F1800 X128.740 Y109.330 E0.3959
G1 F2700 E-0.5000
G1 F600 Z0.240
G0 F6000 X128.740 Y108.693
G1 F600 Z0.200
G1 F2400 E0.5000
G1 F1800 X121.259 Y101.213 E0.3958
G1 F2700 E-0.5000
G1 F600 Z0.240
G0 F6000 X121.259 Y100.576
G1 F600 Z0.200
G1 F2400 E0.5000
G1 F1800 X128.740 Y108.057 E0.3959
G1 F2700 E-0.5000
G1 F600 Z0.240
G0 F6000 X128.740 Y107.420
G1 F600 Z0.200
G1 F2400 E0.5000
G1 F1800 X121.259 Y99.940 E0.3958
G1 F2700 E-0.5000
G1 F600 Z0.240
G0 F6000 X121.259 Y99.303
G1 F600 Z0.200
G1 F2400 E0.5000
G1 F1800 X128.740 Y106.784 E0.3959
G1 F2700 E-0.5000
G1 F600 Z0.240
G0 F6000 X128.740 Y106.148
G1 F600 Z0.200
G1 F2400 E0.5000
G1 F1800 X121.259 Y98.667 E0.3959
G1 F2700 E-0.5000
G1 F600 Z0.240
G0 F6000 X121.259 Y98.031
G1 F600 Z0.200
G1 F2400 E0.5000
G1 F1800 X128.740 Y105.511 E0.3958
G1 F2700 E-0.5000
G1 F600 Z0.240
G0 F6000 X128.740 Y104.875
G1 F600 Z0.200
G1 F2400 E0.5000
G1 F1800 X121.259 Y97.394 E0.3959
G1 F2700 E-0.5000
G1 F600 Z0.240
G0 F6000 X121.259 Y96.758
G1 F600 Z0.200
G1 F2400 E0.5000
G1 F1800 X128.740 Y104.238 E0.3958
G1 F2700 E-0.5000
G1 F600 Z0.240
G0 F6000 X128.740 Y103.602
G1 F600 Z0.200
G1 F2400 E0.5000
G1 F1800 X121.259 Y96.121 E0.3959
G1 F2700 E-0.5000
G1 F600 Z0.240
G0 F6000 X121.259 Y95.485
G1 F600 Z0.200
G1 F2400 E0.5000
G1 F1800 X128.740 Y102.966 E0.3959
G1 F2700 E-0.5000
G1 F600 Z0.240
G0 F6000 X128.740 Y102.329
G1 F600 Z0.200
G1 F2400 E0.5000
G1 F1800 X121.259 Y94.849 E0.3958
G1 F2700 E-0.5000
G1 F600 Z0.240
G0 F6000 X121.259 Y94.212
G1 F600 Z0.200
G1 F2400 E0.5000
G1 F1800 X128.740 Y101.693 E0.3959
G1 F2700 E-0.5000
G1 F600 Z0.240
G0 F6000 X128.740 Y101.056
G1 F600 Z0.200
G1 F2400 E0.5000
G1 F1800 X121.259 Y93.576 E0.3958
G1 F2700 E-0.5000
G1 F600 Z0.240
G0 F6000 X121.259 Y92.939
G1 F600 Z0.200
G1 F2400 E0.5000
G1 F1800 X128.740 Y100.420 E0.3959
G1 F2700 E-0.5000
G1 F600 Z0.240
G0 F6000 X128.740 Y99.784
G1 F600 Z0.200
G1 F2400 E0.5000
G1 F1800 X121.259 Y92.303 E0.3959
G1 F2700 E-0.5000
G1 F600 Z0.240
G0 F6000 X121.259 Y91.667
G1 F600 Z0.200
G1 F2400 E0.5000
G1 F1800 X128.740 Y99.147 E0.3958
G1 F2700 E-0.5000
G1 F600 Z0.240
G0 F6000 X128.740 Y98.511
G1 F600 Z0.200
G1 F2400 E0.5000
G1 F1800 X121.259 Y91.030 E0.3959
G1 F2700 E-0.5000
G1 F600 Z0.240
G0 F6000 X121.259 Y90.394
G1 F600 Z0.200
G1 F2400 E0.5000
G1 F1800 X128.740 Y97.874 E0.3958
G1 F2700 E-0.5000
G1 F600 Z0.240
G0 F6000 X128.740 Y97.238
G1 F600 Z0.200
G1 F2400 E0.5000
G1 F1800 X121.259 Y89.758 E0.3958
G1 F2700 E-0.5000
G1 F600 Z0.240
G0 F6000 X121.259 Y89.121
G1 F600 Z0.200
G1 F2400 E0.5000
G1 F1800 X128.740 Y96.602 E0.3959
G1 F2700 E-0.5000
G1 F600 Z0.240
G0 F6000 X128.740 Y95.965
G1 F600 Z0.200
G1 F2400 E0.5000
G1 F1800 X121.259 Y88.485 E0.3958
G1 F2700 E-0.5000
G1 F600 Z0.240
G0 F6000 X121.259 Y87.848
