; G-Code generated by Simplify3D(R) Version 4.1.2
; Nov 2, 2020 at 6:45:29 PM
; Settings Summary
;   processName,Process1
;   applyToModels,xyzCalibration_cube
;   profileName,Reprap_Nr1 (modified)
;   profileVersion,2020-09-20 12:01:35
;   baseProfile,Default
;   printMaterial,ecoPLA
;   printQuality,0.2mm (Normal) Fast
;   printExtruders,
;   extruderName,Primary Extruder
;   extruderToolheadNumber,0
;   extruderDiameter,0.4
;   extruderAutoWidth,0
;   extruderWidth,0.38
;   extrusionMultiplier,0.95
;   extruderUseRetract,1
;   extruderRetractionDistance,0.4
;   extruderExtraRestartDistance,0
;   extruderRetractionZLift,0
;   extruderRetractionSpeed,1800
;   extruderUseCoasting,0
;   extruderCoastingDistance,0.2
;   extruderUseWipe,0
;   extruderWipeDistance,2
;   primaryExtruder,0
;   layerHeight,0.2
;   topSolidLayers,5
;   bottomSolidLayers,5
;   perimeterOutlines,3
;   printPerimetersInsideOut,1
;   startPointOption,3
;   startPointOriginX,0
;   startPointOriginY,300
;   sequentialIslands,0
;   spiralVaseMode,0
;   firstLayerHeightPercentage,100
;   firstLayerWidthPercentage,110
;   firstLayerUnderspeed,0.4
;   useRaft,0
;   raftExtruder,0
;   raftTopLayers,3
;   raftBaseLayers,2
;   raftOffset,3
;   raftSeparationDistance,0.14
;   raftTopInfill,100
;   aboveRaftSpeedMultiplier,0.3
;   useSkirt,1
;   skirtExtruder,0
;   skirtLayers,1
;   skirtOutlines,1
;   skirtOffset,3
;   usePrimePillar,0
;   primePillarExtruder,999
;   primePillarWidth,12
;   primePillarLocation,7
;   primePillarSpeedMultiplier,1
;   useOozeShield,0
;   oozeShieldExtruder,999
;   oozeShieldOffset,2
;   oozeShieldOutlines,1
;   oozeShieldSidewallShape,1
;   oozeShieldSidewallAngle,30
;   oozeShieldSpeedMultiplier,1
;   infillExtruder,0
;   internalInfillPattern,Rectilinear
;   externalInfillPattern,Rectilinear
;   infillPercentage,20
;   outlineOverlapPercentage,20
;   infillExtrusionWidthPercentage,100
;   minInfillLength,1
;   infillLayerInterval,1
;   internalInfillAngles,45,-45
;   overlapInternalInfillAngles,0
;   externalInfillAngles,45,-45
;   generateSupport,0
;   supportExtruder,0
;   supportInfillPercentage,35
;   supportExtraInflation,0.8
;   supportBaseLayers,2
;   denseSupportExtruder,0
;   denseSupportLayers,0
;   denseSupportInfillPercentage,75
;   supportLayerInterval,1
;   supportHorizontalPartOffset,0.3
;   supportUpperSeparationLayers,1
;   supportLowerSeparationLayers,1
;   supportType,0
;   supportGridSpacing,3
;   maxOverhangAngle,55
;   supportAngles,0,90
;   temperatureName,Primary Extruder,Heated Bed
;   temperatureNumber,0,0
;   temperatureSetpointCount,2,1
;   temperatureSetpointLayers,1,2,1
;   temperatureSetpointTemperatures,215,215,60
;   temperatureStabilizeAtStartup,1,1
;   temperatureHeatedBed,0,1
;   fanLayers,1,2,6
;   fanSpeeds,0,25,50
;   blipFanToFullPower,0
;   adjustSpeedForCooling,1
;   minSpeedLayerTime,12
;   minCoolingSpeedSlowdown,10
;   increaseFanForCooling,0
;   minFanLayerTime,45
;   maxCoolingFanSpeed,100
;   increaseFanForBridging,1
;   bridgingFanSpeed,70
;   use5D,1
;   relativeEdistances,1
;   allowEaxisZeroing,1
;   independentExtruderAxes,0
;   includeM10123,0
;   stickySupport,1
;   applyToolheadOffsets,0
;   gcodeXoffset,0
;   gcodeYoffset,0
;   gcodeZoffset,0
;   overrideMachineDefinition,1
;   machineTypeOverride,0
;   strokeXoverride,250
;   strokeYoverride,210
;   strokeZoverride,410
;   originOffsetXoverride,0
;   originOffsetYoverride,0
;   originOffsetZoverride,0
;   homeXdirOverride,-1
;   homeYdirOverride,-1
;   homeZdirOverride,-1
;   flipXoverride,1
;   flipYoverride,-1
;   flipZoverride,1
;   toolheadOffsets,0,0|0,0|0,0|0,0|0,0|0,0
;   overrideFirmwareConfiguration,0
;   firmwareTypeOverride,RepRap (Marlin/Repetier/Sprinter)
;   GPXconfigOverride,r2
;   baudRateOverride,115200
;   overridePrinterModels,0
;   printerModelsOverride
;   startingGcode,G90				; Absolute Positioning,M83				; extruder relative mode,,M561 				; Clear any bed transform,G29 S2    				; Clear hightmap,M290 R0 S0 				; Clear Baby-Steps to 0.00mm,M572 D0 S0.02 			; pressure advance,,,; Set Temperatures,,M104 S160 				 ; Set extruder temp before bed level ,M140 S[bed0_temperature] 		 	 ; set bed temp,M190 S[bed0_temperature] 			 ; wait for bed temp,M109 S160			 	 ; wait for extruder temp,,G28 				 ; Home XY,G29			                            ; Do a single probe,G1 Z20.0 F6000 			 ; Move Z to 20,,,; Prepare Intro-Line,G1 X4 Y-5.0 Z0.6 F2000.0			 ; go outside print area,M109 S[extruder0_temperature] 		 ; wait for extruder temp	 ,G92 E0.0				 ; Zero Extruder,G1  Z0.2 E8 				 ; Purge Bubble,G1 X60.0 E9.0  F1000.0 			 ; intro line,G1 X140.0 E12.5  F1000.0 			 ; intro line,G1 E-0.4				 ; retract -0.4mm,G92 E0.0 				 ; Zero Extruder,,
;   layerChangeGcode,G1 [current_Z_position] F10000;
;   retractionGcode,
;   toolChangeGcode,
;   endingGcode,G1 F3000.0 ; set feed rate,G1 E-2 ; retract,M290 R0 S0 ; Clear Baby-Steps to 0.00mm,M104 S0 ; turn off temperature,M140 S0 ; turn off heatbed,M107 ; turn off fan,G1 F3000.0 ; set feed rate,G1 E-3 ; retract,,G1 X20 Y200 F3000; home X axis,,M84 X Y E0; disable xy motors (must be homed again after),,,,
;   exportFileFormat,gcode
;   celebration,0
;   celebrationSong,Funky Town
;   postProcessing,
;   defaultSpeed,6000
;   outlineUnderspeed,0.25
;   solidInfillUnderspeed,0.5
;   supportUnderspeed,0.5
;   rapidXYspeed,8400
;   rapidZspeed,1200
;   minBridgingArea,40
;   bridgingExtraInflation,0
;   bridgingExtrusionMultiplier,0.95
;   bridgingSpeedMultiplier,0.4
;   useFixedBridgingAngle,0
;   fixedBridgingAngle,0
;   applyBridgingToPerimeters,0
;   filamentDiameters,1.75|1.75|1.75|1.75|1.75|1.75
;   filamentPricesPerKg,24|46|46|46|46|46
;   filamentDensities,1.25|1.25|1.25|1.25|1.25|1.25
;   useMinPrintHeight,0
;   minPrintHeight,0
;   useMaxPrintHeight,0
;   maxPrintHeight,0
;   useDiaphragm,0
;   diaphragmLayerInterval,20
;   robustSlicing,1
;   mergeAllIntoSolid,0
;   onlyRetractWhenCrossingOutline,0
;   retractBetweenLayers,1
;   useRetractionMinTravel,1
;   retractionMinTravel,1
;   retractWhileWiping,1
;   onlyWipeOutlines,1
;   avoidCrossingOutline,1
;   maxMovementDetourFactor,5
;   toolChangeRetractionDistance,12
;   toolChangeExtraRestartDistance,-0.5
;   toolChangeRetractionSpeed,600
;   externalThinWallType,0
;   internalThinWallType,1
;   thinWallAllowedOverlapPercentage,25
;   singleExtrusionMinLength,1
;   singleExtrusionMinPrintingWidthPercentage,30
;   singleExtrusionMaxPrintingWidthPercentage,200
;   singleExtrusionEndpointExtension,0.2
;   horizontalSizeCompensation,0
G90
M83
M106 S0
G90				; Absolute Positioning
M83				; extruder relative mode
M561 				; Clear any bed transform
G29 S2    				; Clear hightmap
M290 R0 S0 				; Clear Baby-Steps to 0.00mm
M572 D0 S0.02 			; pressure advance
; Set Temperatures
M104 S160 				 ; Set extruder temp before bed level 
M140 S60 		 	 ; set bed temp
M190 S60 			 ; wait for bed temp
M109 S160			 	 ; wait for extruder temp
G28 				 ; Home XY
G29			                            ; Do a single probe
G1 Z20.0 F6000 			 ; Move Z to 20
; Prepare Intro-Line
G1 X4 Y-5.0 Z0.6 F2000.0			 ; go outside print area
M109 S215 		 ; wait for extruder temp	 
G92 E0.0				 ; Zero Extruder
G1  Z0.2 E8 				 ; Purge Bubble
G1 X60.0 E9.0  F1000.0 			 ; intro line
G1 X140.0 E12.5  F1000.0 			 ; intro line
G1 E-0.4				 ; retract -0.4mm
G92 E0.0 				 ; Zero Extruder
; process Process1
; layer 1, Z = 0.200
T0
G1 E-0.4000 F1800
G1 0.200 F10000;
; feature skirt
; tool H0.200 W0.418
G1 Z0.200 F1200
G1 X113.671 Y118.209 F8400
G1 E0.4000 F1800
G1 X111.791 Y116.329 E0.0878 F2400
G1 X111.791 Y93.671 E0.7482
G1 X113.671 Y91.791 E0.0878
G1 X136.329 Y91.791 E0.7482
G1 X138.209 Y93.671 E0.0878
G1 X138.209 Y116.329 E0.7482
G1 X136.329 Y118.209 E0.0878
G1 X113.671 Y118.209 E0.7482
G1 E-0.4000 F1800
; feature inner perimeter
G1 X115.209 Y114.791 F8400
G1 X115.578 Y114.791
G1 X116.045 Y113.955
G1 E0.4000 F1800
G1 X116.045 Y96.045 E0.5914 F1500
G1 X133.955 Y96.045 E0.5914
G1 X133.955 Y113.955 E0.5914
G1 X116.045 Y113.955 E0.5914
G1 X115.627 Y114.373 F8400
G1 X115.627 Y95.627 E0.6190 F1500
G1 X134.373 Y95.627 E0.6190
G1 X134.373 Y114.373 E0.6190
G1 X115.627 Y114.373 E0.6190
; feature outer perimeter
G1 X115.209 Y114.791 F8400
G1 X115.209 Y95.209 E0.6466 F600
G1 X134.791 Y95.209 E0.6466
G1 X134.791 Y114.791 E0.6466
G1 X115.209 Y114.791 E0.6466
G1 E-0.4000 F1800
; feature solid layer
G1 X116.478 Y113.621 F8400
G1 E0.4000 F1800
G1 X116.379 Y113.522 E0.0046 F1200
G1 X116.379 Y112.931 E0.0195
G1 X117.069 Y113.621 E0.0322
G1 X117.660 Y113.621 E0.0195
G1 X116.379 Y112.340 E0.0598
G1 X116.379 Y111.749 E0.0195
G1 X118.251 Y113.621 E0.0874
G1 X118.842 Y113.621 E0.0195
G1 X116.379 Y111.158 E0.1150
G1 X116.379 Y110.567 E0.0195
G1 X119.433 Y113.621 E0.1426
G1 X120.024 Y113.621 E0.0195
G1 X116.379 Y109.976 E0.1702
G1 X116.379 Y109.384 E0.0195
G1 X120.616 Y113.621 E0.1978
G1 X121.207 Y113.621 E0.0195
G1 X116.379 Y108.793 E0.2254
G1 X116.379 Y108.202 E0.0195
G1 X121.798 Y113.621 E0.2530
G1 X122.389 Y113.621 E0.0195
G1 X116.379 Y107.611 E0.2806
G1 X116.379 Y107.020 E0.0195
G1 X122.980 Y113.621 E0.3082
G1 X123.571 Y113.621 E0.0195
G1 X116.379 Y106.429 E0.3358
G1 X116.379 Y105.838 E0.0195
G1 X124.162 Y113.621 E0.3634
G1 X124.753 Y113.621 E0.0195
G1 X116.379 Y105.247 E0.3910
G1 X116.379 Y104.655 E0.0195
G1 X125.345 Y113.621 E0.4186
G1 X125.936 Y113.621 E0.0195
G1 X116.379 Y104.064 E0.4462
G1 X116.379 Y103.473 E0.0195
G1 X126.527 Y113.621 E0.4738
G1 X127.118 Y113.621 E0.0195
G1 X116.379 Y102.882 E0.5015
G1 X116.379 Y102.291 E0.0195
G1 X127.709 Y113.621 E0.5291
G1 X128.300 Y113.621 E0.0195
G1 X116.379 Y101.700 E0.5567
G1 X116.379 Y101.109 E0.0195
G1 X128.891 Y113.621 E0.5843
G1 X129.483 Y113.621 E0.0195
G1 X116.379 Y100.517 E0.6119
G1 X116.379 Y99.926 E0.0195
G1 X130.074 Y113.621 E0.6395
G1 X130.665 Y113.621 E0.0195
G1 X116.379 Y99.335 E0.6671
G1 X116.379 Y98.744 E0.0195
G1 X131.256 Y113.621 E0.6947
G1 X131.847 Y113.621 E0.0195
G1 X116.379 Y98.153 E0.7223
G1 X116.379 Y97.562 E0.0195
G1 X132.438 Y113.621 E0.7499
G1 X133.029 Y113.621 E0.0195
G1 X116.379 Y96.971 E0.7775
G1 X116.379 Y96.379 E0.0195
G1 X133.621 Y113.621 E0.8051
G1 X133.621 Y113.029 E0.0195
G1 X116.971 Y96.379 E0.7775
G1 X117.562 Y96.379 E0.0195
G1 X133.621 Y112.438 E0.7499
G1 X133.621 Y111.847 E0.0195
G1 X118.153 Y96.379 E0.7223
G1 X118.744 Y96.379 E0.0195
G1 X133.621 Y111.256 E0.6947
G1 X133.621 Y110.665 E0.0195
G1 X119.335 Y96.379 E0.6671
G1 X119.926 Y96.379 E0.0195
G1 X133.621 Y110.074 E0.6395
G1 X133.621 Y109.483 E0.0195
G1 X120.517 Y96.379 E0.6119
G1 X121.109 Y96.379 E0.0195
G1 X133.621 Y108.891 E0.5843
G1 X133.621 Y108.300 E0.0195
G1 X121.700 Y96.379 E0.5567
G1 X122.291 Y96.379 E0.0195
G1 X133.621 Y107.709 E0.5291
G1 X133.621 Y107.118 E0.0195
G1 X122.882 Y96.379 E0.5015
G1 X123.473 Y96.379 E0.0195
G1 X133.621 Y106.527 E0.4738
G1 X133.621 Y105.936 E0.0195
G1 X124.064 Y96.379 E0.4462
G1 X124.655 Y96.379 E0.0195
G1 X133.621 Y105.345 E0.4186
G1 X133.621 Y104.753 E0.0195
G1 X125.247 Y96.379 E0.3910
G1 X125.838 Y96.379 E0.0195
G1 X133.621 Y104.162 E0.3634
G1 X133.621 Y103.571 E0.0195
G1 X126.429 Y96.379 E0.3358
G1 X127.020 Y96.379 E0.0195
G1 X133.621 Y102.980 E0.3082
G1 X133.621 Y102.389 E0.0195
G1 X127.611 Y96.379 E0.2806
G1 X128.202 Y96.379 E0.0195
G1 X133.621 Y101.798 E0.2530
G1 X133.621 Y101.207 E0.0195
G1 X128.793 Y96.379 E0.2254
G1 X129.385 Y96.379 E0.0195
G1 X133.621 Y100.615 E0.1978
G1 X133.621 Y100.024 E0.0195
G1 X129.976 Y96.379 E0.1702
G1 X130.567 Y96.379 E0.0195
G1 X133.621 Y99.433 E0.1426
G1 X133.621 Y98.842 E0.0195
G1 X131.158 Y96.379 E0.1150
G1 X131.749 Y96.379 E0.0195
G1 X133.621 Y98.251 E0.0874
G1 X133.621 Y97.660 E0.0195
G1 X132.340 Y96.379 E0.0598
G1 X132.931 Y96.379 E0.0195
G1 X133.621 Y97.069 E0.0322
G1 X133.621 Y96.477 E0.0195
G1 X133.523 Y96.379 E0.0046
G1 E-0.4000 F1800
; layer 2, Z = 0.400
G1 0.400 F10000;
M106 S64
; feature inner perimeter
; tool H0.200 W0.380
G1 Z0.400 F1200
G1 X115.950 Y114.050 F8400
G1 E0.4000 F1800
G1 X115.950 Y95.950 E0.5433 F3750
G1 X134.050 Y95.950 E0.5433
G1 X134.050 Y114.050 E0.5433
G1 X115.950 Y114.050 E0.5433
G1 X115.570 Y114.430 F8400
G1 X115.570 Y95.570 E0.5661 F3750
G1 X134.430 Y95.570 E0.5661
G1 X134.430 Y114.430 E0.5661
G1 X115.570 Y114.430 E0.5661
; feature outer perimeter
G1 X115.190 Y114.810 F8400
G1 X115.190 Y95.190 E0.5889 F1500
G1 X134.810 Y95.190 E0.5889
G1 X134.810 Y114.810 E0.5889
G1 X115.190 Y114.810 E0.5889
G1 E-0.4000 F1800
; feature solid layer
G1 X116.254 Y96.549 F8400
G1 E0.4000 F1800
G1 X116.549 Y96.254 E0.0125 F3000
G1 X117.087 Y96.254 E0.0161
G1 X116.254 Y97.087 E0.0353
G1 X116.254 Y97.624 E0.0161
G1 X117.624 Y96.254 E0.0582
G1 X118.161 Y96.254 E0.0161
G1 X116.254 Y98.161 E0.0810
G1 X116.254 Y98.699 E0.0161
G1 X118.699 Y96.254 E0.1038
G1 X119.236 Y96.254 E0.0161
G1 X116.254 Y99.236 E0.1266
G1 X116.254 Y99.774 E0.0161
G1 X119.774 Y96.254 E0.1494
G1 X120.311 Y96.254 E0.0161
G1 X116.254 Y100.311 E0.1722
G1 X116.254 Y100.848 E0.0161
G1 X120.848 Y96.254 E0.1950
G1 X121.386 Y96.254 E0.0161
G1 X116.254 Y101.386 E0.2178
G1 X116.254 Y101.923 E0.0161
G1 X121.923 Y96.254 E0.2407
G1 X122.461 Y96.254 E0.0161
G1 X116.254 Y102.461 E0.2635
G1 X116.254 Y102.998 E0.0161
G1 X122.998 Y96.254 E0.2863
G1 X123.535 Y96.254 E0.0161
G1 X116.254 Y103.535 E0.3091
G1 X116.254 Y104.073 E0.0161
G1 X124.073 Y96.254 E0.3319
G1 X124.610 Y96.254 E0.0161
G1 X116.254 Y104.610 E0.3547
G1 X116.254 Y105.148 E0.0161
G1 X125.148 Y96.254 E0.3775
G1 X125.685 Y96.254 E0.0161
G1 X116.254 Y105.685 E0.4004
G1 X116.254 Y106.222 E0.0161
G1 X126.222 Y96.254 E0.4232
G1 X126.760 Y96.254 E0.0161
G1 X116.254 Y106.760 E0.4460
G1 X116.254 Y107.297 E0.0161
G1 X127.297 Y96.254 E0.4688
G1 X127.835 Y96.254 E0.0161
G1 X116.254 Y107.835 E0.4916
G1 X116.254 Y108.372 E0.0161
G1 X128.372 Y96.254 E0.5144
G1 X128.909 Y96.254 E0.0161
G1 X116.254 Y108.909 E0.5372
G1 X116.254 Y109.447 E0.0161
G1 X129.447 Y96.254 E0.5600
G1 X129.984 Y96.254 E0.0161
G1 X116.254 Y109.984 E0.5829
G1 X116.254 Y110.522 E0.0161
G1 X130.522 Y96.254 E0.6057
G1 X131.059 Y96.254 E0.0161
G1 X116.254 Y111.059 E0.6285
G1 X116.254 Y111.596 E0.0161
G1 X131.596 Y96.254 E0.6513
G1 X132.134 Y96.254 E0.0161
G1 X116.254 Y112.134 E0.6741
G1 X116.254 Y112.671 E0.0161
G1 X132.671 Y96.254 E0.6969
G1 X133.209 Y96.254 E0.0161
G1 X116.254 Y113.209 E0.7197
G1 X116.254 Y113.746 E0.0161
G1 X133.746 Y96.254 E0.7425
G1 X133.746 Y96.791 E0.0161
G1 X116.791 Y113.746 E0.7197
G1 X117.329 Y113.746 E0.0161
G1 X133.746 Y97.329 E0.6969
G1 X133.746 Y97.866 E0.0161
G1 X117.866 Y113.746 E0.6741
G1 X118.404 Y113.746 E0.0161
G1 X133.746 Y98.404 E0.6513
G1 X133.746 Y98.941 E0.0161
G1 X118.941 Y113.746 E0.6285
G1 X119.478 Y113.746 E0.0161
G1 X133.746 Y99.478 E0.6057
G1 X133.746 Y100.016 E0.0161
G1 X120.016 Y113.746 E0.5829
G1 X120.553 Y113.746 E0.0161
G1 X133.746 Y100.553 E0.5600
G1 X133.746 Y101.091 E0.0161
G1 X121.091 Y113.746 E0.5372
G1 X121.628 Y113.746 E0.0161
G1 X133.746 Y101.628 E0.5144
G1 X133.746 Y102.165 E0.0161
G1 X122.165 Y113.746 E0.4916
G1 X122.703 Y113.746 E0.0161
G1 X133.746 Y102.703 E0.4688
G1 X133.746 Y103.240 E0.0161
G1 X123.240 Y113.746 E0.4460
G1 X123.778 Y113.746 E0.0161
G1 X133.746 Y103.778 E0.4232
G1 X133.746 Y104.315 E0.0161
G1 X124.315 Y113.746 E0.4004
G1 X124.852 Y113.746 E0.0161
G1 X133.746 Y104.852 E0.3775
G1 X133.746 Y105.390 E0.0161
G1 X125.390 Y113.746 E0.3547
G1 X125.927 Y113.746 E0.0161
G1 X133.746 Y105.927 E0.3319
G1 X133.746 Y106.465 E0.0161
G1 X126.465 Y113.746 E0.3091
G1 X127.002 Y113.746 E0.0161
G1 X133.746 Y107.002 E0.2863
G1 X133.746 Y107.539 E0.0161
G1 X127.539 Y113.746 E0.2635
G1 X128.077 Y113.746 E0.0161
G1 X133.746 Y108.077 E0.2407
G1 X133.746 Y108.614 E0.0161
G1 X128.614 Y113.746 E0.2178
G1 X129.152 Y113.746 E0.0161
G1 X133.746 Y109.152 E0.1950
G1 X133.746 Y109.689 E0.0161
G1 X129.689 Y113.746 E0.1722
G1 X130.226 Y113.746 E0.0161
G1 X133.746 Y110.226 E0.1494
G1 X133.746 Y110.764 E0.0161
G1 X130.764 Y113.746 E0.1266
G1 X131.301 Y113.746 E0.0161
G1 X133.746 Y111.301 E0.1038
G1 X133.746 Y111.839 E0.0161
