;Sliced by ideaMaker 3.5.3.4250, 2020-11-13 18:49:03 UTC+0100
;Dimension: 250.000 215.000 205.000 0.400
;Plate Shape: 0
;Extruder Offset #1: 25.000 0.000
;Filament Diameter #1: 1.750
;Filament Diameter #2: 1.750
;Filament Compensation #1: 94.00
;Filament Compensation #2: 94.00
;Filament Density #1: 1240.00
;Filament Density #2: 1240.00
;Bounding Box: 72.807 177.225 100.307 114.725 0.000 5.000
;Model Gap: 0.000
M92 E830.00000
M221 T0 S94.00
; ideaMaker Start G-Code
; Layer height=0.2000 ; Pass layer height information to DWC
; Set nozzle and bed to the specific temperatures declared within this slicer
M140 S60 ; set bed temp
M104 S215 ; set extruder temp
M116 ; wait for all temperatures
; Run macro to print primeline at a 'randomized' Y position from -1.1 to -2.9
M98 P"0:/sys/primeLine.g" ; primeline macro
; Set pressure advance
M572 D0 S0.07 ; set pressure advance
;end of Start GCode
M83
;LAYER:0
;Z:0.200
;HEIGHT:0.200
M106 S0
G1 F2700 E-0.5000
M204 T1250.00
M566 X480.00 Y480.00
M82
G92 E0.0
;1
M83
G0 F6000 X73.235 Y100.428
G0 F600 Z0.200
G0 F6000 X73.529 Y100.831
M204 P1000.00
;TYPE:SKIRT
;WIDTH:0.450
G1 F2400 E0.5000
G1 F900 X74.528 Y100.326 E0.0419
G1 X175.376 Y100.307 E3.7735
G1 X176.084 Y100.557 E0.0281
G1 X176.669 Y101.029 E0.0281
G1 X177.064 Y101.668 E0.0281
G1 X177.225 Y102.500 E0.0317
G1 X177.193 Y112.876 E0.3882
G1 X176.943 Y113.584 E0.0281
G1 X176.471 Y114.169 E0.0281
G1 X175.472 Y114.674 E0.0419
G1 X75.000 Y114.725 E3.7594
G1 X74.259 Y114.598 E0.0281
G1 X73.603 Y114.232 E0.0281
G1 X73.107 Y113.668 E0.0281
G1 X72.826 Y112.972 E0.0281
G1 X72.807 Y102.124 E0.4059
G1 X73.057 Y101.416 E0.0281
G1 X73.215 Y101.220 E0.0094
G0 F900 X73.529 Y100.831
G1 F2700 E-0.5000
G0 F6000 X76.125 Y111.375
;TYPE:WALL-INNER
;WIDTH:0.450
G1 F2400 E0.5000
G1 F1800 X76.125 Y103.625 E0.2900
G1 X173.875 Y103.625 E3.6576
G1 X173.875 Y111.375 E0.2900
G1 X76.625 Y111.375 E3.6389
G0 F1800 X76.125 Y111.375
G1 F2700 E-0.5000
G0 F6000 X75.675 Y111.825
G1 F2400 E0.5000
G1 F1800 X75.675 Y103.175 E0.3237
G1 X174.325 Y103.175 E3.6913
G1 X174.325 Y111.825 E0.3237
G1 X76.175 Y111.825 E3.6725
G0 F1800 X75.675 Y111.825
G1 F2700 E-0.5000
G0 F6000 X75.548 Y111.926
G0 F6000 X75.235 Y112.175
G0 F6000 X75.225 Y112.275
M204 P800.00
;TYPE:WALL-OUTER
;WIDTH:0.450
G1 F2400 E0.5000
G1 F1800 X75.225 Y102.725 E0.3573
G1 X174.775 Y102.725 E3.7249
G1 X174.775 Y112.275 E0.3573
G1 X75.725 Y112.275 E3.7062
G0 F1800 X75.225 Y112.275
G1 F2700 E-0.5000
G0 F6000 X75.235 Y112.175
G0 X76.148 Y111.528
G0 F6000 X76.555 Y111.239
M204 P1500.00
;TYPE:SOLID-FILL
;WIDTH:0.450
G1 F2400 E0.5000
G1 F1800 X76.260 Y110.943 E0.0156
G0 F6000 X76.260 Y110.307
G1 F1800 X77.192 Y111.239 E0.0493
G1 F2700 E-0.5000
G1 F600 Z0.240
G0 F6000 X77.828 Y111.239
G1 F600 Z0.200
G1 F2400 E0.5000
G1 F1800 X76.260 Y109.670 E0.0830
G1 F2700 E-0.5000
G1 F600 Z0.240
G0 F6000 X76.260 Y109.034
G1 F600 Z0.200
G1 F2400 E0.5000
G1 F1800 X78.464 Y111.239 E0.1167
G1 F2700 E-0.5000
G1 F600 Z0.240
G0 F6000 X79.101 Y111.239
G1 F600 Z0.200
G1 F2400 E0.5000
G1 F1800 X76.260 Y108.398 E0.1503
G1 F2700 E-0.5000
G1 F600 Z0.240
G0 F6000 X76.260 Y107.761
G1 F600 Z0.200
G1 F2400 E0.5000
G1 F1800 X79.737 Y111.239 E0.1840
G1 F2700 E-0.5000
G1 F600 Z0.240
G0 F6000 X80.373 Y111.239
G1 F600 Z0.200
G1 F2400 E0.5000
G1 F1800 X76.260 Y107.125 E0.2177
G1 F2700 E-0.5000
G1 F600 Z0.240
G0 F6000 X76.260 Y106.488
G1 F600 Z0.200
G1 F2400 E0.5000
G1 F1800 X81.010 Y111.239 E0.2514
G1 F2700 E-0.5000
G1 F600 Z0.240
G0 F6000 X81.646 Y111.239
G1 F600 Z0.200
G1 F2400 E0.5000
G1 F1800 X76.260 Y105.852 E0.2850
G1 F2700 E-0.5000
G1 F600 Z0.240
G0 F6000 X76.260 Y105.216
G1 F600 Z0.200
G1 F2400 E0.5000
G1 F1800 X82.283 Y111.239 E0.3187
G1 F2700 E-0.5000
G1 F600 Z0.240
G0 F6000 X82.919 Y111.239
G1 F600 Z0.200
G1 F2400 E0.5000
G1 F1800 X76.260 Y104.579 E0.3524
G1 F2700 E-0.5000
G1 F600 Z0.240
G0 F6000 X76.260 Y103.943
G1 F600 Z0.200
G1 F2400 E0.5000
G1 F1800 X83.555 Y111.239 E0.3861
G1 F2700 E-0.5000
G1 F600 Z0.240
G0 F6000 X84.192 Y111.239
G1 F600 Z0.200
G1 F2400 E0.5000
G1 F1800 X76.713 Y103.760 E0.3958
G1 F2700 E-0.5000
G1 F600 Z0.240
G0 F6000 X77.349 Y103.760
G1 F600 Z0.200
G1 F2400 E0.5000
G1 F1800 X84.828 Y111.239 E0.3958
G1 F2700 E-0.5000
G1 F600 Z0.240
G0 F6000 X85.465 Y111.239
G1 F600 Z0.200
G1 F2400 E0.5000
G1 F1800 X77.986 Y103.760 E0.3958
G1 F2700 E-0.5000
G1 F600 Z0.240
G0 F6000 X78.622 Y103.760
G1 F600 Z0.200
G1 F2400 E0.5000
G1 F1800 X86.101 Y111.239 E0.3958
G1 F2700 E-0.5000
G1 F600 Z0.240
G0 F6000 X86.737 Y111.239
G1 F600 Z0.200
G1 F2400 E0.5000
G1 F1800 X79.258 Y103.760 E0.3958
G1 F2700 E-0.5000
G1 F600 Z0.240
G0 F6000 X79.895 Y103.760
G1 F600 Z0.200
G1 F2400 E0.5000
G1 F1800 X87.374 Y111.239 E0.3958
G1 F2700 E-0.5000
G1 F600 Z0.240
G0 F6000 X88.010 Y111.239
G1 F600 Z0.200
G1 F2400 E0.5000
G1 F1800 X80.531 Y103.760 E0.3958
G1 F2700 E-0.5000
G1 F600 Z0.240
G0 F6000 X81.168 Y103.760
G1 F600 Z0.200
G1 F2400 E0.5000
G1 F1800 X88.647 Y111.239 E0.3958
G1 F2700 E-0.5000
G1 F600 Z0.240
G0 F6000 X89.283 Y111.239
G1 F600 Z0.200
G1 F2400 E0.5000
G1 F1800 X81.804 Y103.760 E0.3958
G1 F2700 E-0.5000
G1 F600 Z0.240
G0 F6000 X82.440 Y103.760
G1 F600 Z0.200
G1 F2400 E0.5000
G1 F1800 X89.919 Y111.239 E0.3958
G1 F2700 E-0.5000
G1 F600 Z0.240
G0 F6000 X90.556 Y111.239
G1 F600 Z0.200
G1 F2400 E0.5000
G1 F1800 X83.077 Y103.760 E0.3958
G1 F2700 E-0.5000
G1 F600 Z0.240
G0 F6000 X83.713 Y103.760
G1 F600 Z0.200
G1 F2400 E0.5000
G1 F1800 X91.192 Y111.239 E0.3958
G1 F2700 E-0.5000
G1 F600 Z0.240
G0 F6000 X91.829 Y111.239
G1 F600 Z0.200
G1 F2400 E0.5000
G1 F1800 X84.350 Y103.760 E0.3958
G1 F2700 E-0.5000
G1 F600 Z0.240
G0 F6000 X84.986 Y103.760
G1 F600 Z0.200
G1 F2400 E0.5000
G1 F1800 X92.465 Y111.239 E0.3958
G1 F2700 E-0.5000
G1 F600 Z0.240
G0 F6000 X93.101 Y111.239
G1 F600 Z0.200
G1 F2400 E0.5000
G1 F1800 X85.622 Y103.760 E0.3958
G1 F2700 E-0.5000
G1 F600 Z0.240
G0 F6000 X86.259 Y103.760
G1 F600 Z0.200
G1 F2400 E0.5000
G1 F1800 X93.738 Y111.239 E0.3958
G1 F2700 E-0.5000
G1 F600 Z0.240
G0 F6000 X94.374 Y111.239
G1 F600 Z0.200
G1 F2400 E0.5000
G1 F1800 X86.895 Y103.760 E0.3958
G1 F2700 E-0.5000
G1 F600 Z0.240
G0 F6000 X87.532 Y103.760
G1 F600 Z0.200
G1 F2400 E0.5000
G1 F1800 X95.011 Y111.239 E0.3958
G1 F2700 E-0.5000
G1 F600 Z0.240
G0 F6000 X95.647 Y111.239
G1 F600 Z0.200
G1 F2400 E0.5000
G1 F1800 X88.168 Y103.760 E0.3958
G1 F2700 E-0.5000
G1 F600 Z0.240
G0 F6000 X88.804 Y103.760
G1 F600 Z0.200
G1 F2400 E0.5000
G1 F1800 X96.283 Y111.239 E0.3958
G1 F2700 E-0.5000
G1 F600 Z0.240
G0 F6000 X96.920 Y111.239
G1 F600 Z0.200
G1 F2400 E0.5000
G1 F1800 X89.441 Y103.760 E0.3958
G1 F2700 E-0.5000
G1 F600 Z0.240
G0 F6000 X90.077 Y103.760
G1 F600 Z0.200
G1 F2400 E0.5000
G1 F1800 X97.556 Y111.239 E0.3958
G1 F2700 E-0.5000
G1 F600 Z0.240
G0 F6000 X98.193 Y111.239
G1 F600 Z0.200
G1 F2400 E0.5000
G1 F1800 X90.714 Y103.760 E0.3958
G1 F2700 E-0.5000
G1 F600 Z0.240
G0 F6000 X91.350 Y103.760
G1 F600 Z0.200
G1 F2400 E0.5000
G1 F1800 X98.829 Y111.239 E0.3958
G1 F2700 E-0.5000
G1 F600 Z0.240
G0 F6000 X99.465 Y111.239
G1 F600 Z0.200
G1 F2400 E0.5000
G1 F1800 X91.986 Y103.760 E0.3958
G1 F2700 E-0.5000
G1 F600 Z0.240
G0 F6000 X92.623 Y103.760
G1 F600 Z0.200
G1 F2400 E0.5000
G1 F1800 X100.102 Y111.239 E0.3958
G1 F2700 E-0.5000
G1 F600 Z0.240
G0 F6000 X100.738 Y111.239
G1 F600 Z0.200
G1 F2400 E0.5000
G1 F1800 X93.259 Y103.760 E0.3958
G1 F2700 E-0.5000
G1 F600 Z0.240
G0 F6000 X93.896 Y103.760
G1 F600 Z0.200
G1 F2400 E0.5000
G1 F1800 X101.375 Y111.239 E0.3958
G1 F2700 E-0.5000
G1 F600 Z0.240
G0 F6000 X102.011 Y111.239
G1 F600 Z0.200
G1 F2400 E0.5000
G1 F1800 X94.532 Y103.760 E0.3958
G1 F2700 E-0.5000
G1 F600 Z0.240
G0 F6000 X95.168 Y103.760
G1 F600 Z0.200
G1 F2400 E0.5000
G1 F1800 X102.647 Y111.239 E0.3958
G1 F2700 E-0.5000
G1 F600 Z0.240
G0 F6000 X103.284 Y111.239
G1 F600 Z0.200
G1 F2400 E0.5000
G1 F1800 X95.805 Y103.760 E0.3958
G1 F2700 E-0.5000
G1 F600 Z0.240
G0 F6000 X96.441 Y103.760
G1 F600 Z0.200
G1 F2400 E0.5000
G1 F1800 X103.920 Y111.239 E0.3958
G1 F2700 E-0.5000
G1 F600 Z0.240
G0 F6000 X104.557 Y111.239
G1 F600 Z0.200
G1 F2400 E0.5000
G1 F1800 X97.077 Y103.760 E0.3958
G1 F2700 E-0.5000
G1 F600 Z0.240
G0 F6000 X97.714 Y103.760
G1 F600 Z0.200
G1 F2400 E0.5000
G1 F1800 X105.193 Y111.239 E0.3958
G1 F2700 E-0.5000
G1 F600 Z0.240
G0 F6000 X105.829 Y111.239
G1 F600 Z0.200
G1 F2400 E0.5000
G1 F1800 X98.350 Y103.760 E0.3958
G1 F2700 E-0.5000
G1 F600 Z0.240
G0 F6000 X98.987 Y103.760
G1 F600 Z0.200
G1 F2400 E0.5000
G1 F1800 X106.466 Y111.239 E0.3958
G1 F2700 E-0.5000
G1 F600 Z0.240
G0 F6000 X107.102 Y111.239
G1 F600 Z0.200
G1 F2400 E0.5000
G1 F1800 X99.623 Y103.760 E0.3958
G1 F2700 E-0.5000
G1 F600 Z0.240
G0 F6000 X100.259 Y103.760
G1 F600 Z0.200
G1 F2400 E0.5000
G1 F1800 X107.739 Y111.239 E0.3958
G1 F2700 E-0.5000
G1 F600 Z0.240
G0 F6000 X108.375 Y111.239
G1 F600 Z0.200
G1 F2400 E0.5000
G1 F1800 X100.896 Y103.760 E0.3958
G1 F2700 E-0.5000
G1 F600 Z0.240
G0 F6000 X101.532 Y103.760
G1 F600 Z0.200
G1 F2400 E0.5000
G1 F1800 X109.011 Y111.239 E0.3958
G1 F2700 E-0.5000
G1 F600 Z0.240
G0 F6000 X109.648 Y111.239
G1 F600 Z0.200
G1 F2400 E0.5000
G1 F1800 X102.169 Y103.760 E0.3958
G1 F2700 E-0.5000
G1 F600 Z0.240
G0 F6000 X102.805 Y103.760
G1 F600 Z0.200
G1 F2400 E0.5000
G1 F1800 X110.284 Y111.239 E0.3958
G1 F2700 E-0.5000
G1 F600 Z0.240
G0 F6000 X110.921 Y111.239
G1 F600 Z0.200
G1 F2400 E0.5000
G1 F1800 X103.441 Y103.760 E0.3958
G1 F2700 E-0.5000
G1 F600 Z0.240
G0 F6000 X104.078 Y103.760
G1 F600 Z0.200
G1 F2400 E0.5000
G1 F1800 X111.557 Y111.239 E0.3958
G1 F2700 E-0.5000
G1 F600 Z0.240
G0 F6000 X112.193 Y111.239
G1 F600 Z0.200
G1 F2400 E0.5000
G1 F1800 X104.714 Y103.760 E0.3958
G1 F2700 E-0.5000
G1 F600 Z0.240
G0 F6000 X105.351 Y103.760
G1 F600 Z0.200
G1 F2400 E0.5000
G1 F1800 X112.830 Y111.239 E0.3958
G1 F2700 E-0.5000
G1 F600 Z0.240
G0 F6000 X113.466 Y111.239
G1 F600 Z0.200
G1 F2400 E0.5000
G1 F1800 X105.987 Y103.760 E0.3958
G1 F2700 E-0.5000
G1 F600 Z0.240
G0 F6000 X106.623 Y103.760
G1 F600 Z0.200
G1 F2400 E0.5000
G1 F1800 X114.102 Y111.239 E0.3958
G1 F2700 E-0.5000
G1 F600 Z0.240
G0 F6000 X114.739 Y111.239
G1 F600 Z0.200
G1 F2400 E0.5000
G1 F1800 X107.260 Y103.760 E0.3958
G1 F2700 E-0.5000
G1 F600 Z0.240
G0 F6000 X107.896 Y103.760
G1 F600 Z0.200
G1 F2400 E0.5000
G1 F1800 X115.375 Y111.239 E0.3958
G1 F2700 E-0.5000
G1 F600 Z0.240
G0 F6000 X116.012 Y111.239
G1 F600 Z0.200
G1 F2400 E0.5000
G1 F1800 X108.533 Y103.760 E0.3958
G1 F2700 E-0.5000
G1 F600 Z0.240
G0 F6000 X109.169 Y103.760
G1 F600 Z0.200
G1 F2400 E0.5000
G1 F1800 X116.648 Y111.239 E0.3958
G1 F2700 E-0.5000
G1 F600 Z0.240
G0 F6000 X117.284 Y111.239
G1 F600 Z0.200
G1 F2400 E0.5000
G1 F1800 X109.805 Y103.760 E0.3958
G1 F2700 E-0.5000
G1 F600 Z0.240
G0 F6000 X110.442 Y103.760
G1 F600 Z0.200
G1 F2400 E0.5000
G1 F1800 X117.921 Y111.239 E0.3958
G1 F2700 E-0.5000
G1 F600 Z0.240
G0 F6000 X118.557 Y111.239
G1 F600 Z0.200
G1 F2400 E0.5000
G1 F1800 X111.078 Y103.760 E0.3958
G1 F2700 E-0.5000
G1 F600 Z0.240
G0 F6000 X111.715 Y103.760
G1 F600 Z0.200
G1 F2400 E0.5000
G1 F1800 X119.194 Y111.239 E0.3958
G1 F2700 E-0.5000
G1 F600 Z0.240
G0 F6000 X119.830 Y111.239
G1 F600 Z0.200
G1 F2400 E0.5000
G1 F1800 X112.351 Y103.760 E0.3958
G1 F2700 E-0.5000
G1 F600 Z0.240
G0 F6000 X112.987 Y103.760
G1 F600 Z0.200
G1 F2400 E0.5000
G1 F1800 X120.466 Y111.239 E0.3958
G1 F2700 E-0.5000
G1 F600 Z0.240
G0 F6000 X121.103 Y111.239
G1 F600 Z0.200
G1 F2400 E0.5000
G1 F1800 X113.624 Y103.760 E0.3958
G1 F2700 E-0.5000
G1 F600 Z0.240
G0 F6000 X114.260 Y103.760
G1 F600 Z0.200
G1 F2400 E0.5000
G1 F1800 X121.739 Y111.239 E0.3958
G1 F2700 E-0.5000
G1 F600 Z0.240
G0 F6000 X122.376 Y111.239
G1 F600 Z0.200
G1 F2400 E0.5000
G1 F1800 X114.897 Y103.760 E0.3958
G1 F2700 E-0.5000
G1 F600 Z0.240
G0 F6000 X115.533 Y103.760
G1 F600 Z0.200
G1 F2400 E0.5000
G1 F1800 X123.012 Y111.239 E0.3958
G1 F2700 E-0.5000
G1 F600 Z0.240
G0 F6000 X123.648 Y111.239
G1 F600 Z0.200
G1 F2400 E0.5000
G1 F1800 X116.169 Y103.760 E0.3958
G1 F2700 E-0.5000
G1 F600 Z0.240
G0 F6000 X116.806 Y103.760
G1 F600 Z0.200
G1 F2400 E0.5000
G1 F1800 X124.285 Y111.239 E0.3958
G1 F2700 E-0.5000
G1 F600 Z0.240
G0 F6000 X124.921 Y111.239
G1 F600 Z0.200
G1 F2400 E0.5000
G1 F1800 X117.442 Y103.760 E0.3958
G1 F2700 E-0.5000
G1 F600 Z0.240
G0 F6000 X118.079 Y103.760
G1 F600 Z0.200
G1 F2400 E0.5000
G1 F1800 X125.558 Y111.239 E0.3958
G1 F2700 E-0.5000
G1 F600 Z0.240
G0 F6000 X126.194 Y111.239
G1 F600 Z0.200
G1 F2400 E0.5000
G1 F1800 X118.715 Y103.760 E0.3958
G1 F2700 E-0.5000
G1 F600 Z0.240
G0 F6000 X119.351 Y103.760
G1 F600 Z0.200
G1 F2400 E0.5000
G1 F1800 X126.830 Y111.239 E0.3958
G1 F2700 E-0.5000
G1 F600 Z0.240
G0 F6000 X127.467 Y111.239
G1 F600 Z0.200
G1 F2400 E0.5000
G1 F1800 X119.988 Y103.760 E0.3958
G1 F2700 E-0.5000
G1 F600 Z0.240
G0 F6000 X120.624 Y103.760
G1 F600 Z0.200
G1 F2400 E0.5000
G1 F1800 X128.103 Y111.239 E0.3958
G1 F2700 E-0.5000
G1 F600 Z0.240
G0 F6000 X128.740 Y111.239
G1 F600 Z0.200
G1 F2400 E0.5000
G1 F1800 X121.261 Y103.760 E0.3958
G1 F2700 E-0.5000
G1 F600 Z0.240
G0 F6000 X121.897 Y103.760
G1 F600 Z0.200
G1 F2400 E0.5000
G1 F1800 X129.376 Y111.239 E0.3958
G1 F2700 E-0.5000
G1 F600 Z0.240
G0 F6000 X130.012 Y111.239
G1 F600 Z0.200
G1 F2400 E0.5000
G1 F1800 X122.533 Y103.760 E0.3958
G1 F2700 E-0.5000
G1 F600 Z0.240
G0 F6000 X123.170 Y103.760
G1 F600 Z0.200
G1 F2400 E0.5000
G1 F1800 X130.649 Y111.239 E0.3958
G1 F2700 E-0.5000
G1 F600 Z0.240
G0 F6000 X131.285 Y111.239
G1 F600 Z0.200
G1 F2400 E0.5000
G1 F1800 X123.806 Y103.760 E0.3958
G1 F2700 E-0.5000
G1 F600 Z0.240
G0 F6000 X124.443 Y103.760
G1 F600 Z0.200
G1 F2400 E0.5000
G1 F1800 X131.922 Y111.239 E0.3958
G1 F2700 E-0.5000
G1 F600 Z0.240
G0 F6000 X132.558 Y111.239
G1 F600 Z0.200
G1 F2400 E0.5000
G1 F1800 X125.079 Y103.760 E0.3958
G1 F2700 E-0.5000
G1 F600 Z0.240
G0 F6000 X125.715 Y103.760
G1 F600 Z0.200
G1 F2400 E0.5000
G1 F1800 X133.194 Y111.239 E0.3958
G1 F2700 E-0.5000
G1 F600 Z0.240
G0 F6000 X133.831 Y111.239
G1 F600 Z0.200
G1 F2400 E0.5000
G1 F1800 X126.352 Y103.760 E0.3958
G1 F2700 E-0.5000
G1 F600 Z0.240
G0 F6000 X126.988 Y103.760
G1 F600 Z0.200
G1 F2400 E0.5000
G1 F1800 X134.467 Y111.239 E0.3958
G1 F2700 E-0.5000
G1 F600 Z0.240
G0 F6000 X135.104 Y111.239
G1 F600 Z0.200
G1 F2400 E0.5000
G1 F1800 X127.624 Y103.760 E0.3958
G1 F2700 E-0.5000
G1 F600 Z0.240
G0 F6000 X128.261 Y103.760
G1 F600 Z0.200
G1 F2400 E0.5000
G1 F1800 X135.740 Y111.239 E0.3958
G1 F2700 E-0.5000
G1 F600 Z0.240
G0 F6000 X136.376 Y111.239
G1 F600 Z0.200
G1 F2400 E0.5000
G1 F1800 X128.897 Y103.760 E0.3958
G1 F2700 E-0.5000
G1 F600 Z0.240
G0 F6000 X129.534 Y103.760
G1 F600 Z0.200
G1 F2400 E0.5000
G1 F1800 X137.013 Y111.239 E0.3958
G1 F2700 E-0.5000
G1 F600 Z0.240
G0 F6000 X137.649 Y111.239
G1 F600 Z0.200
G1 F2400 E0.5000
G1 F1800 X130.170 Y103.760 E0.3958
G1 F2700 E-0.5000
G1 F600 Z0.240
G0 F6000 X130.806 Y103.760
G1 F600 Z0.200
G1 F2400 E0.5000
G1 F1800 X138.286 Y111.239 E0.3958
G1 F2700 E-0.5000
G1 F600 Z0.240
G0 F6000 X138.922 Y111.239
G1 F600 Z0.200
G1 F2400 E0.5000
G1 F1800 X131.443 Y103.760 E0.3958
G1 F2700 E-0.5000
G1 F600 Z0.240
G0 F6000 X132.079 Y103.760
G1 F600 Z0.200
G1 F2400 E0.5000
G1 F1800 X139.558 Y111.239 E0.3958
G1 F2700 E-0.5000
G1 F600 Z0.240
G0 F6000 X140.195 Y111.239
G1 F600 Z0.200
G1 F2400 E0.5000
G1 F1800 X132.716 Y103.760 E0.3958
G1 F2700 E-0.5000
G1 F600 Z0.240
G0 F6000 X133.352 Y103.760
G1 F600 Z0.200
G1 F2400 E0.5000
G1 F1800 X140.831 Y111.239 E0.3958
G1 F2700 E-0.5000
G1 F600 Z0.240
G0 F6000 X141.468 Y111.239
G1 F600 Z0.200
G1 F2400 E0.5000
G1 F1800 X133.988 Y103.760 E0.3958
G1 F2700 E-0.5000
G1 F600 Z0.240
G0 F6000 X134.625 Y103.760
G1 F600 Z0.200
G1 F2400 E0.5000
G1 F1800 X142.104 Y111.239 E0.3958
G1 F2700 E-0.5000
G1 F600 Z0.240
G0 F6000 X142.740 Y111.239
G1 F600 Z0.200
G1 F2400 E0.5000
G1 F1800 X135.261 Y103.760 E0.3958
G1 F2700 E-0.5000
G1 F600 Z0.240
G0 F6000 X135.898 Y103.760
G1 F600 Z0.200
G1 F2400 E0.5000
G1 F1800 X143.377 Y111.239 E0.3958
G1 F2700 E-0.5000
G1 F600 Z0.240
G0 F6000 X144.013 Y111.239
G1 F600 Z0.200
G1 F2400 E0.5000
G1 F1800 X136.534 Y103.760 E0.3958
G1 F2700 E-0.5000
G1 F600 Z0.240
G0 F6000 X137.170 Y103.760
G1 F600 Z0.200
