;Sliced by ideaMaker 3.5.3.4250, 2020-11-02 19:18:52 UTC+0100
;Dimension: 250.000 215.000 205.000 0.400
;Plate Shape: 0
;Extruder Offset #1: 25.000 0.000
;Filament Diameter #1: 1.750
;Filament Diameter #2: 1.750
;Filament Compensation #1: 94.00
;Filament Compensation #2: 94.00
;Filament Density #1: 1240.00
;Filament Density #2: 1240.00
;Bounding Box: 115.000 135.000 97.500 117.500 0.000 20.000
;Model Gap: 0.000
M92 E830.00000
M221 T0 S94.00
; ideaMaker Start G-Code
; Layer height=0.2000 ; Pass layer height information to DWC
; Set nozzle and bed to the specific temperatures declared within this slicer
M140 S65 ; set bed temp
M104 S215 ; set extruder temp
M116 ; wait for all temperatures
; Run macro to print primeline at a 'randomized' Y position from -1.1 to -2.9
M98 P"0:/sys/primeLine.g" ; primeline macro
; Set pressure advance
M572 D0 S0.07 ; set pressure advance
;end of Start GCode
M83
;LAYER:0
;Z:0.200
;HEIGHT:0.200
M106 S0
M104 T0 S240
G1 F2700 E-1.4000
M204 T1250.00
M566 X480.00 Y480.00
M82
G92 E0.0
;1
M83
G0 F9000 X116.125 Y116.375
G0 F600 Z0.200
M204 P1000.00
;TYPE:WALL-INNER
;WIDTH:0.450
G1 F2400 E1.4000
G1 F1800 X116.125 Y98.625 E0.6642
G1 X133.841 Y98.625 E0.6629
G1 X133.873 Y116.375 E0.6642
G1 X116.625 Y116.375 E0.6454
G0 F1800 X116.125 Y116.375
G1 F2700 E-1.4000
G0 F9000 X115.675 Y116.825
G1 F2400 E1.4000
G1 F1800 X115.675 Y98.175 E0.6978
G1 X134.290 Y98.175 E0.6965
G1 X134.324 Y116.825 E0.6978
G1 X116.175 Y116.825 E0.6791
G0 F1800 X115.675 Y116.825
G1 F2700 E-1.4000
G0 F9000 X115.548 Y116.926
G0 F9000 X115.235 Y117.175
G0 F9000 X115.225 Y117.275
M204 P800.00
;TYPE:WALL-OUTER
;WIDTH:0.450
G1 F2400 E1.4000
G1 F1800 X115.225 Y97.725 E0.7315
G1 X134.739 Y97.725 E0.7302
G1 X134.775 Y117.275 E0.7315
G1 X115.725 Y117.275 E0.7128
G0 F1800 X115.225 Y117.275
G1 F2700 E-1.4000
G0 F9000 X115.235 Y117.175
G0 X115.940 Y116.325
G0 F9000 X116.259 Y115.941
M204 P1500.00
;TYPE:SOLID-FILL
;WIDTH:0.450
G1 F2400 E1.4000
G1 F1800 X116.558 Y116.239 E0.0158
G0 F9000 X117.194 Y116.239
G1 F1800 X116.259 Y115.305 E0.0495
G1 F2700 E-1.4000
G1 F600 Z0.240
G0 F9000 X116.259 Y114.668
G1 F600 Z0.200
G1 F2400 E1.4000
G1 F1800 X117.830 Y116.239 E0.0831
G1 F2700 E-1.4000
G1 F600 Z0.240
G0 F9000 X118.467 Y116.239
G1 F600 Z0.200
G1 F2400 E1.4000
G1 F1800 X116.259 Y114.032 E0.1168
G1 F2700 E-1.4000
G1 F600 Z0.240
G0 F9000 X116.259 Y113.395
G1 F600 Z0.200
G1 F2400 E1.4000
G1 F1800 X119.103 Y116.239 E0.1505
G1 F2700 E-1.4000
G1 F600 Z0.240
G0 F9000 X119.740 Y116.239
G1 F600 Z0.200
G1 F2400 E1.4000
G1 F1800 X116.259 Y112.759 E0.1842
G1 F2700 E-1.4000
G1 F600 Z0.240
G0 F9000 X116.259 Y112.123
G1 F600 Z0.200
G1 F2400 E1.4000
G1 F1800 X120.376 Y116.239 E0.2178
G1 F2700 E-1.4000
G1 F600 Z0.240
G0 F9000 X121.012 Y116.239
G1 F600 Z0.200
G1 F2400 E1.4000
G1 F1800 X116.259 Y111.486 E0.2515
G1 F2700 E-1.4000
G1 F600 Z0.240
G0 F9000 X116.259 Y110.850
G1 F600 Z0.200
G1 F2400 E1.4000
G1 F1800 X121.649 Y116.239 E0.2852
G1 F2700 E-1.4000
G1 F600 Z0.240
G0 F9000 X122.285 Y116.239
G1 F600 Z0.200
G1 F2400 E1.4000
G1 F1800 X116.259 Y110.213 E0.3189
G1 F2700 E-1.4000
G1 F600 Z0.240
G0 F9000 X116.259 Y109.577
G1 F600 Z0.200
G1 F2400 E1.4000
G1 F1800 X122.922 Y116.239 E0.3526
G1 F2700 E-1.4000
G1 F600 Z0.240
G0 F9000 X123.558 Y116.239
G1 F600 Z0.200
G1 F2400 E1.4000
G1 F1800 X116.259 Y108.941 E0.3862
G1 F2700 E-1.4000
G1 F600 Z0.240
G0 F9000 X116.259 Y108.304
G1 F600 Z0.200
G1 F2400 E1.4000
G1 F1800 X124.194 Y116.239 E0.4199
G1 F2700 E-1.4000
G1 F600 Z0.240
G0 F9000 X124.831 Y116.239
G1 F600 Z0.200
G1 F2400 E1.4000
G1 F1800 X116.259 Y107.668 E0.4536
G1 F2700 E-1.4000
G1 F600 Z0.240
G0 F9000 X116.259 Y107.031
G1 F600 Z0.200
G1 F2400 E1.4000
G1 F1800 X125.467 Y116.239 E0.4873
G1 F2700 E-1.4000
G1 F600 Z0.240
G0 F9000 X126.104 Y116.239
G1 F600 Z0.200
G1 F2400 E1.4000
G1 F1800 X116.259 Y106.395 E0.5209
G1 F2700 E-1.4000
G1 F600 Z0.240
G0 F9000 X116.259 Y105.759
G1 F600 Z0.200
G1 F2400 E1.4000
G1 F1800 X126.740 Y116.239 E0.5546
G1 F2700 E-1.4000
G1 F600 Z0.240
G0 F9000 X127.376 Y116.239
G1 F600 Z0.200
G1 F2400 E1.4000
G1 F1800 X116.259 Y105.122 E0.5883
G1 F2700 E-1.4000
G1 F600 Z0.240
G0 F9000 X116.259 Y104.486
G1 F600 Z0.200
G1 F2400 E1.4000
G1 F1800 X128.013 Y116.239 E0.6220
G1 F2700 E-1.4000
G1 F600 Z0.240
G0 F9000 X128.649 Y116.239
G1 F600 Z0.200
G1 F2400 E1.4000
G1 F1800 X116.259 Y103.849 E0.6556
G1 F2700 E-1.4000
G1 F600 Z0.240
G0 F9000 X116.259 Y103.213
G1 F600 Z0.200
G1 F2400 E1.4000
G1 F1800 X129.285 Y116.239 E0.6893
G1 F2700 E-1.4000
G1 F600 Z0.240
G0 F9000 X129.922 Y116.239
G1 F600 Z0.200
G1 F2400 E1.4000
G1 F1800 X116.259 Y102.577 E0.7230
G1 F2700 E-1.4000
G1 F600 Z0.240
G0 F9000 X116.259 Y101.940
G1 F600 Z0.200
G1 F2400 E1.4000
G1 F1800 X130.558 Y116.239 E0.7567
G1 F2700 E-1.4000
G1 F600 Z0.240
G0 F9000 X131.195 Y116.239
G1 F600 Z0.200
G1 F2400 E1.4000
G1 F1800 X116.259 Y101.304 E0.7903
G1 F2700 E-1.4000
G1 F600 Z0.240
G0 F9000 X116.259 Y100.667
G1 F600 Z0.200
G1 F2400 E1.4000
G1 F1800 X131.831 Y116.239 E0.8240
G1 F2700 E-1.4000
G1 F600 Z0.240
G0 F9000 X132.467 Y116.239
G1 F600 Z0.200
G1 F2400 E1.4000
G1 F1800 X116.259 Y100.031 E0.8577
G1 F2700 E-1.4000
G1 F600 Z0.240
G0 F9000 X116.259 Y99.395
G1 F600 Z0.200
G1 F2400 E1.4000
G1 F1800 X133.104 Y116.239 E0.8914
G1 F2700 E-1.4000
G1 F600 Z0.240
G0 F9000 X133.737 Y116.236
G1 F600 Z0.200
G1 F2400 E1.4000
G1 F1800 X116.261 Y98.760 E0.9248
G1 F2700 E-1.4000
G1 F600 Z0.240
G0 F9000 X116.897 Y98.760
G1 F600 Z0.200
G1 F2400 E1.4000
G1 F1800 X133.736 Y115.599 E0.8911
G1 F2700 E-1.4000
G1 F600 Z0.240
G0 F9000 X133.735 Y114.961
G1 F600 Z0.200
G1 F2400 E1.4000
G1 F1800 X117.533 Y98.760 E0.8573
G1 F2700 E-1.4000
G1 F600 Z0.240
G0 F9000 X118.170 Y98.760
G1 F600 Z0.200
G1 F2400 E1.4000
G1 F1800 X133.734 Y114.324 E0.8236
G1 F2700 E-1.4000
G1 F600 Z0.240
G0 F9000 X133.732 Y113.686
G1 F600 Z0.200
G1 F2400 E1.4000
G1 F1800 X118.806 Y98.760 E0.7898
G1 F2700 E-1.4000
G1 F600 Z0.240
G0 F9000 X119.443 Y98.760
G1 F600 Z0.200
G1 F2400 E1.4000
G1 F1800 X133.731 Y113.048 E0.7561
G1 F2700 E-1.4000
G1 F600 Z0.240
G0 F9000 X133.730 Y112.411
G1 F600 Z0.200
G1 F2400 E1.4000
G1 F1800 X120.079 Y98.760 E0.7224
G1 F2700 E-1.4000
G1 F600 Z0.240
G0 F9000 X120.715 Y98.760
G1 F600 Z0.200
G1 F2400 E1.4000
G1 F1800 X133.729 Y111.773 E0.6886
G1 F2700 E-1.4000
G1 F600 Z0.240
G0 F9000 X133.728 Y111.135
G1 F600 Z0.200
G1 F2400 E1.4000
G1 F1800 X121.352 Y98.760 E0.6549
G1 F2700 E-1.4000
G1 F600 Z0.240
G0 F9000 X121.988 Y98.760
G1 F600 Z0.200
G1 F2400 E1.4000
G1 F1800 X133.727 Y110.498 E0.6212
G1 F2700 E-1.4000
G1 F600 Z0.240
G0 F9000 X133.725 Y109.861
G1 F600 Z0.200
G1 F2400 E1.4000
G1 F1800 X122.625 Y98.760 E0.5874
G1 F2700 E-1.4000
G1 F600 Z0.240
G0 F9000 X123.261 Y98.760
G1 F600 Z0.200
G1 F2400 E1.4000
G1 F1800 X133.724 Y109.223 E0.5537
G1 F2700 E-1.4000
G1 F600 Z0.240
G0 F9000 X133.723 Y108.586
G1 F600 Z0.200
G1 F2400 E1.4000
G1 F1800 X123.897 Y98.760 E0.5200
G1 F2700 E-1.4000
G1 F600 Z0.240
G0 F9000 X124.534 Y98.760
G1 F600 Z0.200
G1 F2400 E1.4000
G1 F1800 X133.722 Y107.948 E0.4862
G1 F2700 E-1.4000
G1 F600 Z0.240
G0 F9000 X133.721 Y107.311
G1 F600 Z0.200
G1 F2400 E1.4000
G1 F1800 X125.170 Y98.760 E0.4525
G1 F2700 E-1.4000
G1 F600 Z0.240
G0 F9000 X125.807 Y98.760
G1 F600 Z0.200
G1 F2400 E1.4000
G1 F1800 X133.720 Y106.673 E0.4187
G1 F2700 E-1.4000
G1 F600 Z0.240
G0 F9000 X133.718 Y106.035
G1 F600 Z0.200
G1 F2400 E1.4000
G1 F1800 X126.443 Y98.760 E0.3850
G1 F2700 E-1.4000
G1 F600 Z0.240
G0 F9000 X127.079 Y98.760
G1 F600 Z0.200
G1 F2400 E1.4000
G1 F1800 X133.718 Y105.398 E0.3513
G1 F2700 E-1.4000
G1 F600 Z0.240
G0 F9000 X133.716 Y104.760
G1 F600 Z0.200
G1 F2400 E1.4000
G1 F1800 X127.716 Y98.760 E0.3175
G1 F2700 E-1.4000
G1 F600 Z0.240
G0 F9000 X128.352 Y98.760
G1 F600 Z0.200
G1 F2400 E1.4000
G1 F1800 X133.715 Y104.122 E0.2838
G1 F2700 E-1.4000
G1 F600 Z0.240
G0 F9000 X133.714 Y103.485
G1 F600 Z0.200
G1 F2400 E1.4000
G1 F1800 X128.989 Y98.760 E0.2500
G1 F2700 E-1.4000
G1 F600 Z0.240
G0 F9000 X129.625 Y98.760
G1 F600 Z0.200
G1 F2400 E1.4000
G1 F1800 X133.713 Y102.847 E0.2163
G1 F2700 E-1.4000
G1 F600 Z0.240
G0 F9000 X133.711 Y102.210
G1 F600 Z0.200
G1 F2400 E1.4000
G1 F1800 X130.261 Y98.760 E0.1826
G1 F2700 E-1.4000
G1 F600 Z0.240
G0 F9000 X130.898 Y98.760
G1 F600 Z0.200
G1 F2400 E1.4000
G1 F1800 X133.711 Y101.573 E0.1489
G1 F2700 E-1.4000
G1 F600 Z0.240
G0 F9000 X133.709 Y100.935
G1 F600 Z0.200
G1 F2400 E1.4000
G1 F1800 X131.534 Y98.760 E0.1151
G1 F2700 E-1.4000
G1 F600 Z0.240
G0 F9000 X132.170 Y98.760
G1 F600 Z0.200
G1 F2400 E1.4000
G1 F1800 X133.708 Y100.297 E0.0814
G1 F2700 E-1.4000
G1 F600 Z0.240
G0 F9000 X133.707 Y99.660
G1 F600 Z0.200
G1 F2400 E1.4000
G1 F1800 X132.807 Y98.760 E0.0476
G1 F2700 E-1.4000
G1 F600 Z0.240
G0 F9000 X133.443 Y98.760
G1 F600 Z0.200
G1 F2400 E1.4000
G1 F1800 X133.706 Y99.022 E0.0139
;LAYER:1
;Z:0.400
;HEIGHT:0.200
M104 T0 S235
G1 F2700 E-1.4000
M82
G92 E0.0
;2
M83
G0 F600 Z0.400
G0 F9000 X133.875 Y116.375
M204 P1000.00
;TYPE:WALL-INNER
;WIDTH:0.450
G1 F600 Z0.400
G1 F2400 E1.4000
G1 F2250 X116.125 Y116.375 E0.6642
G1 X116.125 Y98.625 E0.6642
G1 X133.875 Y98.625 E0.6642
G1 X133.875 Y115.875 E0.6455
G0 F2250 X133.875 Y116.375
G1 F2700 E-1.4000
G0 F9000 X134.325 Y116.825
G1 F600 Z0.400
G1 F2400 E1.4000
G1 F2250 X115.675 Y116.825 E0.6978
G1 X115.675 Y98.175 E0.6978
G1 X134.325 Y98.175 E0.6978
G1 X134.325 Y116.325 E0.6791
G0 F2250 X134.325 Y116.825
G1 F2700 E-1.4000
G0 F9000 X134.426 Y116.952
G0 F9000 X134.675 Y117.265
G0 F9000 X134.775 Y117.275
M204 P800.00
;TYPE:WALL-OUTER
;WIDTH:0.450
G1 F600 Z0.400
G1 F2400 E1.4000
G1 F1800 X115.225 Y117.275 E0.7315
G1 X115.225 Y97.725 E0.7315
G1 X134.775 Y97.725 E0.7315
G1 X134.775 Y116.775 E0.7128
G0 F1800 X134.775 Y117.275
G1 F2700 E-1.4000
G0 F9000 X134.675 Y117.265
G0 X134.043 Y116.442
G0 F9000 X133.739 Y116.046
M204 P1500.00
;TYPE:SOLID-FILL
;WIDTH:0.450
G1 F600 Z0.400
G1 F2400 E1.4000
G1 F1950 X133.545 Y116.239 E0.0102
G0 F9000 X132.909 Y116.239
G1 F1950 X133.739 Y115.409 E0.0439
G1 F2700 E-1.4000
G0 F9000 X133.739 Y114.773
G1 F600 Z0.400
G1 F2400 E1.4000
G1 F1950 X132.272 Y116.239 E0.0776
G1 F2700 E-1.4000
G0 F9000 X131.636 Y116.239
G1 F600 Z0.400
G1 F2400 E1.4000
G1 F1950 X133.739 Y114.136 E0.1113
G1 F2700 E-1.4000
G0 F9000 X133.739 Y113.500
G1 F600 Z0.400
G1 F2400 E1.4000
G1 F1950 X131.000 Y116.239 E0.1449
G1 F2700 E-1.4000
G0 F9000 X130.363 Y116.239
G1 F600 Z0.400
G1 F2400 E1.4000
G1 F1950 X133.739 Y112.864 E0.1786
G1 F2700 E-1.4000
G0 F9000 X133.739 Y112.227
G1 F600 Z0.400
G1 F2400 E1.4000
G1 F1950 X129.727 Y116.239 E0.2123
G1 F2700 E-1.4000
G0 F9000 X129.090 Y116.239
G1 F600 Z0.400
G1 F2400 E1.4000
G1 F1950 X133.739 Y111.591 E0.2460
G1 F2700 E-1.4000
G0 F9000 X133.739 Y110.954
G1 F600 Z0.400
G1 F2400 E1.4000
G1 F1950 X128.454 Y116.239 E0.2797
G1 F2700 E-1.4000
G0 F9000 X127.818 Y116.239
G1 F600 Z0.400
G1 F2400 E1.4000
G1 F1950 X133.739 Y110.318 E0.3133
G1 F2700 E-1.4000
G0 F9000 X133.739 Y109.682
G1 F600 Z0.400
G1 F2400 E1.4000
G1 F1950 X127.181 Y116.239 E0.3470
G1 F2700 E-1.4000
G0 F9000 X126.545 Y116.239
G1 F600 Z0.400
G1 F2400 E1.4000
G1 F1950 X133.739 Y109.045 E0.3807
G1 F2700 E-1.4000
G0 F9000 X133.739 Y108.409
G1 F600 Z0.400
G1 F2400 E1.4000
G1 F1950 X125.908 Y116.239 E0.4144
G1 F2700 E-1.4000
G0 F9000 X125.272 Y116.239
G1 F600 Z0.400
G1 F2400 E1.4000
G1 F1950 X133.739 Y107.772 E0.4480
G1 F2700 E-1.4000
G0 F9000 X133.739 Y107.136
G1 F600 Z0.400
G1 F2400 E1.4000
G1 F1950 X124.636 Y116.239 E0.4817
G1 F2700 E-1.4000
G0 F9000 X123.999 Y116.239
G1 F600 Z0.400
G1 F2400 E1.4000
G1 F1950 X133.739 Y106.500 E0.5154
G1 F2700 E-1.4000
G0 F9000 X133.739 Y105.863
G1 F600 Z0.400
G1 F2400 E1.4000
G1 F1950 X123.363 Y116.239 E0.5491
G1 F2700 E-1.4000
G0 F9000 X122.726 Y116.239
G1 F600 Z0.400
G1 F2400 E1.4000
G1 F1950 X133.739 Y105.227 E0.5827
G1 F2700 E-1.4000
G0 F9000 X133.739 Y104.590
G1 F600 Z0.400
G1 F2400 E1.4000
G1 F1950 X122.090 Y116.239 E0.6164
G1 F2700 E-1.4000
G0 F9000 X121.454 Y116.239
G1 F600 Z0.400
G1 F2400 E1.4000
G1 F1950 X133.739 Y103.954 E0.6501
G1 F2700 E-1.4000
G0 F9000 X133.739 Y103.318
G1 F600 Z0.400
G1 F2400 E1.4000
G1 F1950 X120.817 Y116.239 E0.6838
G1 F2700 E-1.4000
G0 F9000 X120.181 Y116.239
G1 F600 Z0.400
G1 F2400 E1.4000
G1 F1950 X133.739 Y102.681 E0.7174
G1 F2700 E-1.4000
G0 F9000 X133.739 Y102.045
G1 F600 Z0.400
G1 F2400 E1.4000
G1 F1950 X119.544 Y116.239 E0.7511
G1 F2700 E-1.4000
G0 F9000 X118.908 Y116.239
G1 F600 Z0.400
G1 F2400 E1.4000
G1 F1950 X133.739 Y101.409 E0.7848
G1 F2700 E-1.4000
G0 F9000 X133.739 Y100.772
G1 F600 Z0.400
G1 F2400 E1.4000
G1 F1950 X118.272 Y116.239 E0.8185
G1 F2700 E-1.4000
G0 F9000 X117.635 Y116.239
G1 F600 Z0.400
G1 F2400 E1.4000
G1 F1950 X133.739 Y100.136 E0.8521
G1 F2700 E-1.4000
G0 F9000 X133.739 Y99.499
G1 F600 Z0.400
G1 F2400 E1.4000
G1 F1950 X116.999 Y116.239 E0.8858
G1 F2700 E-1.4000
G0 F9000 X116.362 Y116.239
G1 F600 Z0.400
G1 F2400 E1.4000
G1 F1950 X133.739 Y98.863 E0.9195
G1 F2700 E-1.4000
G0 F9000 X133.206 Y98.760
G1 F600 Z0.400
G1 F2400 E1.4000
G1 F1950 X116.259 Y115.706 E0.8968
G1 F2700 E-1.4000
G0 F9000 X116.259 Y115.070
G1 F600 Z0.400
G1 F2400 E1.4000
G1 F1950 X132.569 Y98.760 E0.8631
G1 F2700 E-1.4000
G0 F9000 X131.933 Y98.760
G1 F600 Z0.400
G1 F2400 E1.4000
G1 F1950 X116.259 Y114.433 E0.8294
G1 F2700 E-1.4000
G0 F9000 X116.259 Y113.797
G1 F600 Z0.400
G1 F2400 E1.4000
G1 F1950 X131.297 Y98.760 E0.7957
G1 F2700 E-1.4000
G0 F9000 X130.660 Y98.760
G1 F600 Z0.400
G1 F2400 E1.4000
G1 F1950 X116.259 Y113.161 E0.7621
G1 F2700 E-1.4000
G0 F9000 X116.259 Y112.524
G1 F600 Z0.400
G1 F2400 E1.4000
G1 F1950 X130.024 Y98.760 E0.7284
G1 F2700 E-1.4000
G0 F9000 X129.387 Y98.760
G1 F600 Z0.400
G1 F2400 E1.4000
G1 F1950 X116.259 Y111.888 E0.6947
G1 F2700 E-1.4000
G0 F9000 X116.259 Y111.251
G1 F600 Z0.400
G1 F2400 E1.4000
G1 F1950 X128.751 Y98.760 E0.6610
G1 F2700 E-1.4000
G0 F9000 X128.115 Y98.760
G1 F600 Z0.400
G1 F2400 E1.4000
G1 F1950 X116.259 Y110.615 E0.6274
G1 F2700 E-1.4000
G0 F9000 X116.259 Y109.979
G1 F600 Z0.400
G1 F2400 E1.4000
G1 F1950 X127.478 Y98.760 E0.5937
G1 F2700 E-1.4000
G0 F9000 X126.842 Y98.760
G1 F600 Z0.400
G1 F2400 E1.4000
G1 F1950 X116.259 Y109.342 E0.5600
G1 F2700 E-1.4000
G0 F9000 X116.259 Y108.706
G1 F600 Z0.400
G1 F2400 E1.4000
G1 F1950 X126.205 Y98.760 E0.5263
G1 F2700 E-1.4000
G0 F9000 X125.569 Y98.760
G1 F600 Z0.400
G1 F2400 E1.4000
G1 F1950 X116.259 Y108.069 E0.4926
G1 F2700 E-1.4000
G0 F9000 X116.259 Y107.433
G1 F600 Z0.400
G1 F2400 E1.4000
G1 F1950 X124.933 Y98.760 E0.4590
G1 F2700 E-1.4000
G0 F9000 X124.296 Y98.760
G1 F600 Z0.400
G1 F2400 E1.4000
G1 F1950 X116.259 Y106.797 E0.4253
G1 F2700 E-1.4000
G0 F9000 X116.259 Y106.160
G1 F600 Z0.400
G1 F2400 E1.4000
G1 F1950 X123.660 Y98.760 E0.3916
G1 F2700 E-1.4000
G0 F9000 X123.023 Y98.760
G1 F600 Z0.400
G1 F2400 E1.4000
G1 F1950 X116.259 Y105.524 E0.3579
G1 F2700 E-1.4000
G0 F9000 X116.259 Y104.887
G1 F600 Z0.400
G1 F2400 E1.4000
G1 F1950 X122.387 Y98.760 E0.3242
G1 F2700 E-1.4000
G0 F9000 X121.751 Y98.760
G1 F600 Z0.400
G1 F2400 E1.4000
G1 F1950 X116.259 Y104.251 E0.2906
G1 F2700 E-1.4000
G0 F9000 X116.259 Y103.615
G1 F600 Z0.400
G1 F2400 E1.4000
G1 F1950 X121.114 Y98.760 E0.2569
G1 F2700 E-1.4000
G0 F9000 X120.478 Y98.760
G1 F600 Z0.400
G1 F2400 E1.4000
G1 F1950 X116.259 Y102.978 E0.2232
G1 F2700 E-1.4000
G0 F9000 X116.259 Y102.342
G1 F600 Z0.400
G1 F2400 E1.4000
G1 F1950 X119.841 Y98.760 E0.1895
G1 F2700 E-1.4000
G0 F9000 X119.205 Y98.760
G1 F600 Z0.400
G1 F2400 E1.4000
G1 F1950 X116.259 Y101.705 E0.1559
G1 F2700 E-1.4000
G0 F9000 X116.259 Y101.069
G1 F600 Z0.400
G1 F2400 E1.4000
G1 F1950 X118.569 Y98.760 E0.1222
G1 F2700 E-1.4000
G0 F9000 X117.932 Y98.760
G1 F600 Z0.400
G1 F2400 E1.4000
G1 F1950 X116.259 Y100.433 E0.0885
G1 F2700 E-1.4000
G0 F9000 X116.259 Y99.796
G1 F600 Z0.400
G1 F2400 E1.4000
G1 F1950 X117.296 Y98.760 E0.0548
G1 F2700 E-1.4000
G0 F9000 X116.659 Y98.760
G1 F600 Z0.400
G1 F2400 E1.4000
G1 F1950 X116.259 Y99.160 E0.0212
;LAYER:2
;Z:0.600
;HEIGHT:0.200
M106 S255
G4 P500
M106 S51
G1 F2700 E-1.4000
M82
G92 E0.0
;3
M83
G0 F600 Z0.600
G0 F9000 X116.125 Y116.375
M204 P1000.00
;TYPE:WALL-INNER
;WIDTH:0.450
