;Sliced by ideaMaker 3.5.3.4250, 2020-11-12 18:51:02 UTC+0100
;Dimension: 250.000 215.000 205.000 0.400
;Plate Shape: 0
;Extruder Offset #1: 25.000 0.000
;Filament Diameter #1: 1.750
;Filament Diameter #2: 1.750
;Filament Compensation #1: 94.00
;Filament Compensation #2: 94.00
;Filament Density #1: 1240.00
;Filament Density #2: 1240.00
;Bounding Box: 113.359 136.641 95.854 119.146 0.000 2.400
;Model Gap: 0.000
M92 E830.00000
M221 T0 S94.00
; ideaMaker Start G-Code
; Layer height=0.2000 ; Pass layer height information to DWC
; Set nozzle and bed to the specific temperatures declared within this slicer
M140 S60 ; set bed temp
M104 S215 ; set extruder temp
M116 ; wait for all temperatures
; Run macro to print primeline at a 'randomized' Y position from -1.1 to -2.9
M98 P"0:/sys/primeLine.g" ; primeline macro
; Set pressure advance
M572 D0 S0.07 ; set pressure advance
;end of Start GCode
M83
;LAYER:0
;Z:0.200
;HEIGHT:0.200
M106 S0
G1 F2700 E-0.5000
M204 T1250.00
M566 X480.00 Y480.00
M82
G92 E0.0
;1
M83
G0 F6000 X115.228 Y103.589
G0 F600 Z0.200
M204 P1000.00
;TYPE:WALL-INNER
;WIDTH:0.450
G1 F2400 E0.5000
G1 F1800 X116.320 Y101.550 E0.0865
G1 X117.832 Y99.799 E0.0866
G1 X119.689 Y98.419 E0.0866
G1 X121.803 Y97.479 E0.0866
G1 X124.103 Y97.020 E0.0878
G1 X125.200 Y96.983 E0.0411
G1 X127.524 Y97.293 E0.0877
G1 X129.694 Y98.094 E0.0866
G1 X131.662 Y99.368 E0.0877
G1 X132.473 Y100.106 E0.0410
G1 X133.940 Y101.973 E0.0888
G1 X134.513 Y103.032 E0.0451
G1 X135.239 Y105.148 E0.0837
G1 X135.509 Y107.503 E0.0887
G1 X135.264 Y109.747 E0.0845
G1 X134.523 Y111.942 E0.0867
G1 X133.304 Y113.945 E0.0877
G1 X132.589 Y114.776 E0.0410
G1 X130.785 Y116.274 E0.0877
G1 X128.726 Y117.329 E0.0866
G1 X126.455 Y117.916 E0.0878
G1 X125.309 Y118.016 E0.0430
G1 X122.975 Y117.824 E0.0876
G1 X120.766 Y117.132 E0.0866
G1 X118.737 Y115.962 E0.0876
G1 X117.853 Y115.224 E0.0431
G1 X116.380 Y113.536 E0.0838
G1 X115.268 Y111.505 E0.0866
G1 X114.628 Y109.281 E0.0866
G1 X114.487 Y106.939 E0.0878
G1 X114.603 Y105.848 E0.0411
G1 X115.095 Y104.071 E0.0690
G0 F1800 X115.228 Y103.589
G0 F6000 X114.808 Y103.421
G1 F1800 X115.947 Y101.294 E0.0903
G1 X117.524 Y99.467 E0.0903
G1 X119.461 Y98.028 E0.0903
G1 X121.666 Y97.048 E0.0903
G1 X124.051 Y96.571 E0.0910
G1 X125.222 Y96.532 E0.0438
G1 X127.633 Y96.854 E0.0910
G1 X129.897 Y97.689 E0.0903
G1 X131.938 Y99.010 E0.0910
G1 X132.804 Y99.799 E0.0438
G1 X134.318 Y101.725 E0.0917
G1 X134.927 Y102.851 E0.0479
G1 X135.680 Y105.048 E0.0869
G1 X135.962 Y107.502 E0.0924
G1 X135.706 Y109.845 E0.0882
G1 X134.933 Y112.133 E0.0904
G1 X133.669 Y114.211 E0.0910
G1 X132.905 Y115.098 E0.0438
G1 X131.034 Y116.652 E0.0910
G1 X128.887 Y117.752 E0.0903
G1 X126.531 Y118.361 E0.0911
G1 X125.310 Y118.468 E0.0459
G1 X122.888 Y118.268 E0.0909
G1 X120.584 Y117.547 E0.0903
G1 X118.479 Y116.332 E0.0909
G1 X117.537 Y115.547 E0.0459
G1 X116.009 Y113.795 E0.0870
G1 X114.849 Y111.677 E0.0904
G1 X114.182 Y109.358 E0.0903
G1 X114.036 Y106.929 E0.0911
G1 X114.159 Y105.764 E0.0438
G1 X114.675 Y103.902 E0.0723
G0 F1800 X114.808 Y103.421
G0 F6000 X114.388 Y103.253
M204 P800.00
;TYPE:WALL-OUTER
;WIDTH:0.450
G1 F1800 X115.574 Y101.038 E0.0940
G1 X117.216 Y99.135 E0.0940
G1 X119.233 Y97.637 E0.0940
G1 X121.529 Y96.617 E0.0940
G1 X123.999 Y96.122 E0.0943
G1 X125.245 Y96.081 E0.0466
G1 X127.742 Y96.415 E0.0943
G1 X130.099 Y97.284 E0.0940
G1 X132.214 Y98.652 E0.0942
G1 X133.135 Y99.492 E0.0466
G1 X134.695 Y101.477 E0.0945
G1 X135.341 Y102.670 E0.0508
G1 X136.122 Y104.948 E0.0901
G1 X136.415 Y107.501 E0.0962
G1 X136.148 Y109.943 E0.0919
G1 X135.343 Y112.324 E0.0940
G1 X134.034 Y114.477 E0.0943
G1 X133.221 Y115.420 E0.0466
G1 X131.283 Y117.030 E0.0943
G1 X129.048 Y118.175 E0.0940
G1 X126.608 Y118.806 E0.0943
G1 X125.311 Y118.920 E0.0487
G1 X122.801 Y118.712 E0.0942
G1 X120.402 Y117.962 E0.0940
G1 X118.221 Y116.702 E0.0942
G1 X117.221 Y115.870 E0.0487
G1 X115.638 Y114.054 E0.0901
G1 X114.430 Y111.849 E0.0941
G1 X113.736 Y109.435 E0.0940
G1 X113.585 Y106.919 E0.0943
G1 X113.715 Y105.680 E0.0466
G1 X114.255 Y103.734 E0.0756
G0 F1800 X114.388 Y103.253
G1 F2700 E-0.5000
G0 F6000 X114.480 Y103.292
G0 X124.019 Y101.257
G0 X125.980 Y101.258
G0 X126.755 Y101.580
G0 X130.226 Y103.159
G0 F6000 X130.681 Y103.366
M204 P1000.00
;TYPE:WALL-INNER
;WIDTH:0.450
G1 F2400 E0.5000
G1 F1800 X129.157 Y101.843 E0.0806
G1 X128.141 Y101.219 E0.0446
G1 X126.091 Y100.555 E0.0806
G1 X123.936 Y100.555 E0.0806
G1 X122.778 Y100.833 E0.0446
G1 X120.857 Y101.811 E0.0807
G1 X119.334 Y103.334 E0.0806
G1 X118.711 Y104.350 E0.0446
G1 X118.046 Y106.400 E0.0806
G1 X118.046 Y108.555 E0.0806
G1 X118.324 Y109.713 E0.0446
G1 X119.282 Y111.594 E0.0790
G1 X120.054 Y112.499 E0.0445
G1 X121.799 Y113.766 E0.0807
G1 X123.891 Y114.445 E0.0823
G1 X126.046 Y114.445 E0.0806
G1 X127.204 Y114.167 E0.0446
G1 X129.125 Y113.189 E0.0807
G1 X130.649 Y111.665 E0.0806
G1 X131.272 Y110.647 E0.0447
G1 X131.940 Y108.556 E0.0821
G1 X131.936 Y106.445 E0.0790
G1 X131.659 Y105.287 E0.0446
G1 X130.907 Y103.811 E0.0620
G0 F1800 X130.681 Y103.366
G0 F6000 X130.312 Y103.634
G1 F1800 X128.876 Y102.199 E0.0760
G1 X127.951 Y101.631 E0.0406
G1 X126.020 Y101.005 E0.0760
G1 X123.989 Y101.005 E0.0760
G1 X122.935 Y101.258 E0.0406
G1 X121.125 Y102.180 E0.0760
G1 X119.690 Y103.615 E0.0759
G1 X119.123 Y104.540 E0.0406
G1 X118.496 Y106.471 E0.0760
G1 X118.496 Y108.502 E0.0760
G1 X118.749 Y109.556 E0.0406
G1 X119.659 Y111.342 E0.0750
G1 X120.362 Y112.166 E0.0405
G1 X122.006 Y113.360 E0.0760
G1 X123.962 Y113.995 E0.0769
G1 X125.993 Y113.995 E0.0760
G1 X127.047 Y113.742 E0.0406
G1 X128.857 Y112.820 E0.0760
G1 X130.293 Y111.385 E0.0760
G1 X130.860 Y110.458 E0.0407
G1 X131.490 Y108.486 E0.0775
G1 X131.486 Y106.498 E0.0744
G1 X131.234 Y105.444 E0.0405
G1 X130.538 Y104.079 E0.0573
G0 F1800 X130.312 Y103.634
G0 F6000 X129.943 Y103.902
M204 P800.00
;TYPE:WALL-OUTER
;WIDTH:0.450
G1 F1800 X128.595 Y102.555 E0.0713
G1 X127.761 Y102.043 E0.0366
G1 X125.949 Y101.455 E0.0713
G1 X124.042 Y101.455 E0.0714
G1 X123.092 Y101.683 E0.0366
G1 X121.393 Y102.549 E0.0714
G1 X120.046 Y103.896 E0.0713
G1 X119.535 Y104.730 E0.0366
G1 X118.946 Y106.542 E0.0713
G1 X118.946 Y108.449 E0.0714
G1 X119.174 Y109.399 E0.0366
G1 X120.036 Y111.090 E0.0710
G1 X120.670 Y111.833 E0.0365
G1 X122.213 Y112.954 E0.0714
G1 X124.033 Y113.545 E0.0716
G1 X125.940 Y113.545 E0.0714
G1 X126.890 Y113.317 E0.0366
G1 X128.589 Y112.451 E0.0714
G1 X129.937 Y111.104 E0.0713
G1 X130.448 Y110.269 E0.0366
G1 X131.040 Y108.416 E0.0728
G1 X131.036 Y106.551 E0.0698
G1 X130.809 Y105.601 E0.0365
G1 X130.170 Y104.347 E0.0527
G0 F1800 X129.943 Y103.902
G1 F2700 E-0.5000
G0 F6000 X130.006 Y103.825
G0 X132.215 Y100.775
G0 F6000 X132.508 Y100.370
M204 P1500.00
;TYPE:SOLID-FILL
;WIDTH:0.450
G1 F2400 E0.5000
G1 F1800 X131.968 Y99.830 E0.0286
G1 F2700 E-0.5000
G1 F600 Z0.240
G0 F6000 X129.870 Y98.369
G1 F600 Z0.200
G1 F2400 E0.5000
G1 F1800 X134.152 Y102.650 E0.2266
G1 F2700 E-0.5000
G1 F600 Z0.240
G0 F6000 X134.615 Y103.750
G1 F600 Z0.200
G1 F2400 E0.5000
G1 F1800 X128.757 Y97.892 E0.3100
G1 F2700 E-0.5000
G1 F600 Z0.240
G0 F6000 X127.749 Y97.520
G1 F600 Z0.200
G1 F2400 E0.5000
G1 F1800 X134.948 Y104.719 E0.3809
G1 F2700 E-0.5000
G1 F600 Z0.240
G0 F6000 X135.149 Y105.556
G1 F600 Z0.200
G1 F2400 E0.5000
G1 F1800 X126.945 Y97.353 E0.4341
G1 F2700 E-0.5000
G1 F600 Z0.240
G0 F6000 X126.210 Y97.254
G1 F600 Z0.200
G1 F2400 E0.5000
G1 F1800 X135.232 Y106.276 E0.4774
G1 F2700 E-0.5000
G1 F600 Z0.240
G0 F6000 X135.315 Y106.995
G1 F600 Z0.200
G1 F2400 E0.5000
G1 F1800 X125.476 Y97.157 E0.5206
G1 F2700 E-0.5000
G1 F600 Z0.240
G0 F6000 X124.814 Y97.131
G1 F600 Z0.200
G1 F2400 E0.5000
G1 F1800 X135.355 Y107.671 E0.5578
G1 F2700 E-0.5000
G1 F600 Z0.240
G0 F6000 X135.292 Y108.245
G1 F600 Z0.200
G1 F2400 E0.5000
G1 F1800 X131.265 Y104.219 E0.2131
G1 F2700 E-0.5000
G1 F600 Z0.240
G0 F6000 X131.828 Y105.417
G1 F600 Z0.200
G1 F2400 E0.5000
G1 F1800 X135.229 Y108.818 E0.1800
G1 F2700 E-0.5000
G1 F600 Z0.240
G0 F6000 X135.166 Y109.392
G1 F600 Z0.200
G1 F2400 E0.5000
G1 F1800 X132.028 Y106.254 E0.1661
G1 F2700 E-0.5000
G1 F600 Z0.240
G0 F6000 X132.071 Y106.933
G1 F600 Z0.200
G1 F2400 E0.5000
G1 F1800 X135.061 Y109.923 E0.1582
G1 F2700 E-0.5000
G1 F600 Z0.240
G0 F6000 X134.901 Y110.399
G1 F600 Z0.200
G1 F2400 E0.5000
G1 F1800 X132.071 Y107.570 E0.1497
G1 F2700 E-0.5000
G1 F600 Z0.240
G0 F6000 X132.073 Y108.208
G1 F600 Z0.200
G1 F2400 E0.5000
G1 F1800 X134.740 Y110.875 E0.1411
G1 F2700 E-0.5000
G1 F600 Z0.240
G0 F6000 X134.580 Y111.351
G1 F600 Z0.200
G1 F2400 E0.5000
G1 F1800 X132.009 Y108.780 E0.1360
G1 F2700 E-0.5000
G1 F600 Z0.240
G0 F6000 X131.854 Y109.262
G1 F600 Z0.200
G1 F2400 E0.5000
G1 F1800 X134.419 Y111.827 E0.1357
G0 F6000 X134.188 Y112.232
G1 F1800 X131.700 Y109.745 E0.1316
G1 F2700 E-0.5000
G1 F600 Z0.240
G0 F6000 X131.546 Y110.227
G1 F600 Z0.200
G1 F2400 E0.5000
G1 F1800 X133.947 Y112.627 E0.1270
G0 F6000 X133.706 Y113.023
G1 F1800 X131.391 Y110.708 E0.1225
G0 F6000 X131.149 Y111.103
G1 F1800 X133.465 Y113.419 E0.1226
G0 F6000 X133.224 Y113.814
G1 F1800 X130.908 Y111.498 E0.1226
G0 F6000 X130.638 Y111.864
G1 F1800 X132.937 Y114.163 E0.1217
G0 F6000 X132.642 Y114.505
G1 F1800 X130.320 Y112.183 E0.1229
G0 F6000 X130.002 Y112.501
G1 F1800 X132.321 Y114.820 E0.1227
G0 F6000 X131.974 Y115.109
G1 F1800 X129.684 Y112.819 E0.1212
G0 F6000 X129.365 Y113.137
G1 F1800 X131.626 Y115.398 E0.1196
G0 F6000 X131.279 Y115.687
G1 F1800 X128.997 Y113.405 E0.1208
G0 F6000 X128.576 Y113.620
G1 F1800 X130.931 Y115.976 E0.1246
G0 F6000 X130.557 Y116.238
G1 F1800 X128.153 Y113.834 E0.1272
G0 F6000 X127.732 Y114.049
G1 F1800 X130.136 Y116.454 E0.1272
G0 F6000 X129.715 Y116.669
G1 F1800 X127.311 Y114.264 E0.1272
G1 F2700 E-0.5000
G1 F600 Z0.240
G0 F6000 X126.810 Y114.400
G1 F600 Z0.200
G1 F2400 E0.5000
G1 F1800 X129.295 Y116.885 E0.1315
G0 F6000 X128.874 Y117.101
G1 F1800 X126.297 Y114.523 E0.1364
G1 F2700 E-0.5000
G1 F600 Z0.240
G0 F6000 X125.717 Y114.580
G1 F600 Z0.200
G1 F2400 E0.5000
G1 F1800 X128.408 Y117.271 E0.1424
G1 F2700 E-0.5000
G1 F600 Z0.240
G0 F6000 X127.902 Y117.401
G1 F600 Z0.200
G1 F2400 E0.5000
G1 F1800 X125.080 Y114.580 E0.1493
G1 F2700 E-0.5000
G1 F600 Z0.240
G0 F6000 X124.444 Y114.580
G1 F600 Z0.200
G1 F2400 E0.5000
G1 F1800 X127.396 Y117.532 E0.1562
G1 F2700 E-0.5000
G1 F600 Z0.240
G0 F6000 X126.891 Y117.663
G1 F600 Z0.200
G1 F2400 E0.5000
G1 F1800 X123.778 Y114.550 E0.1647
G1 F2700 E-0.5000
G1 F600 Z0.240
G0 F6000 X122.835 Y114.244
G1 F600 Z0.200
G1 F2400 E0.5000
G1 F1800 X126.377 Y117.786 E0.1874
G1 F2700 E-0.5000
G1 F600 Z0.240
G0 F6000 X125.792 Y117.837
G1 F600 Z0.200
G1 F2400 E0.5000
G1 F1800 X121.893 Y113.938 E0.2063
G1 F2700 E-0.5000
G1 F600 Z0.240
G0 F6000 X120.082 Y116.582
G1 F600 Z0.200
G1 F2400 E0.5000
G1 F1800 X115.925 Y112.425 E0.2200
G1 F2700 E-0.5000
G1 F600 Z0.240
G0 F6000 X115.312 Y111.176
G1 F600 Z0.200
G1 F2400 E0.5000
G1 F1800 X121.292 Y117.155 E0.3164
G1 F2700 E-0.5000
G1 F600 Z0.240
G0 F6000 X122.218 Y117.445
G1 F600 Z0.200
G1 F2400 E0.5000
G1 F1800 X115.056 Y110.283 E0.3790
G1 F2700 E-0.5000
G1 F600 Z0.240
G0 F6000 X114.798 Y109.389
G1 F600 Z0.200
G1 F2400 E0.5000
G1 F1800 X123.108 Y117.699 E0.4397
G1 F2700 E-0.5000
G1 F600 Z0.240
G0 F6000 X123.801 Y117.755
G1 F600 Z0.200
G1 F2400 E0.5000
G1 F1800 X114.726 Y108.680 E0.4802
G1 F2700 E-0.5000
G1 F600 Z0.240
G0 F6000 X114.685 Y108.003
G1 F600 Z0.200
G1 F2400 E0.5000
G1 F1800 X124.495 Y117.813 E0.5191
G1 F2700 E-0.5000
G1 F600 Z0.240
G0 F6000 X125.188 Y117.869
G1 F600 Z0.200
G1 F2400 E0.5000
G1 F1800 X114.645 Y107.326 E0.5579
G1 F2700 E-0.5000
G1 F600 Z0.240
G0 F6000 X114.648 Y106.693
G1 F600 Z0.200
G1 F2400 E0.5000
G1 F1800 X118.694 Y110.739 E0.2141
G1 F2700 E-0.5000
G1 F600 Z0.240
G0 F6000 X118.146 Y109.555
G1 F600 Z0.200
G1 F2400 E0.5000
G1 F1800 X114.709 Y106.118 E0.1819
G1 F2700 E-0.5000
G1 F600 Z0.240
G0 F6000 X114.814 Y105.586
G1 F600 Z0.200
G1 F2400 E0.5000
G1 F1800 X117.946 Y108.718 E0.1657
G1 F2700 E-0.5000
G1 F600 Z0.240
G0 F6000 X117.910 Y108.045
G1 F600 Z0.200
G1 F2400 E0.5000
G1 F1800 X114.952 Y105.088 E0.1565
G1 F2700 E-0.5000
G1 F600 Z0.240
G0 F6000 X115.090 Y104.589
G1 F600 Z0.200
G1 F2400 E0.5000
G1 F1800 X117.910 Y107.409 E0.1492
G1 F2700 E-0.5000
G1 F600 Z0.240
G0 F6000 X117.910 Y106.773
G1 F600 Z0.200
G1 F2400 E0.5000
G1 F1800 X115.227 Y104.091 E0.1419
G1 F2700 E-0.5000
G1 F600 Z0.240
G0 F6000 X115.373 Y103.600
G1 F600 Z0.200
G1 F2400 E0.5000
G1 F1800 X117.970 Y106.196 E0.1374
G1 F2700 E-0.5000
G1 F600 Z0.240
G0 F6000 X118.125 Y105.715
G1 F600 Z0.200
G1 F2400 E0.5000
G1 F1800 X115.595 Y103.185 E0.1339
G0 F6000 X115.817 Y102.771
G1 F1800 X118.281 Y105.235 E0.1304
G1 F2700 E-0.5000
G1 F600 Z0.240
G0 F6000 X118.437 Y104.755
G1 F600 Z0.200
G1 F2400 E0.5000
G1 F1800 X116.039 Y102.356 E0.1269
G0 F6000 X116.261 Y101.942
G1 F1800 X118.595 Y104.277 E0.1235
G0 F6000 X118.838 Y103.883
G1 F1800 X116.500 Y101.545 E0.1237
G0 F6000 X116.795 Y101.203
G1 F1800 X119.080 Y103.488 E0.1209
G0 F6000 X119.352 Y103.124
G1 F1800 X117.090 Y100.862 E0.1197
G0 F6000 X117.385 Y100.520
G1 F1800 X119.670 Y102.806 E0.1209
G0 F6000 X119.988 Y102.488
G1 F1800 X117.680 Y100.179 E0.1222
G0 F6000 X117.988 Y99.851
G1 F1800 X120.307 Y102.169 E0.1227
G0 F6000 X120.625 Y101.851
G1 F1800 X118.353 Y99.579 E0.1202
G0 F6000 X118.718 Y99.308
G1 F1800 X120.997 Y101.587 E0.1206
G0 F6000 X121.418 Y101.372
G1 F1800 X119.083 Y99.037 E0.1236
G0 F6000 X119.448 Y98.765
G1 F1800 X121.840 Y101.157 E0.1266
G0 F6000 X122.262 Y100.943
G1 F1800 X119.824 Y98.505 E0.1290
G0 F6000 X120.266 Y98.310
G1 F1800 X122.683 Y100.728 E0.1279
G1 F2700 E-0.5000
G1 F600 Z0.240
G0 F6000 X123.187 Y100.595
G1 F600 Z0.200
G1 F2400 E0.5000
G1 F1800 X120.706 Y98.114 E0.1313
G0 F6000 X121.147 Y97.918
G1 F1800 X123.700 Y100.472 E0.1351
G1 F2700 E-0.5000
G1 F600 Z0.240
G0 F6000 X124.284 Y100.419
G1 F600 Z0.200
G1 F2400 E0.5000
G1 F1800 X121.588 Y97.723 E0.1427
G1 F2700 E-0.5000
G1 F600 Z0.240
G0 F6000 X122.066 Y97.565
G1 F600 Z0.200
G1 F2400 E0.5000
G1 F1800 X124.921 Y100.419 E0.1511
G1 F2700 E-0.5000
G1 F600 Z0.240
G0 F6000 X125.557 Y100.419
G1 F600 Z0.200
G1 F2400 E0.5000
G1 F1800 X122.596 Y97.459 E0.1567
G1 F2700 E-0.5000
G1 F600 Z0.240
G0 F6000 X123.126 Y97.352
G1 F600 Z0.200
G1 F2400 E0.5000
G1 F1800 X126.233 Y100.459 E0.1644
G1 F2700 E-0.5000
G1 F600 Z0.240
G0 F6000 X127.175 Y100.764
G1 F600 Z0.200
G1 F2400 E0.5000
G1 F1800 X123.656 Y97.246 E0.1862
G1 F2700 E-0.5000
G1 F600 Z0.240
G0 F6000 X124.198 Y97.151
G1 F600 Z0.200
G1 F2400 E0.5000
G1 F1800 X128.116 Y101.069 E0.2073
G1 F2700 E-0.5000
G1 F600 Z0.240
G0 F6000 X123.023 Y101.496
G0 X121.276 Y102.388
G0 X119.354 Y104.647
G0 X119.012 Y105.703
G0 X117.722 Y114.290
G0 F6000 X117.648 Y114.784
G1 F600 Z0.200
G1 F2400 E0.5000
G1 F1800 X118.212 Y115.348 E0.0298
;LAYER:1
;Z:0.400
;HEIGHT:0.200
G1 F2700 E-0.5000
M82
G92 E0.0
;2
M83
G0 F600 Z0.400
G0 F6000 X115.740 Y112.507
M204 P1000.00
;TYPE:WALL-INNER
;WIDTH:0.450
G1 F600 Z0.400
G1 F2400 E0.5000
G1 F2250 X114.871 Y110.362 E0.0866
G1 X114.484 Y108.049 E0.0878
G1 X114.484 Y106.951 E0.0411
G1 X114.871 Y104.635 E0.0879
G1 X115.683 Y102.609 E0.0817
G1 X116.332 Y101.525 E0.0473
G1 X117.868 Y99.762 E0.0875
G1 X119.731 Y98.391 E0.0866
G1 X121.851 Y97.461 E0.0866
G1 X124.154 Y97.012 E0.0878
G1 X125.250 Y96.981 E0.0410
G1 X127.576 Y97.304 E0.0879
G1 X129.625 Y98.062 E0.0817
G1 X130.725 Y98.679 E0.0472
G1 X132.530 Y100.166 E0.0875
G1 X133.951 Y101.992 E0.0866
G1 X134.953 Y104.112 E0.0877
G1 X135.251 Y105.167 E0.0410
G1 X135.509 Y107.500 E0.0878
G1 X135.251 Y109.833 E0.0878
G1 X134.953 Y110.888 E0.0410
G1 X133.951 Y113.008 E0.0877
G1 X132.530 Y114.834 E0.0866
G1 X130.743 Y116.305 E0.0866
G1 X128.679 Y117.350 E0.0866
G1 X126.433 Y117.920 E0.0867
G1 X124.250 Y117.988 E0.0817
G1 X122.998 Y117.831 E0.0472
G1 X120.766 Y117.132 E0.0875
G1 X118.762 Y115.975 E0.0866
G1 X117.059 Y114.408 E0.0866
G1 X116.025 Y112.917 E0.0679
G0 F2250 X115.740 Y112.507
G0 F6000 X115.342 Y112.722
G1 F2250 X114.435 Y110.485 E0.0903
G1 X114.034 Y108.086 E0.0910
G1 X114.034 Y106.914 E0.0439
G1 X114.435 Y104.513 E0.0911
G1 X115.279 Y102.408 E0.0849
