;Sliced by ideaMaker 3.5.3.4250, 2020-11-08 19:25:40 UTC+0100
;Dimension: 250.000 215.000 205.000 0.400
;Plate Shape: 0
;Extruder Offset #1: 25.000 0.000
;Filament Diameter #1: 1.750
;Filament Diameter #2: 1.750
;Filament Compensation #1: 94.00
;Filament Compensation #2: 94.00
;Filament Density #1: 1240.00
;Filament Density #2: 1240.00
;Bounding Box: 106.760 143.240 89.260 125.740 0.000 41.400
;Model Gap: 0.000
M92 E830.00000
M221 T0 S94.00
; ideaMaker Start G-Code
; Layer height=0.2000 ; Pass layer height information to DWC
; Set nozzle and bed to the specific temperatures declared within this slicer
M140 S60 ; set bed temp
M104 S215 ; set extruder temp
M116 ; wait for all temperatures
G28
G29
; Run macro to print primeline at a 'randomized' Y position from -1.1 to -2.9
M98 P"0:/sys/primeLine.g" ; primeline macro
; Set pressure advance
M572 D0 S0.07 ; set pressure advance
;end of Start GCode
M83
;LAYER:0
;Z:0.200
;HEIGHT:0.200
M106 S0
G1 F2700 E-0.5000
M204 T1250.00
M566 X480.00 Y480.00
M82
G92 E0.0
;1
M83
G0 F6000 X115.405 Y99.686
G0 F600 Z0.200
G0 F6000 X115.783 Y100.012
M204 P1000.00
;TYPE:SKIRT
;WIDTH:0.450
G1 F2400 E0.5000
G1 F900 X117.223 Y98.526 E0.0774
G1 X118.898 Y97.312 E0.0774
G1 X120.762 Y96.407 E0.0775
G1 X122.752 Y95.839 E0.0774
G1 X124.810 Y95.626 E0.0774
G1 X126.876 Y95.774 E0.0775
G1 X128.883 Y96.277 E0.0774
G1 X130.772 Y97.121 E0.0774
G1 X132.488 Y98.282 E0.0775
G1 X133.974 Y99.722 E0.0774
G1 X135.188 Y101.400 E0.0775
G1 X136.092 Y103.261 E0.0774
G1 X136.660 Y105.252 E0.0775
G1 X136.874 Y107.308 E0.0773
G1 X136.726 Y109.375 E0.0775
G1 X136.222 Y111.382 E0.0774
G1 X135.378 Y113.271 E0.0774
G1 X134.218 Y114.986 E0.0775
G1 X132.778 Y116.473 E0.0775
G1 X131.101 Y117.687 E0.0775
G1 X129.239 Y118.592 E0.0775
G1 X127.248 Y119.160 E0.0775
G1 X125.190 Y119.373 E0.0774
G1 X123.124 Y119.225 E0.0775
G1 X121.118 Y118.722 E0.0774
G1 X119.228 Y117.878 E0.0775
G1 X117.512 Y116.717 E0.0775
G1 X116.027 Y115.277 E0.0774
G1 X114.813 Y113.600 E0.0775
G1 X113.908 Y111.738 E0.0775
G1 X113.340 Y109.747 E0.0775
G1 X113.127 Y107.689 E0.0774
G1 X113.273 Y105.625 E0.0774
G1 X113.778 Y103.616 E0.0775
G1 X114.622 Y101.728 E0.0774
G1 X115.503 Y100.426 E0.0588
G0 F900 X115.783 Y100.012
G0 F6000 X116.155 Y100.266
G1 F900 X117.545 Y98.840 E0.0745
G1 X119.161 Y97.677 E0.0745
G1 X120.957 Y96.812 E0.0746
G1 X122.874 Y96.272 E0.0745
G1 X124.855 Y96.074 E0.0745
G1 X126.842 Y96.223 E0.0746
G1 X128.772 Y96.713 E0.0745
G1 X130.587 Y97.531 E0.0745
G1 X132.234 Y98.654 E0.0746
G1 X133.660 Y100.044 E0.0745
G1 X134.822 Y101.662 E0.0745
G1 X135.687 Y103.456 E0.0745
G1 X136.227 Y105.374 E0.0746
G1 X136.426 Y107.353 E0.0744
G1 X136.277 Y109.341 E0.0746
G1 X135.786 Y111.271 E0.0745
G1 X134.968 Y113.086 E0.0745
G1 X133.846 Y114.733 E0.0746
G1 X132.456 Y116.159 E0.0745
G1 X130.838 Y117.322 E0.0746
G1 X129.044 Y118.187 E0.0745
G1 X127.126 Y118.727 E0.0746
G1 X125.145 Y118.925 E0.0745
G1 X123.158 Y118.776 E0.0746
G1 X121.229 Y118.286 E0.0745
G1 X119.413 Y117.468 E0.0745
G1 X117.766 Y116.345 E0.0746
G1 X116.341 Y114.955 E0.0745
G1 X115.178 Y113.337 E0.0746
G1 X114.313 Y111.543 E0.0745
G1 X113.773 Y109.625 E0.0746
G1 X113.575 Y107.644 E0.0745
G1 X113.722 Y105.658 E0.0745
G1 X114.214 Y103.727 E0.0746
G1 X115.032 Y101.913 E0.0745
G1 X115.874 Y100.679 E0.0559
G0 F900 X116.155 Y100.266
G0 F6000 X116.526 Y100.521
G1 F900 X117.866 Y99.155 E0.0716
G1 X119.423 Y98.043 E0.0716
G1 X121.151 Y97.218 E0.0716
G1 X122.994 Y96.706 E0.0716
G1 X124.898 Y96.522 E0.0716
G1 X126.807 Y96.672 E0.0717
G1 X128.660 Y97.149 E0.0716
G1 X130.401 Y97.941 E0.0716
G1 X131.979 Y99.025 E0.0716
G1 X133.345 Y100.365 E0.0716
G1 X134.456 Y101.923 E0.0716
G1 X135.281 Y103.650 E0.0716
G1 X135.793 Y105.494 E0.0716
G1 X135.978 Y107.397 E0.0715
G1 X135.828 Y109.306 E0.0717
G1 X135.350 Y111.159 E0.0716
G1 X134.558 Y112.900 E0.0716
G1 X133.475 Y114.478 E0.0716
G1 X132.135 Y115.844 E0.0716
G1 X130.577 Y116.956 E0.0716
G1 X128.850 Y117.781 E0.0716
G1 X127.006 Y118.293 E0.0716
G1 X125.102 Y118.477 E0.0716
G1 X123.193 Y118.327 E0.0717
G1 X121.341 Y117.850 E0.0716
G1 X119.599 Y117.058 E0.0716
G1 X118.021 Y115.974 E0.0716
G1 X116.656 Y114.634 E0.0716
G1 X115.544 Y113.076 E0.0716
G1 X114.719 Y111.349 E0.0716
G1 X114.207 Y109.505 E0.0716
G1 X114.023 Y107.601 E0.0716
G1 X114.171 Y105.693 E0.0716
G1 X114.650 Y103.840 E0.0716
G1 X115.442 Y102.099 E0.0716
G1 X116.243 Y100.933 E0.0529
G0 F900 X116.526 Y100.521
G0 F6000 X116.896 Y100.777
G1 F900 X118.186 Y99.471 E0.0687
G1 X119.683 Y98.410 E0.0687
G1 X121.343 Y97.625 E0.0687
G1 X123.113 Y97.140 E0.0687
G1 X124.940 Y96.970 E0.0687
G1 X126.770 Y97.120 E0.0687
G1 X128.546 Y97.584 E0.0687
G1 X130.213 Y98.350 E0.0686
G1 X131.723 Y99.395 E0.0687
G1 X133.029 Y100.685 E0.0687
G1 X134.089 Y102.183 E0.0687
G1 X134.874 Y103.842 E0.0687
G1 X135.359 Y105.613 E0.0687
G1 X135.530 Y107.439 E0.0686
G1 X135.380 Y109.269 E0.0687
G1 X134.915 Y111.045 E0.0687
G1 X134.149 Y112.712 E0.0686
G1 X133.105 Y114.222 E0.0687
G1 X131.815 Y115.528 E0.0687
G1 X130.317 Y116.589 E0.0687
G1 X128.658 Y117.374 E0.0687
G1 X126.887 Y117.859 E0.0687
G1 X125.060 Y118.029 E0.0687
G1 X123.230 Y117.879 E0.0687
G1 X121.455 Y117.415 E0.0686
G1 X119.787 Y116.649 E0.0687
G1 X118.277 Y115.604 E0.0687
G1 X116.972 Y114.314 E0.0687
G1 X115.911 Y112.816 E0.0687
G1 X115.126 Y111.157 E0.0687
G1 X114.641 Y109.386 E0.0687
G1 X114.471 Y107.559 E0.0687
G1 X114.620 Y105.730 E0.0687
G1 X115.085 Y103.954 E0.0687
G1 X115.851 Y102.287 E0.0686
G1 X116.612 Y101.188 E0.0500
G0 F900 X116.896 Y100.777
G0 F6000 X117.265 Y101.034
G1 F900 X118.505 Y99.789 E0.0657
G1 X119.942 Y98.778 E0.0657
G1 X121.534 Y98.032 E0.0658
G1 X123.230 Y97.575 E0.0657
G1 X124.980 Y97.418 E0.0657
G1 X126.732 Y97.568 E0.0658
G1 X128.430 Y98.019 E0.0657
G1 X130.024 Y98.758 E0.0657
G1 X131.466 Y99.764 E0.0658
G1 X132.711 Y101.004 E0.0657
G1 X133.721 Y102.442 E0.0658
G1 X134.467 Y104.033 E0.0658
G1 X134.925 Y105.730 E0.0658
G1 X135.082 Y107.479 E0.0657
G1 X134.932 Y109.231 E0.0658
G1 X134.480 Y110.929 E0.0657
G1 X133.741 Y112.523 E0.0657
G1 X132.736 Y113.965 E0.0658
G1 X131.496 Y115.210 E0.0657
G1 X130.058 Y116.221 E0.0658
G1 X128.467 Y116.967 E0.0658
G1 X126.770 Y117.424 E0.0658
G1 X125.020 Y117.581 E0.0657
G1 X123.268 Y117.431 E0.0658
G1 X121.571 Y116.980 E0.0657
G1 X119.976 Y116.241 E0.0658
G1 X118.535 Y115.235 E0.0658
G1 X117.290 Y113.995 E0.0657
G1 X116.279 Y112.557 E0.0658
G1 X115.533 Y110.966 E0.0658
G1 X115.075 Y109.269 E0.0658
G1 X114.919 Y107.519 E0.0657
G1 X115.068 Y105.768 E0.0658
G1 X115.520 Y104.070 E0.0657
G1 X116.259 Y102.476 E0.0657
G1 X116.979 Y101.444 E0.0471
G0 F900 X117.265 Y101.034
G1 F2700 E-0.5000
G0 F6000 X131.687 Y101.888
;TYPE:WALL-INNER
;WIDTH:0.450
G1 F2400 E0.5000
G1 F1800 X132.559 Y103.136 E0.0570
G1 X133.203 Y104.515 E0.0569
G1 X133.596 Y105.983 E0.0569
G1 X133.728 Y107.499 E0.0569
G1 X133.596 Y109.016 E0.0570
G1 X133.203 Y110.484 E0.0569
G1 X132.559 Y111.863 E0.0569
G1 X131.687 Y113.111 E0.0570
G1 X130.612 Y114.186 E0.0569
G1 X129.364 Y115.059 E0.0570
G1 X127.986 Y115.702 E0.0569
G1 X126.517 Y116.095 E0.0569
G1 X125.000 Y116.227 E0.0570
G1 X123.483 Y116.095 E0.0570
G1 X122.014 Y115.702 E0.0569
G1 X120.636 Y115.059 E0.0569
G1 X119.389 Y114.186 E0.0570
G1 X118.314 Y113.111 E0.0569
G1 X117.441 Y111.863 E0.0570
G1 X116.797 Y110.484 E0.0569
G1 X116.404 Y109.016 E0.0569
G1 X116.273 Y107.499 E0.0570
G1 X116.404 Y105.983 E0.0569
G1 X116.797 Y104.515 E0.0569
G1 X117.441 Y103.136 E0.0569
G1 X118.314 Y101.888 E0.0570
G1 X119.389 Y100.813 E0.0569
G1 X120.636 Y99.940 E0.0570
G1 X122.014 Y99.297 E0.0569
G1 X123.483 Y98.904 E0.0569
G1 X125.000 Y98.772 E0.0570
G1 X126.517 Y98.904 E0.0570
G1 X127.986 Y99.297 E0.0569
G1 X129.364 Y99.940 E0.0569
G1 X130.612 Y100.813 E0.0570
G1 X131.334 Y101.535 E0.0382
G0 F1800 X131.687 Y101.888
G0 F6000 X132.033 Y101.598
G1 F1800 X132.950 Y102.910 E0.0599
G1 X133.627 Y104.360 E0.0599
G1 X134.041 Y105.905 E0.0598
G1 X134.180 Y107.499 E0.0599
G1 X134.041 Y109.094 E0.0599
G1 X133.627 Y110.639 E0.0598
G1 X132.950 Y112.089 E0.0599
G1 X132.033 Y113.401 E0.0599
G1 X130.902 Y114.532 E0.0598
G1 X129.590 Y115.450 E0.0599
G1 X128.140 Y116.127 E0.0599
G1 X126.595 Y116.540 E0.0598
G1 X125.000 Y116.679 E0.0599
G1 X123.405 Y116.540 E0.0599
G1 X121.860 Y116.127 E0.0598
G1 X120.410 Y115.450 E0.0599
G1 X119.099 Y114.532 E0.0599
G1 X117.968 Y113.401 E0.0598
G1 X117.050 Y112.089 E0.0599
G1 X116.373 Y110.639 E0.0599
G1 X115.959 Y109.094 E0.0598
G1 X115.821 Y107.499 E0.0599
G1 X115.959 Y105.905 E0.0599
G1 X116.373 Y104.360 E0.0598
G1 X117.050 Y102.910 E0.0599
G1 X117.968 Y101.598 E0.0599
G1 X119.099 Y100.467 E0.0598
G1 X120.410 Y99.549 E0.0599
G1 X121.860 Y98.872 E0.0599
G1 X123.405 Y98.459 E0.0598
G1 X125.000 Y98.320 E0.0599
G1 X126.595 Y98.459 E0.0599
G1 X128.140 Y98.872 E0.0598
G1 X129.590 Y99.549 E0.0599
G1 X130.902 Y100.467 E0.0599
G1 X131.680 Y101.245 E0.0412
G0 F1800 X132.033 Y101.598
G0 F6000 X132.379 Y101.308
M204 P800.00
;TYPE:WALL-OUTER
;WIDTH:0.450
G1 F1800 X133.341 Y102.684 E0.0628
G1 X134.051 Y104.205 E0.0628
G1 X134.486 Y105.827 E0.0628
G1 X134.632 Y107.499 E0.0628
G1 X134.486 Y109.172 E0.0628
G1 X134.051 Y110.794 E0.0628
G1 X133.341 Y112.315 E0.0628
G1 X132.379 Y113.691 E0.0628
G1 X131.192 Y114.878 E0.0628
G1 X129.816 Y115.841 E0.0628
G1 X128.295 Y116.551 E0.0628
G1 X126.673 Y116.985 E0.0628
G1 X125.000 Y117.131 E0.0628
G1 X123.327 Y116.985 E0.0628
G1 X121.706 Y116.551 E0.0628
G1 X120.184 Y115.841 E0.0628
G1 X118.809 Y114.878 E0.0628
G1 X117.622 Y113.691 E0.0628
G1 X116.659 Y112.315 E0.0628
G1 X115.949 Y110.794 E0.0628
G1 X115.514 Y109.172 E0.0628
G1 X115.369 Y107.499 E0.0628
G1 X115.514 Y105.827 E0.0628
G1 X115.949 Y104.205 E0.0628
G1 X116.659 Y102.684 E0.0628
G1 X117.622 Y101.308 E0.0628
G1 X118.809 Y100.121 E0.0628
G1 X120.184 Y99.158 E0.0628
G1 X121.706 Y98.448 E0.0628
G1 X123.327 Y98.014 E0.0628
G1 X125.000 Y97.868 E0.0628
G1 X126.673 Y98.014 E0.0628
G1 X128.295 Y98.448 E0.0628
G1 X129.816 Y99.158 E0.0628
G1 X131.192 Y100.121 E0.0628
G1 X132.026 Y100.955 E0.0441
G0 F1800 X132.379 Y101.308
G1 F2700 E-0.5000
G0 F6000 X132.302 Y101.373
G0 X131.979 Y101.681
G0 F6000 X131.618 Y102.026
M204 P1500.00
;TYPE:SOLID-FILL
;WIDTH:0.450
G1 F2400 E0.5000
G1 F1800 X130.473 Y100.880 E0.0606
G1 F2700 E-0.5000
G1 F600 Z0.240
G0 F6000 X128.767 Y99.811
G1 F600 Z0.200
G1 F2400 E0.5000
G1 F1800 X132.687 Y103.731 E0.2074
G1 F2700 E-0.5000
G1 F600 Z0.240
G0 F6000 X133.147 Y104.827
G1 F600 Z0.200
G1 F2400 E0.5000
G1 F1800 X127.672 Y99.352 E0.2897
G1 F2700 E-0.5000
G1 F600 Z0.240
G0 F6000 X126.803 Y99.120
G1 F600 Z0.200
G1 F2400 E0.5000
G1 F1800 X133.380 Y105.696 E0.3480
G1 F2700 E-0.5000
G1 F600 Z0.240
G0 F6000 X133.501 Y106.454
G1 F600 Z0.200
G1 F2400 E0.5000
G1 F1800 X126.045 Y98.998 E0.3945
G1 F2700 E-0.5000
G1 F600 Z0.240
G0 F6000 X125.348 Y98.938
G1 F600 Z0.200
G1 F2400 E0.5000
G1 F1800 X133.561 Y107.151 E0.4346
G1 F2700 E-0.5000
G1 F600 Z0.240
G0 F6000 X133.566 Y107.792
G1 F600 Z0.200
G1 F2400 E0.5000
G1 F1800 X124.707 Y98.933 E0.4688
G1 F2700 E-0.5000
G1 F600 Z0.240
G0 F6000 X124.121 Y98.983
G1 F600 Z0.200
G1 F2400 E0.5000
G1 F1800 X133.515 Y108.378 E0.4971
G1 F2700 E-0.5000
G1 F600 Z0.240
G0 F6000 X133.464 Y108.963
G1 F600 Z0.200
G1 F2400 E0.5000
G1 F1800 X123.535 Y99.034 E0.5254
G1 F2700 E-0.5000
G1 F600 Z0.240
G0 F6000 X123.029 Y99.164
G1 F600 Z0.200
G1 F2400 E0.5000
G1 F1800 X133.334 Y109.470 E0.5453
G1 F2700 E-0.5000
G1 F600 Z0.240
G0 F6000 X133.200 Y109.972
G1 F600 Z0.200
G1 F2400 E0.5000
G1 F1800 X122.527 Y99.299 E0.5648
G1 F2700 E-0.5000
G1 F600 Z0.240
G0 F6000 X122.029 Y99.437
G1 F600 Z0.200
G1 F2400 E0.5000
G1 F1800 X133.061 Y110.469 E0.5838
G0 F6000 X132.858 Y110.902
G1 F1800 X121.596 Y99.640 E0.5959
G0 F6000 X121.162 Y99.843
G1 F1800 X132.655 Y111.336 E0.6082
G0 F6000 X132.452 Y111.769
G1 F1800 X120.729 Y100.046 E0.6203
G0 F6000 X120.351 Y100.305
G1 F1800 X132.194 Y112.147 E0.6267
G0 F6000 X131.932 Y112.522
G1 F1800 X119.976 Y100.566 E0.6327
G0 F6000 X119.602 Y100.828
G1 F1800 X131.671 Y112.897 E0.6386
G0 F6000 X131.371 Y113.234
G1 F1800 X119.264 Y101.127 E0.6407
G0 F6000 X118.946 Y101.445
G1 F1800 X131.053 Y113.552 E0.6407
G0 F6000 X130.735 Y113.871
G1 F1800 X118.628 Y101.763 E0.6407
G0 F6000 X118.328 Y102.100
G1 F1800 X130.398 Y114.170 E0.6387
G0 F6000 X130.023 Y114.431
G1 F1800 X118.067 Y102.475 E0.6327
G0 F6000 X117.805 Y102.850
G1 F1800 X129.648 Y114.693 E0.6267
G0 F6000 X129.270 Y114.951
G1 F1800 X117.547 Y103.228 E0.6203
G0 F6000 X117.343 Y103.661
G1 F1800 X128.836 Y115.154 E0.6082
G0 F6000 X128.403 Y115.357
G1 F1800 X117.140 Y104.094 E0.5960
G0 F6000 X116.937 Y104.528
G1 F1800 X127.970 Y115.560 E0.5838
G1 F2700 E-0.5000
G1 F600 Z0.240
G0 F6000 X127.472 Y115.699
G1 F600 Z0.200
G1 F2400 E0.5000
G1 F1800 X116.798 Y105.025 E0.5648
G1 F2700 E-0.5000
G1 F600 Z0.240
G0 F6000 X116.664 Y105.527
G1 F600 Z0.200
G1 F2400 E0.5000
G1 F1800 X126.970 Y115.833 E0.5454
G1 F2700 E-0.5000
G1 F600 Z0.240
G0 F6000 X126.464 Y115.964
G1 F600 Z0.200
G1 F2400 E0.5000
G1 F1800 X116.533 Y106.032 E0.5255
G1 F2700 E-0.5000
G1 F600 Z0.240
G0 F6000 X116.483 Y106.618
G1 F600 Z0.200
G1 F2400 E0.5000
G1 F1800 X125.879 Y116.015 E0.4972
G1 F2700 E-0.5000
G1 F600 Z0.240
G0 F6000 X125.292 Y116.065
G1 F600 Z0.200
G1 F2400 E0.5000
G1 F1800 X116.432 Y107.205 E0.4688
G1 F2700 E-0.5000
G1 F600 Z0.240
G0 F6000 X116.437 Y107.846
G1 F600 Z0.200
G1 F2400 E0.5000
G1 F1800 X124.652 Y116.060 E0.4347
G1 F2700 E-0.5000
G1 F600 Z0.240
G0 F6000 X123.955 Y116.000
G1 F600 Z0.200
G1 F2400 E0.5000
G1 F1800 X116.497 Y108.542 E0.3947
G1 F2700 E-0.5000
G1 F600 Z0.240
G0 F6000 X116.618 Y109.299
G1 F600 Z0.200
G1 F2400 E0.5000
G1 F1800 X123.197 Y115.879 E0.3482
G1 F2700 E-0.5000
G1 F600 Z0.240
G0 F6000 X122.329 Y115.647
G1 F600 Z0.200
G1 F2400 E0.5000
G1 F1800 X116.851 Y110.169 E0.2899
G1 F2700 E-0.5000
G1 F600 Z0.240
G0 F6000 X117.309 Y111.263
G1 F600 Z0.200
G1 F2400 E0.5000
G1 F1800 X121.234 Y115.189 E0.2077
G1 F2700 E-0.5000
G1 F600 Z0.240
G0 F6000 X119.527 Y114.117
G1 F600 Z0.200
G1 F2400 E0.5000
G1 F1800 X118.380 Y112.971 E0.0607
;LAYER:1
;Z:0.400
;HEIGHT:0.200
G1 F2700 E-0.5000
M82
G92 E0.0
;2
M83
G0 F600 Z0.400
G0 F6000 X131.687 Y113.111
M204 P1000.00
;TYPE:WALL-INNER
;WIDTH:0.450
G1 F600 Z0.400
G1 F2400 E0.5000
G1 F2250 X130.612 Y114.186 E0.0569
G1 X129.364 Y115.059 E0.0570
G1 X127.986 Y115.702 E0.0569
G1 X126.517 Y116.095 E0.0569
G1 X125.000 Y116.227 E0.0570
G1 X123.483 Y116.095 E0.0570
G1 X122.014 Y115.702 E0.0569
G1 X120.636 Y115.059 E0.0569
G1 X119.389 Y114.186 E0.0570
G1 X118.314 Y113.111 E0.0569
G1 X117.441 Y111.863 E0.0570
G1 X116.797 Y110.484 E0.0569
G1 X116.404 Y109.016 E0.0569
G1 X116.273 Y107.499 E0.0570
G1 X116.404 Y105.983 E0.0569
G1 X116.797 Y104.515 E0.0569
G1 X117.441 Y103.136 E0.0569
G1 X118.314 Y101.888 E0.0570
G1 X119.389 Y100.813 E0.0569
G1 X120.636 Y99.940 E0.0570
G1 X122.014 Y99.297 E0.0569
G1 X123.483 Y98.904 E0.0569
G1 X125.000 Y98.772 E0.0570
G1 X126.517 Y98.904 E0.0570
G1 X127.986 Y99.297 E0.0569
G1 X129.364 Y99.940 E0.0569
G1 X130.612 Y100.813 E0.0570
G1 X131.687 Y101.888 E0.0569
G1 X132.559 Y103.136 E0.0570
G1 X133.203 Y104.515 E0.0569
G1 X133.596 Y105.983 E0.0569
G1 X133.728 Y107.499 E0.0569
G1 X133.596 Y109.016 E0.0570
G1 X133.203 Y110.484 E0.0569
G1 X132.559 Y111.863 E0.0569
G1 X131.973 Y112.702 E0.0383
G0 F2250 X131.687 Y113.111
G0 F6000 X132.033 Y113.401
G1 F2250 X130.902 Y114.532 E0.0598
G1 X129.590 Y115.450 E0.0599
G1 X128.140 Y116.127 E0.0599
G1 X126.595 Y116.540 E0.0598
G1 X125.000 Y116.679 E0.0599
G1 X123.405 Y116.540 E0.0599
G1 X121.860 Y116.127 E0.0598
G1 X120.410 Y115.450 E0.0599
G1 X119.099 Y114.532 E0.0599
G1 X117.968 Y113.401 E0.0598
G1 X117.050 Y112.089 E0.0599
G1 X116.373 Y110.639 E0.0599
G1 X115.959 Y109.094 E0.0598
G1 X115.821 Y107.499 E0.0599
G1 X115.959 Y105.905 E0.0599
G1 X116.373 Y104.360 E0.0598
G1 X117.050 Y102.910 E0.0599
G1 X117.968 Y101.598 E0.0599
G1 X119.099 Y100.467 E0.0598
G1 X120.410 Y99.549 E0.0599
G1 X121.860 Y98.872 E0.0599
G1 X123.405 Y98.459 E0.0598
G1 X125.000 Y98.320 E0.0599
G1 X126.595 Y98.459 E0.0599
G1 X128.140 Y98.872 E0.0598
G1 X129.590 Y99.549 E0.0599
