; generated by SuperSlicer 2.2.53 on 2020-11-11 at 17:49:59 UTC

; 

; external perimeters extrusion width = 0.44mm
; perimeters extrusion width = 0.44mm
; infill extrusion width = 0.44mm
; solid infill extrusion width = 0.44mm
; top infill extrusion width = 0.40mm
; first layer extrusion width = 0.42mm

; object:{"name":"rohr","id":"rohr.stl id:0 copy 0","object_center":[125.000000,105.000000,0.000000],"boundingbox_center":[125.000000,105.000000,15.000000],"boundingbox_size":[6.564488,6.564488,30.000000]}

M107
; PrusaSlicer Start G-Code:

; Set nozzle and bed to the specific temperatures declared within this slicer
M140 S65              ; set bed temp
M104 S215                  ; set extruder temp
M116                                             ; wait for all temperatures

; Run macro to print primeline at a 'randomized' Y position from -1.1 to -2.9
M98 P"0:/sys/primeLine.g"                        ; primeline macro

; Set pressure advance
M572 D0 S0.07                                    ; set pressure advance
G21 ; set units to millimeters
G90 ; use absolute coordinates
M83 ; use relative distances for extrusion
;BEFORE_LAYER_CHANGE
G92 E0.0
;0.2


G1 E-0.40000 F1800.00000
G1 Z0.600000 F10800.000
;AFTER_LAYER_CHANGE
;0.2
G1 X119.702 Y100.131
G1 Z0.200000
G1 E0.40000 F1800.00000
G1 F1200.000
M204 S1000
G1 X119.955 Y99.829 E0.01271
G1 X121.004 Y98.981 E0.04355
G1 X122.300 Y98.299 E0.04730
G1 X123.544 Y97.924 E0.04198
G1 X125.006 Y97.775 E0.04746
G1 X126.473 Y97.927 E0.04762
G1 X127.748 Y98.318 E0.04308
G1 X129.047 Y99.015 E0.04762
G1 X130.171 Y99.955 E0.04730
G1 X131.019 Y101.004 E0.04355
G1 X131.701 Y102.300 E0.04730
G1 X132.076 Y103.544 E0.04198
G1 X132.225 Y105.001 E0.04730
G1 X132.074 Y106.468 E0.04762
G1 X131.682 Y107.748 E0.04324
G1 X130.985 Y109.047 E0.04762
G1 X130.045 Y110.171 E0.04730
G1 X128.996 Y111.019 E0.04355
G1 X127.700 Y111.701 E0.04730
G1 X126.456 Y112.076 E0.04198
G1 X124.999 Y112.225 E0.04730
G1 X123.532 Y112.074 E0.04762
G1 X122.252 Y111.682 E0.04324
G1 X120.953 Y110.985 E0.04762
G1 X119.829 Y110.045 E0.04730
G1 X118.981 Y108.996 E0.04355
G1 X118.299 Y107.700 E0.04730
G1 X117.924 Y106.456 E0.04198
G1 X117.775 Y104.999 E0.04730
G1 X117.927 Y103.527 E0.04777
G1 X118.318 Y102.252 E0.04308
G1 X119.015 Y100.953 E0.04762
G1 X119.664 Y100.177 E0.03265
G1 X119.952 Y100.418 F10800.000
G1 F1200.000
G1 X120.222 Y100.096 E0.01358
G1 X121.213 Y99.295 E0.04115
G1 X122.445 Y98.647 E0.04497
G1 X123.616 Y98.294 E0.03950
G1 X125.006 Y98.152 E0.04512
G1 X126.396 Y98.296 E0.04512
G1 X127.601 Y98.666 E0.04070
G1 X128.836 Y99.328 E0.04527
G1 X129.904 Y100.222 E0.04497
G1 X130.702 Y101.209 E0.04100
G1 X131.352 Y102.441 E0.04497
G1 X131.706 Y103.616 E0.03965
G1 X131.848 Y105.001 E0.04497
G1 X131.704 Y106.396 E0.04527
G1 X131.334 Y107.601 E0.04070
G1 X130.672 Y108.836 E0.04528
G1 X129.778 Y109.904 E0.04497
G1 X128.791 Y110.702 E0.04100
G1 X127.559 Y111.352 E0.04497
G1 X126.384 Y111.706 E0.03965
G1 X124.999 Y111.848 E0.04497
G1 X123.604 Y111.704 E0.04527
G1 X122.399 Y111.334 E0.04070
G1 X121.164 Y110.672 E0.04528
G1 X120.096 Y109.778 E0.04497
G1 X119.298 Y108.791 E0.04100
G1 X118.648 Y107.559 E0.04497
G1 X118.294 Y106.384 E0.03965
G1 X118.152 Y104.999 E0.04497
G1 X118.296 Y103.604 E0.04527
G1 X118.666 Y102.399 E0.04070
G1 X119.328 Y101.164 E0.04527
G1 X119.913 Y100.464 E0.02946
G1 X120.201 Y100.706 F10800.000
G1 F1200.000
G1 X120.491 Y100.359 E0.01459
G1 X121.418 Y99.611 E0.03846
G1 X122.586 Y98.996 E0.04264
G1 X123.689 Y98.664 E0.03718
G1 X125.006 Y98.529 E0.04278
G1 X126.324 Y98.666 E0.04278
G1 X127.458 Y99.015 E0.03832
G1 X128.629 Y99.643 E0.04292
G1 X129.641 Y100.491 E0.04264
G1 X130.389 Y101.418 E0.03846
G1 X131.004 Y102.586 E0.04264
G1 X131.336 Y103.689 E0.03718
G1 X131.471 Y105.002 E0.04264
G1 X131.334 Y106.324 E0.04292
G1 X130.985 Y107.458 E0.03832
G1 X130.357 Y108.629 E0.04292
G1 X129.512 Y109.638 E0.04249
G1 X128.582 Y110.389 E0.03860
G1 X127.414 Y111.004 E0.04264
G1 X126.311 Y111.336 E0.03718
G1 X124.998 Y111.471 E0.04264
G1 X123.676 Y111.334 E0.04292
G1 X122.542 Y110.985 E0.03832
G1 X121.371 Y110.357 E0.04292
G1 X120.362 Y109.512 E0.04249
G1 X119.611 Y108.582 E0.03860
G1 X118.996 Y107.414 E0.04264
G1 X118.664 Y106.311 E0.03718
G1 X118.529 Y104.998 E0.04264
G1 X118.666 Y103.676 E0.04292
G1 X119.015 Y102.542 E0.03832
G1 X119.643 Y101.371 E0.04292
G1 X120.162 Y100.751 E0.02611
G1 E-0.01200 F1800.00000
G1 F8640.000
G1 X120.491 Y100.359 E-0.10130
G1 X121.418 Y99.611 E-0.23570
G1 X121.559 Y99.537 E-0.03160
G1 E-0.01940 F1800.00000
G1 Z1.200000 F10800.000
G1 X119.010 Y99.721
G1 Z0.200000
G1 E0.40000 F1800.00000
G1 F1200.000
G1 X119.336 Y99.356 E0.01578
G1 X119.554 Y99.143 E0.00984
G1 X120.249 Y98.568 E0.02914
G1 X120.789 Y98.200 E0.02111
G1 X121.053 Y98.046 E0.00989
G1 X121.827 Y97.661 E0.02790
G1 X122.108 Y97.543 E0.00984
G1 X122.967 Y97.266 E0.02914
G1 X123.816 Y97.091 E0.02799
G1 X124.436 Y97.023 E0.02014
G1 X125.353 Y97.010 E0.02962
G1 X125.657 Y97.031 E0.00984
G1 X126.498 Y97.145 E0.02740
G1 X126.793 Y97.206 E0.00973
G1 X127.423 Y97.379 E0.02111
G1 X128.235 Y97.687 E0.02805
G1 X129.007 Y98.080 E0.02796
G1 X129.758 Y98.571 E0.02899
G1 X130.000 Y98.760 E0.00989
G1 X130.644 Y99.336 E0.02790
G1 X130.857 Y99.554 E0.00984
G1 X131.282 Y100.052 E0.02117
G1 X131.800 Y100.789 E0.02908
G1 X131.954 Y101.053 E0.00989
G1 X132.339 Y101.827 E0.02790
G1 X132.457 Y102.108 E0.00984
G1 X132.734 Y102.967 E0.02914
G1 X132.909 Y103.816 E0.02799
G1 X132.990 Y104.678 E0.02796
G1 X132.978 Y105.544 E0.02796
G1 X132.873 Y106.403 E0.02796
G1 X132.733 Y107.041 E0.02108
G1 X132.648 Y107.335 E0.00989
G1 X132.351 Y108.146 E0.02790
G1 X132.227 Y108.425 E0.00984
G1 X131.795 Y109.217 E0.02914
G1 X131.429 Y109.758 E0.02111
G1 X131.240 Y110.000 E0.00989
G1 X130.664 Y110.644 E0.02790
G1 X130.446 Y110.857 E0.00984
G1 X129.948 Y111.282 E0.02117
G1 X129.211 Y111.800 E0.02908
G1 X128.947 Y111.954 E0.00989
G1 X128.173 Y112.339 E0.02790
G1 X127.892 Y112.457 E0.00984
G1 X127.033 Y112.734 E0.02914
G1 X126.184 Y112.909 E0.02799
G1 X125.322 Y112.990 E0.02796
G1 X124.456 Y112.978 E0.02796
G1 X123.597 Y112.873 E0.02796
G1 X122.959 Y112.733 E0.02108
G1 X122.665 Y112.648 E0.00989
G1 X121.854 Y112.351 E0.02790
G1 X121.575 Y112.227 E0.00984
G1 X120.783 Y111.795 E0.02914
G1 X120.242 Y111.429 E0.02111
G1 X120.000 Y111.240 E0.00989
G1 X119.356 Y110.664 E0.02790
G1 X119.143 Y110.446 E0.00984
G1 X118.718 Y109.948 E0.02117
G1 X118.200 Y109.211 E0.02908
G1 X118.046 Y108.947 E0.00989
G1 X117.661 Y108.173 E0.02790
G1 X117.543 Y107.892 E0.00984
G1 X117.333 Y107.271 E0.02117
G1 X117.132 Y106.426 E0.02805
G1 X117.023 Y105.567 E0.02796
G1 X117.009 Y104.701 E0.02796
G1 X117.088 Y103.839 E0.02796
G1 X117.267 Y102.959 E0.02899
G1 X117.352 Y102.665 E0.00989
G1 X117.649 Y101.854 E0.02790
G1 X117.773 Y101.575 E0.00984
G1 X118.078 Y100.995 E0.02117
G1 X118.571 Y100.242 E0.02908
G1 X118.970 Y99.765 E0.02006
G1 X119.251 Y100.017 F10800.000
G1 F1200.000
G1 X119.808 Y99.422 E0.02632
G1 X120.289 Y99.011 E0.02043
G1 X120.991 Y98.519 E0.02767
G1 X121.233 Y98.377 E0.00907
G1 X121.983 Y98.004 E0.02708
G1 X122.241 Y97.896 E0.00902
G1 X122.840 Y97.693 E0.02043
G1 X123.646 Y97.502 E0.02673
G1 X124.466 Y97.399 E0.02672
G1 X125.340 Y97.387 E0.02820
G1 X125.618 Y97.406 E0.00902
G1 X126.434 Y97.517 E0.02659
G1 X126.705 Y97.573 E0.00892
G1 X127.313 Y97.740 E0.02038
G1 X128.087 Y98.034 E0.02672
G1 X128.822 Y98.408 E0.02664
G1 X129.536 Y98.877 E0.02759
G1 X129.758 Y99.049 E0.00907
G1 X130.383 Y99.608 E0.02708
G1 X130.578 Y99.808 E0.00902
G1 X131.126 Y100.469 E0.02773
G1 X131.481 Y100.991 E0.02037
G1 X131.623 Y101.233 E0.00907
G1 X131.996 Y101.983 E0.02708
G1 X132.104 Y102.241 E0.00902
G1 X132.368 Y103.058 E0.02773
G1 X132.535 Y103.867 E0.02667
G1 X132.613 Y104.689 E0.02664
G1 X132.602 Y105.513 E0.02664
G1 X132.502 Y106.332 E0.02664
G1 X132.368 Y106.948 E0.02034
G1 X132.289 Y107.217 E0.00907
G1 X132.001 Y108.005 E0.02708
G1 X131.888 Y108.260 E0.00902
G1 X131.477 Y109.014 E0.02773
G1 X131.123 Y109.536 E0.02037
G1 X130.951 Y109.758 E0.00907
G1 X130.392 Y110.383 E0.02708
G1 X130.192 Y110.578 E0.00902
G1 X129.531 Y111.126 E0.02773
G1 X129.009 Y111.481 E0.02037
G1 X128.767 Y111.623 E0.00907
G1 X128.017 Y111.996 E0.02708
G1 X127.759 Y112.104 E0.00902
G1 X126.942 Y112.368 E0.02773
G1 X126.133 Y112.535 E0.02667
G1 X125.311 Y112.613 E0.02664
G1 X124.487 Y112.602 E0.02664
G1 X123.668 Y112.502 E0.02664
G1 X123.052 Y112.368 E0.02034
G1 X122.783 Y112.289 E0.00907
G1 X121.995 Y112.001 E0.02708
G1 X121.740 Y111.888 E0.00902
G1 X120.986 Y111.477 E0.02773
G1 X120.464 Y111.123 E0.02037
G1 X120.242 Y110.951 E0.00907
G1 X119.617 Y110.392 E0.02708
G1 X119.422 Y110.192 E0.00902
G1 X118.874 Y109.531 E0.02773
G1 X118.519 Y109.009 E0.02037
G1 X118.377 Y108.767 E0.00907
G1 X118.004 Y108.017 E0.02708
G1 X117.896 Y107.759 E0.00902
G1 X117.693 Y107.160 E0.02043
G1 X117.502 Y106.354 E0.02673
G1 X117.399 Y105.536 E0.02664
G1 X117.386 Y104.711 E0.02664
G1 X117.462 Y103.889 E0.02664
G1 X117.632 Y103.052 E0.02759
G1 X117.711 Y102.783 E0.00907
G1 X117.999 Y101.995 E0.02708
G1 X118.112 Y101.740 E0.00902
G1 X118.407 Y101.180 E0.02043
G1 X118.877 Y100.464 E0.02767
G1 X119.211 Y100.061 E0.01689
G1 X119.492 Y100.313 F10800.000
G1 F1200.000
G1 X120.062 Y99.700 E0.02703
G1 X120.526 Y99.305 E0.01969
G1 X121.192 Y98.838 E0.02626
G1 X121.412 Y98.709 E0.00824
G1 X122.140 Y98.347 E0.02625
G1 X122.952 Y98.053 E0.02788
G1 X123.717 Y97.872 E0.02540
G1 X124.497 Y97.775 E0.02539
G1 X125.327 Y97.764 E0.02679
G1 X125.580 Y97.781 E0.00820
G1 X126.371 Y97.889 E0.02577
G1 X127.203 Y98.101 E0.02774
G1 X127.938 Y98.380 E0.02540
G1 X128.637 Y98.737 E0.02533
G1 X129.315 Y99.182 E0.02619
G1 X129.516 Y99.339 E0.00824
G1 X130.122 Y99.881 E0.02625
G1 X130.300 Y100.062 E0.00820
G1 X130.820 Y100.690 E0.02633
G1 X131.291 Y101.412 E0.02785
G1 X131.653 Y102.140 E0.02625
G1 X131.751 Y102.375 E0.00820
G1 X132.002 Y103.150 E0.02633
G1 X132.161 Y103.919 E0.02535
G1 X132.236 Y104.699 E0.02533
G1 X132.226 Y105.483 E0.02532
G1 X132.132 Y106.262 E0.02533
G1 X132.002 Y106.855 E0.01960
G1 X131.931 Y107.100 E0.00824
G1 X131.652 Y107.863 E0.02625
G1 X131.548 Y108.096 E0.00820
G1 X131.158 Y108.811 E0.02633
G1 X130.661 Y109.516 E0.02785
G1 X130.119 Y110.122 E0.02625
G1 X129.938 Y110.300 E0.00820
G1 X129.310 Y110.820 E0.02633
G1 X128.588 Y111.291 E0.02785
G1 X127.860 Y111.653 E0.02625
G1 X127.625 Y111.751 E0.00820
G1 X126.850 Y112.002 E0.02633
G1 X126.081 Y112.161 E0.02535
G1 X125.301 Y112.236 E0.02533
G1 X124.517 Y112.226 E0.02532
G1 X123.738 Y112.132 E0.02533
G1 X123.145 Y112.002 E0.01960
G1 X122.900 Y111.931 E0.00824
G1 X122.137 Y111.652 E0.02625
G1 X121.904 Y111.548 E0.00820
G1 X121.189 Y111.158 E0.02633
G1 X120.484 Y110.661 E0.02785
G1 X119.878 Y110.119 E0.02625
G1 X119.700 Y109.938 E0.00820
G1 X119.180 Y109.310 E0.02633
G1 X118.709 Y108.588 E0.02785
G1 X118.347 Y107.860 E0.02625
G1 X118.053 Y107.048 E0.02788
G1 X117.872 Y106.283 E0.02540
G1 X117.775 Y105.505 E0.02533
G1 X117.763 Y104.721 E0.02532
G1 X117.836 Y103.940 E0.02533
G1 X117.998 Y103.145 E0.02619
G1 X118.069 Y102.900 E0.00824
G1 X118.348 Y102.137 E0.02625
G1 X118.736 Y101.365 E0.02788
G1 X119.182 Y100.685 E0.02626
G1 X119.452 Y100.358 E0.01371
G1 X119.733 Y100.609 F10800.000
G1 F1200.000
G1 X120.153 Y100.139 E0.02037
G1 X120.763 Y99.598 E0.02631
G1 X121.394 Y99.157 E0.02485
G1 X121.592 Y99.041 E0.00742
G1 X122.297 Y98.690 E0.02543
G1 X123.063 Y98.414 E0.02631
G1 X123.789 Y98.243 E0.02407
G1 X124.528 Y98.151 E0.02407
G1 X125.314 Y98.141 E0.02537
G1 X125.542 Y98.157 E0.00738
G1 X126.307 Y98.261 E0.02496
G1 X127.093 Y98.462 E0.02619
G1 X127.790 Y98.727 E0.02407
G1 X128.452 Y99.066 E0.02401
G1 X129.093 Y99.487 E0.02479
G1 X129.274 Y99.628 E0.00742
G1 X130.021 Y100.317 E0.03280
G1 X130.514 Y100.910 E0.02492
G1 X130.959 Y101.592 E0.02629
G1 X131.398 Y102.508 E0.03280
G1 X131.636 Y103.242 E0.02492
G1 X131.787 Y103.970 E0.02403
G1 X131.859 Y104.710 E0.02401
G1 X131.850 Y105.453 E0.02401
G1 X131.761 Y106.191 E0.02401
G1 X131.636 Y106.762 E0.01886
G1 X131.572 Y106.982 E0.00742
G1 X131.209 Y107.931 E0.03280
G1 X130.840 Y108.609 E0.02492
G1 X130.372 Y109.274 E0.02629
G1 X129.683 Y110.021 E0.03280
G1 X129.090 Y110.514 E0.02492
G1 X128.408 Y110.959 E0.02629
G1 X127.492 Y111.398 E0.03280
G1 X126.758 Y111.636 E0.02492
G1 X126.030 Y111.787 E0.02403
G1 X125.290 Y111.859 E0.02401
G1 X124.547 Y111.850 E0.02401
G1 X123.809 Y111.761 E0.02401
G1 X123.238 Y111.636 E0.01886
G1 X123.018 Y111.572 E0.00742
G1 X122.069 Y111.209 E0.03280
G1 X121.391 Y110.840 E0.02492
G1 X120.726 Y110.372 E0.02629
G1 X119.979 Y109.683 E0.03280
G1 X119.486 Y109.090 E0.02492
G1 X119.041 Y108.408 E0.02629
G1 X118.690 Y107.703 E0.02543
G1 X118.414 Y106.937 E0.02631
G1 X118.243 Y106.211 E0.02407
G1 X118.151 Y105.474 E0.02401
G1 X118.140 Y104.730 E0.02401
G1 X118.210 Y103.990 E0.02401
G1 X118.364 Y103.238 E0.02479
G1 X118.428 Y103.018 E0.00742
G1 X118.698 Y102.278 E0.02543
G1 X119.065 Y101.550 E0.02631
G1 X119.487 Y100.907 E0.02485
G1 X119.693 Y100.654 E0.01054
G1 X119.974 Y100.905 F10800.000
G1 F1200.000
G1 X120.426 Y100.400 E0.02189
G1 X121.000 Y99.892 E0.02475
G1 X121.595 Y99.476 E0.02345
G1 X121.771 Y99.373 E0.00659
G1 X122.454 Y99.033 E0.02461
G1 X123.175 Y98.774 E0.02475
G1 X123.860 Y98.613 E0.02275
G1 X124.559 Y98.527 E0.02274
G1 X125.301 Y98.518 E0.02395
G1 X125.503 Y98.532 E0.00656
G1 X126.244 Y98.633 E0.02414
G1 X126.983 Y98.823 E0.02464
G1 X127.641 Y99.074 E0.02275
G1 X128.266 Y99.394 E0.02269
G1 X128.871 Y99.792 E0.02339
G1 X129.032 Y99.918 E0.00659
G1 X129.742 Y100.571 E0.03116
G1 X130.208 Y101.131 E0.02351
G1 X130.627 Y101.771 E0.02472
G1 X131.045 Y102.641 E0.03116
G1 X131.270 Y103.333 E0.02351
G1 X131.414 Y104.022 E0.02271
G1 X131.482 Y104.721 E0.02269
G1 X131.474 Y105.423 E0.02269
G1 X131.390 Y106.121 E0.02269
G1 X131.271 Y106.669 E0.01811
G1 X131.214 Y106.865 E0.00659
G1 X130.869 Y107.766 E0.03116
G1 X130.522 Y108.406 E0.02351
G1 X130.082 Y109.032 E0.02472
G1 X129.429 Y109.742 E0.03116
G1 X128.869 Y110.208 E0.02351
G1 X128.229 Y110.627 E0.02472
G1 X127.359 Y111.045 E0.03116
G1 X126.667 Y111.270 E0.02351
G1 X125.978 Y111.414 E0.02271
G1 X125.279 Y111.482 E0.02269
G1 X124.577 Y111.474 E0.02269
G1 X123.879 Y111.390 E0.02269
G1 X123.331 Y111.271 E0.01811
G1 X123.135 Y111.214 E0.00660
G1 X122.234 Y110.869 E0.03116
G1 X121.594 Y110.522 E0.02351
G1 X120.968 Y110.082 E0.02472
G1 X120.258 Y109.429 E0.03116
G1 X119.792 Y108.869 E0.02351
G1 X119.373 Y108.229 E0.02472
G1 X118.955 Y107.359 E0.03116
G1 X118.730 Y106.667 E0.02351
G1 X118.586 Y105.978 E0.02271
G1 X118.518 Y105.279 E0.02269
G1 X118.526 Y104.577 E0.02269
G1 X118.610 Y103.879 E0.02269
G1 X118.729 Y103.331 E0.01811
G1 X118.786 Y103.135 E0.00659
G1 X119.131 Y102.234 E0.03116
G1 X119.478 Y101.594 E0.02351
G1 X119.934 Y100.950 E0.02549
G1 X120.208 Y101.210 F10800.000
G1 F1200.000
G1 X120.826 Y100.536 E0.02952
G1 X121.351 Y100.098 E0.02211
G1 X121.951 Y99.705 E0.02315
G1 X122.774 Y99.308 E0.02952
G1 X123.425 Y99.096 E0.02211
G1 X124.073 Y98.960 E0.02139
G1 X124.736 Y98.895 E0.02151
G1 X125.288 Y98.895 E0.01782
G1 X126.353 Y99.040 E0.03472
G1 X126.873 Y99.183 E0.01742
G1 X127.493 Y99.421 E0.02142
G1 X128.081 Y99.723 E0.02137
G1 X128.650 Y100.098 E0.02199
G1 X129.464 Y100.826 E0.03527
G1 X129.815 Y101.237 E0.01746
G1 X130.205 Y101.797 E0.02204
G1 X130.692 Y102.774 E0.03527
G1 X130.904 Y103.425 E0.02211
G1 X131.040 Y104.073 E0.02139
G1 X131.105 Y104.732 E0.02137
G1 X131.098 Y105.393 E0.02137
G1 X131.020 Y106.050 E0.02137
G1 X130.905 Y106.576 E0.01737
G1 X130.530 Y107.602 E0.03527
G1 X130.278 Y108.080 E0.01746
G1 X129.902 Y108.650 E0.02204
G1 X129.174 Y109.464 E0.03527
G1 X128.763 Y109.815 E0.01746
G1 X128.203 Y110.205 E0.02204
G1 X127.226 Y110.692 E0.03527
G1 X126.575 Y110.904 E0.02211
G1 X125.927 Y111.040 E0.02139
G1 X125.268 Y111.105 E0.02137
G1 X124.607 Y111.098 E0.02137
G1 X123.950 Y111.020 E0.02137
G1 X123.424 Y110.905 E0.01737
G1 X122.398 Y110.530 E0.03527
G1 X121.920 Y110.278 E0.01746
G1 X121.350 Y109.902 E0.02204
G1 X120.536 Y109.174 E0.03527
G1 X120.185 Y108.763 E0.01746
