;Sliced by ideaMaker 3.5.3.4250, 2020-11-19 19:41:44 UTC+0100
;Dimension: 250.000 215.000 205.000 0.400
;Plate Shape: 0
;Extruder Offset #1: 25.000 0.000
;Filament Diameter #1: 1.750
;Filament Diameter #2: 1.750
;Filament Compensation #1: 94.00
;Filament Compensation #2: 94.00
;Filament Density #1: 1240.00
;Filament Density #2: 1240.00
;Bounding Box: 112.775 137.225 95.275 119.725 0.000 19.950
;Model Gap: 0.000
M92 E830.00000
M221 T0 S94.00
; ideaMaker Start G-Code
; Layer height=0.1200 ; Pass layer height information to DWC
; Set nozzle and bed to the specific temperatures declared within this slicer
M140 S60 ; set bed temp
M104 S210 ; set extruder temp
M116 ; wait for all temperatures
; Run macro to print primeline at a 'randomized' Y position from -1.1 to -2.9
M98 P"0:/sys/primeLine.g" ; primeline macro
; Set pressure advance
M572 D0 S0.02 ; set pressure advance
;end of Start GCode
M83
;LAYER:0
;Z:0.150
;HEIGHT:0.150
M106 S0
G1 F2700 E-0.5000
M204 T1250.00
M566 X480.00 Y480.00
M82
G92 E0.0
;1
M83
G0 F6000 X112.887 Y95.780
G0 F600 Z0.150
G0 F6000 X113.268 Y96.103
M204 P1000.00
;TYPE:SKIRT
;WIDTH:0.450
G1 F2400 E0.5000
G1 F900 X114.168 Y95.436 E0.0314
G1 X115.000 Y95.275 E0.0238
G1 X135.343 Y95.307 E0.5709
G1 X136.051 Y95.557 E0.0211
G1 X136.636 Y96.029 E0.0211
G1 X137.031 Y96.668 E0.0211
G1 X137.192 Y97.496 E0.0237
G1 X137.225 Y117.403 E0.5587
G1 X137.099 Y118.144 E0.0211
G1 X136.734 Y118.801 E0.0211
G1 X135.835 Y119.469 E0.0314
G1 X135.010 Y119.632 E0.0236
G1 X115.010 Y119.725 E0.5613
G1 X114.269 Y119.602 E0.0211
G1 X113.611 Y119.239 E0.0211
G1 X112.940 Y118.342 E0.0314
G1 X112.775 Y117.500 E0.0241
G1 X112.775 Y97.500 E0.5613
G1 X112.902 Y96.759 E0.0211
G1 X113.025 Y96.539 E0.0071
G0 F900 X113.268 Y96.103
G1 F2700 E-0.5000
G0 F6000 X116.125 Y98.625
;TYPE:WALL-INNER
;WIDTH:0.450
G1 F2400 E0.5000
G1 F1800 X133.844 Y98.625 E0.4973
G1 X133.873 Y116.287 E0.4957
G1 X116.125 Y116.370 E0.4981
G1 X116.125 Y99.125 E0.4840
G0 F1800 X116.125 Y98.625
G1 F2700 E-0.5000
G0 F6000 X115.675 Y98.175
G1 F2400 E0.5000
G1 F1800 X134.293 Y98.175 E0.5225
G1 X134.324 Y116.735 E0.5209
G1 X115.675 Y116.822 E0.5234
G1 X115.675 Y98.675 E0.5093
G0 F1800 X115.675 Y98.175
G1 F2700 E-0.5000
G0 F6000 X115.574 Y98.048
G0 F6000 X115.325 Y97.735
G0 F6000 X115.225 Y97.725
M204 P800.00
;TYPE:WALL-OUTER
;WIDTH:0.450
G1 F2400 E0.5000
G1 F1800 X134.742 Y97.725 E0.5477
G1 X134.775 Y117.183 E0.5461
G1 X115.225 Y117.274 E0.5486
G1 X115.225 Y98.225 E0.5346
G0 F1800 X115.225 Y97.725
G1 F2700 E-0.5000
G0 F6000 X115.325 Y97.735
G0 X116.234 Y115.442
G0 F6000 X116.259 Y115.941
M204 P1500.00
;TYPE:SOLID-FILL
;WIDTH:0.450
G1 F2400 E0.5000
G1 F1800 X116.550 Y116.232 E0.0115
G0 F6000 X117.183 Y116.229
G1 F1800 X116.259 Y115.305 E0.0367
G1 F2700 E-0.5000
G1 F600 Z0.190
G0 F6000 X116.259 Y114.668
G1 F600 Z0.150
G1 F2400 E0.5000
G1 F1800 X117.817 Y116.226 E0.0618
G1 F2700 E-0.5000
G1 F600 Z0.190
G0 F6000 X118.450 Y116.223
G1 F600 Z0.150
G1 F2400 E0.5000
G1 F1800 X116.259 Y114.032 E0.0870
G1 F2700 E-0.5000
G1 F600 Z0.190
G0 F6000 X116.259 Y113.395
G1 F600 Z0.150
G1 F2400 E0.5000
G1 F1800 X119.084 Y116.220 E0.1121
G1 F2700 E-0.5000
G1 F600 Z0.190
G0 F6000 X119.718 Y116.217
G1 F600 Z0.150
G1 F2400 E0.5000
G1 F1800 X116.259 Y112.759 E0.1373
G1 F2700 E-0.5000
G1 F600 Z0.190
G0 F6000 X116.259 Y112.123
G1 F600 Z0.150
G1 F2400 E0.5000
G1 F1800 X120.351 Y116.215 E0.1624
G1 F2700 E-0.5000
G1 F600 Z0.190
G0 F6000 X120.984 Y116.211
G1 F600 Z0.150
G1 F2400 E0.5000
G1 F1800 X116.259 Y111.486 E0.1875
G1 F2700 E-0.5000
G1 F600 Z0.190
G0 F6000 X116.259 Y110.850
G1 F600 Z0.150
G1 F2400 E0.5000
G1 F1800 X121.618 Y116.208 E0.2127
G1 F2700 E-0.5000
G1 F600 Z0.190
G0 F6000 X122.251 Y116.205
G1 F600 Z0.150
G1 F2400 E0.5000
G1 F1800 X116.259 Y110.213 E0.2378
G1 F2700 E-0.5000
G1 F600 Z0.190
G0 F6000 X116.259 Y109.577
G1 F600 Z0.150
G1 F2400 E0.5000
G1 F1800 X122.885 Y116.203 E0.2630
G1 F2700 E-0.5000
G1 F600 Z0.190
G0 F6000 X123.518 Y116.200
G1 F600 Z0.150
G1 F2400 E0.5000
G1 F1800 X116.259 Y108.941 E0.2881
G1 F2700 E-0.5000
G1 F600 Z0.190
G0 F6000 X116.259 Y108.304
G1 F600 Z0.150
G1 F2400 E0.5000
G1 F1800 X124.152 Y116.197 E0.3133
G1 F2700 E-0.5000
G1 F600 Z0.190
G0 F6000 X124.785 Y116.193
G1 F600 Z0.150
G1 F2400 E0.5000
G1 F1800 X116.259 Y107.668 E0.3384
G1 F2700 E-0.5000
G1 F600 Z0.190
G0 F6000 X116.259 Y107.031
G1 F600 Z0.150
G1 F2400 E0.5000
G1 F1800 X125.418 Y116.191 E0.3635
G1 F2700 E-0.5000
G1 F600 Z0.190
G0 F6000 X126.052 Y116.188
G1 F600 Z0.150
G1 F2400 E0.5000
G1 F1800 X116.259 Y106.395 E0.3887
G1 F2700 E-0.5000
G1 F600 Z0.190
G0 F6000 X116.259 Y105.759
G1 F600 Z0.150
G1 F2400 E0.5000
G1 F1800 X126.685 Y116.185 E0.4138
G1 F2700 E-0.5000
G1 F600 Z0.190
G0 F6000 X127.319 Y116.182
G1 F600 Z0.150
G1 F2400 E0.5000
G1 F1800 X116.259 Y105.122 E0.4389
G1 F2700 E-0.5000
G1 F600 Z0.190
G0 F6000 X116.259 Y104.486
G1 F600 Z0.150
G1 F2400 E0.5000
G1 F1800 X127.953 Y116.179 E0.4641
G1 F2700 E-0.5000
G1 F600 Z0.190
G0 F6000 X128.585 Y116.176
G1 F600 Z0.150
G1 F2400 E0.5000
G1 F1800 X116.259 Y103.849 E0.4892
G1 F2700 E-0.5000
G1 F600 Z0.190
G0 F6000 X116.259 Y103.213
G1 F600 Z0.150
G1 F2400 E0.5000
G1 F1800 X129.219 Y116.173 E0.5143
G1 F2700 E-0.5000
G1 F600 Z0.190
G0 F6000 X129.853 Y116.170
G1 F600 Z0.150
G1 F2400 E0.5000
G1 F1800 X116.259 Y102.577 E0.5395
G1 F2700 E-0.5000
G1 F600 Z0.190
G0 F6000 X116.259 Y101.940
G1 F600 Z0.150
G1 F2400 E0.5000
G1 F1800 X130.486 Y116.167 E0.5646
G1 F2700 E-0.5000
G1 F600 Z0.190
G0 F6000 X131.120 Y116.164
G1 F600 Z0.150
G1 F2400 E0.5000
G1 F1800 X116.259 Y101.304 E0.5898
G1 F2700 E-0.5000
G1 F600 Z0.190
G0 F6000 X116.259 Y100.667
G1 F600 Z0.150
G1 F2400 E0.5000
G1 F1800 X131.753 Y116.162 E0.6149
G1 F2700 E-0.5000
G1 F600 Z0.190
G0 F6000 X132.386 Y116.158
G1 F600 Z0.150
G1 F2400 E0.5000
G1 F1800 X116.259 Y100.031 E0.6400
G1 F2700 E-0.5000
G1 F600 Z0.190
G0 F6000 X116.259 Y99.395
G1 F600 Z0.150
G1 F2400 E0.5000
G1 F1800 X133.020 Y116.155 E0.6652
G1 F2700 E-0.5000
G1 F600 Z0.190
G0 F6000 X133.653 Y116.152
G1 F600 Z0.150
G1 F2400 E0.5000
G1 F1800 X116.261 Y98.760 E0.6902
G1 F2700 E-0.5000
G1 F600 Z0.190
G0 F6000 X116.897 Y98.760
G1 F600 Z0.150
G1 F2400 E0.5000
G1 F1800 X133.736 Y115.599 E0.6683
G1 F2700 E-0.5000
G1 F600 Z0.190
G0 F6000 X133.735 Y114.962
G1 F600 Z0.150
G1 F2400 E0.5000
G1 F1800 X117.533 Y98.760 E0.6430
G1 F2700 E-0.5000
G1 F600 Z0.190
G0 F6000 X118.170 Y98.760
G1 F600 Z0.150
G1 F2400 E0.5000
G1 F1800 X133.734 Y114.324 E0.6177
G1 F2700 E-0.5000
G1 F600 Z0.190
G0 F6000 X133.733 Y113.687
G1 F600 Z0.150
G1 F2400 E0.5000
G1 F1800 X118.806 Y98.760 E0.5924
G1 F2700 E-0.5000
G1 F600 Z0.190
G0 F6000 X119.443 Y98.760
G1 F600 Z0.150
G1 F2400 E0.5000
G1 F1800 X133.732 Y113.049 E0.5671
G1 F2700 E-0.5000
G1 F600 Z0.190
G0 F6000 X133.731 Y112.412
G1 F600 Z0.150
G1 F2400 E0.5000
G1 F1800 X120.079 Y98.760 E0.5418
G1 F2700 E-0.5000
G1 F600 Z0.190
G0 F6000 X120.715 Y98.760
G1 F600 Z0.150
G1 F2400 E0.5000
G1 F1800 X133.730 Y111.774 E0.5165
G1 F2700 E-0.5000
G1 F600 Z0.190
G0 F6000 X133.729 Y111.137
G1 F600 Z0.150
G1 F2400 E0.5000
G1 F1800 X121.352 Y98.760 E0.4912
G1 F2700 E-0.5000
G1 F600 Z0.190
G0 F6000 X121.988 Y98.760
G1 F600 Z0.150
G1 F2400 E0.5000
G1 F1800 X133.728 Y110.499 E0.4659
G1 F2700 E-0.5000
G1 F600 Z0.190
G0 F6000 X133.727 Y109.862
G1 F600 Z0.150
G1 F2400 E0.5000
G1 F1800 X122.625 Y98.760 E0.4406
G1 F2700 E-0.5000
G1 F600 Z0.190
G0 F6000 X123.261 Y98.760
G1 F600 Z0.150
G1 F2400 E0.5000
G1 F1800 X133.725 Y109.224 E0.4153
G1 F2700 E-0.5000
G1 F600 Z0.190
G0 F6000 X133.725 Y108.587
G1 F600 Z0.150
G1 F2400 E0.5000
G1 F1800 X123.897 Y98.760 E0.3900
G1 F2700 E-0.5000
G1 F600 Z0.190
G0 F6000 X124.534 Y98.760
G1 F600 Z0.150
G1 F2400 E0.5000
G1 F1800 X133.723 Y107.949 E0.3647
G1 F2700 E-0.5000
G1 F600 Z0.190
G0 F6000 X133.723 Y107.312
G1 F600 Z0.150
G1 F2400 E0.5000
G1 F1800 X125.170 Y98.760 E0.3394
G1 F2700 E-0.5000
G1 F600 Z0.190
G0 F6000 X125.807 Y98.760
G1 F600 Z0.150
G1 F2400 E0.5000
G1 F1800 X133.721 Y106.674 E0.3141
G1 F2700 E-0.5000
G1 F600 Z0.190
G0 F6000 X133.720 Y106.037
G1 F600 Z0.150
G1 F2400 E0.5000
G1 F1800 X126.443 Y98.760 E0.2888
G1 F2700 E-0.5000
G1 F600 Z0.190
G0 F6000 X127.079 Y98.760
G1 F600 Z0.150
G1 F2400 E0.5000
G1 F1800 X133.719 Y105.399 E0.2635
G1 F2700 E-0.5000
G1 F600 Z0.190
G0 F6000 X133.718 Y104.762
G1 F600 Z0.150
G1 F2400 E0.5000
G1 F1800 X127.716 Y98.760 E0.2382
G1 F2700 E-0.5000
G1 F600 Z0.190
G0 F6000 X128.352 Y98.760
G1 F600 Z0.150
G1 F2400 E0.5000
G1 F1800 X133.717 Y104.125 E0.2129
G1 F2700 E-0.5000
G1 F600 Z0.190
G0 F6000 X133.716 Y103.487
G1 F600 Z0.150
G1 F2400 E0.5000
G1 F1800 X128.989 Y98.760 E0.1876
G1 F2700 E-0.5000
G1 F600 Z0.190
G0 F6000 X129.625 Y98.760
G1 F600 Z0.150
G1 F2400 E0.5000
G1 F1800 X133.715 Y102.850 E0.1623
G1 F2700 E-0.5000
G1 F600 Z0.190
G0 F6000 X133.714 Y102.212
G1 F600 Z0.150
G1 F2400 E0.5000
G1 F1800 X130.261 Y98.760 E0.1370
G1 F2700 E-0.5000
G1 F600 Z0.190
G0 F6000 X130.898 Y98.760
G1 F600 Z0.150
G1 F2400 E0.5000
G1 F1800 X133.713 Y101.575 E0.1117
G1 F2700 E-0.5000
G1 F600 Z0.190
G0 F6000 X133.712 Y100.938
G1 F600 Z0.150
G1 F2400 E0.5000
G1 F1800 X131.534 Y98.760 E0.0864
G1 F2700 E-0.5000
G1 F600 Z0.190
G0 F6000 X132.170 Y98.760
G1 F600 Z0.150
G1 F2400 E0.5000
G1 F1800 X133.711 Y100.300 E0.0611
G1 F2700 E-0.5000
G1 F600 Z0.190
G0 F6000 X133.710 Y99.663
G1 F600 Z0.150
G1 F2400 E0.5000
G1 F1800 X132.807 Y98.760 E0.0358
G1 F2700 E-0.5000
G1 F600 Z0.190
G0 F6000 X133.443 Y98.760
G1 F600 Z0.150
G1 F2400 E0.5000
G1 F1800 X133.708 Y99.025 E0.0105
;LAYER:1
;Z:0.270
;HEIGHT:0.120
G1 F2700 E-0.5000
M82
G92 E0.0
;2
M83
G0 F600 Z0.270
G0 F6000 X133.870 Y116.306
M204 P1000.00
;TYPE:WALL-INNER
;WIDTH:0.450
G1 F600 Z0.270
G1 F2400 E0.5000
G1 F2250 X116.125 Y116.370 E0.3984
G1 X116.125 Y98.625 E0.3984
G1 X133.803 Y98.625 E0.3969
G1 X133.869 Y115.806 E0.3857
G0 F2250 X133.870 Y116.306
G1 F2700 E-0.5000
G0 F6000 X134.322 Y116.754
G1 F600 Z0.270
G1 F2400 E0.5000
G1 F2250 X115.675 Y116.822 E0.4186
G1 X115.675 Y98.175 E0.4186
G1 X134.251 Y98.175 E0.4170
G1 X134.321 Y116.254 E0.4059
G0 F2250 X134.322 Y116.754
G1 F2700 E-0.5000
G0 F6000 X134.450 Y116.855
G0 F6000 X134.764 Y117.102
G0 F6000 X134.774 Y117.202
M204 P800.00
;TYPE:WALL-OUTER
;WIDTH:0.450
G1 F600 Z0.270
G1 F2400 E0.5000
G1 F1800 X115.225 Y117.274 E0.4389
G1 X115.225 Y97.725 E0.4389
G1 X134.699 Y97.725 E0.4372
G1 X134.773 Y116.702 E0.4260
G0 F1800 X134.774 Y117.202
G1 F2700 E-0.5000
G0 F6000 X134.764 Y117.102
G0 X134.082 Y116.408
G0 F6000 X133.732 Y116.052
M204 P1500.00
;TYPE:SOLID-FILL
;WIDTH:0.450
G1 F600 Z0.270
G1 F2400 E0.5000
G1 F1950 X133.612 Y116.172 E0.0038
G0 F6000 X132.974 Y116.174
G1 F1950 X133.730 Y115.418 E0.0240
G1 F2700 E-0.5000
G0 F6000 X133.728 Y114.784
G1 F600 Z0.270
G1 F2400 E0.5000
G1 F1950 X132.335 Y116.177 E0.0442
G1 F2700 E-0.5000
G0 F6000 X131.696 Y116.179
G1 F600 Z0.270
G1 F2400 E0.5000
G1 F1950 X133.725 Y114.150 E0.0644
G1 F2700 E-0.5000
G0 F6000 X133.723 Y113.516
G1 F600 Z0.270
G1 F2400 E0.5000
G1 F1950 X131.057 Y116.181 E0.0846
G1 F2700 E-0.5000
G0 F6000 X130.419 Y116.184
G1 F600 Z0.270
G1 F2400 E0.5000
G1 F1950 X133.720 Y112.882 E0.1048
G1 F2700 E-0.5000
G0 F6000 X133.718 Y112.248
G1 F600 Z0.270
G1 F2400 E0.5000
G1 F1950 X129.780 Y116.186 E0.1250
G1 F2700 E-0.5000
G0 F6000 X129.141 Y116.188
G1 F600 Z0.270
G1 F2400 E0.5000
G1 F1950 X133.716 Y111.614 E0.1452
G1 F2700 E-0.5000
G0 F6000 X133.713 Y110.980
G1 F600 Z0.270
G1 F2400 E0.5000
G1 F1950 X128.503 Y116.191 E0.1654
G1 F2700 E-0.5000
G0 F6000 X127.864 Y116.193
G1 F600 Z0.270
G1 F2400 E0.5000
G1 F1950 X133.711 Y110.346 E0.1856
G1 F2700 E-0.5000
G0 F6000 X133.708 Y109.712
G1 F600 Z0.270
G1 F2400 E0.5000
G1 F1950 X127.226 Y116.195 E0.2058
G1 F2700 E-0.5000
G0 F6000 X126.587 Y116.197
G1 F600 Z0.270
G1 F2400 E0.5000
G1 F1950 X133.706 Y109.078 E0.2260
G1 F2700 E-0.5000
G0 F6000 X133.704 Y108.444
G1 F600 Z0.270
G1 F2400 E0.5000
G1 F1950 X125.948 Y116.200 E0.2463
G1 F2700 E-0.5000
G0 F6000 X125.309 Y116.202
G1 F600 Z0.270
G1 F2400 E0.5000
G1 F1950 X133.701 Y107.810 E0.2664
G1 F2700 E-0.5000
G0 F6000 X133.699 Y107.176
G1 F600 Z0.270
G1 F2400 E0.5000
G1 F1950 X124.671 Y116.204 E0.2866
G1 F2700 E-0.5000
G0 F6000 X124.032 Y116.206
G1 F600 Z0.270
G1 F2400 E0.5000
G1 F1950 X133.697 Y106.541 E0.3069
G1 F2700 E-0.5000
G0 F6000 X133.694 Y105.908
G1 F600 Z0.270
G1 F2400 E0.5000
G1 F1950 X123.393 Y116.209 E0.3271
G1 F2700 E-0.5000
G0 F6000 X122.755 Y116.211
G1 F600 Z0.270
G1 F2400 E0.5000
G1 F1950 X133.692 Y105.274 E0.3472
G1 F2700 E-0.5000
G0 F6000 X133.690 Y104.639
G1 F600 Z0.270
G1 F2400 E0.5000
G1 F1950 X122.116 Y116.213 E0.3675
G1 F2700 E-0.5000
G0 F6000 X121.478 Y116.215
G1 F600 Z0.270
G1 F2400 E0.5000
G1 F1950 X133.687 Y104.006 E0.3876
G1 F2700 E-0.5000
G0 F6000 X133.685 Y103.371
G1 F600 Z0.270
G1 F2400 E0.5000
G1 F1950 X120.839 Y116.217 E0.4079
G1 F2700 E-0.5000
G0 F6000 X120.200 Y116.220
G1 F600 Z0.270
G1 F2400 E0.5000
G1 F1950 X133.683 Y102.737 E0.4281
G1 F2700 E-0.5000
G0 F6000 X133.680 Y102.104
G1 F600 Z0.270
G1 F2400 E0.5000
G1 F1950 X119.561 Y116.222 E0.4483
G1 F2700 E-0.5000
G0 F6000 X118.923 Y116.225
G1 F600 Z0.270
G1 F2400 E0.5000
G1 F1950 X133.678 Y101.469 E0.4685
G1 F2700 E-0.5000
G0 F6000 X133.675 Y100.836
G1 F600 Z0.270
G1 F2400 E0.5000
G1 F1950 X118.284 Y116.227 E0.4887
G1 F2700 E-0.5000
G0 F6000 X117.645 Y116.229
G1 F600 Z0.270
G1 F2400 E0.5000
G1 F1950 X133.673 Y100.201 E0.5089
G1 F2700 E-0.5000
G0 F6000 X133.671 Y99.567
G1 F600 Z0.270
G1 F2400 E0.5000
G1 F1950 X117.007 Y116.232 E0.5291
G1 F2700 E-0.5000
G0 F6000 X116.368 Y116.234
G1 F600 Z0.270
G1 F2400 E0.5000
G1 F1950 X133.668 Y98.934 E0.5493
G0 F6000 X133.206 Y98.760
G1 F1950 X116.259 Y115.706 E0.5381
G1 F2700 E-0.5000
G0 F6000 X116.259 Y115.070
G1 F600 Z0.270
G1 F2400 E0.5000
G1 F1950 X132.569 Y98.760 E0.5178
G1 F2700 E-0.5000
G0 F6000 X131.933 Y98.760
G1 F600 Z0.270
G1 F2400 E0.5000
G1 F1950 X116.259 Y114.433 E0.4976
G1 F2700 E-0.5000
G0 F6000 X116.259 Y113.797
G1 F600 Z0.270
G1 F2400 E0.5000
G1 F1950 X131.297 Y98.760 E0.4774
G1 F2700 E-0.5000
G0 F6000 X130.660 Y98.760
G1 F600 Z0.270
G1 F2400 E0.5000
G1 F1950 X116.259 Y113.161 E0.4572
G1 F2700 E-0.5000
G0 F6000 X116.259 Y112.524
G1 F600 Z0.270
G1 F2400 E0.5000
G1 F1950 X130.024 Y98.760 E0.4370
G1 F2700 E-0.5000
G0 F6000 X129.387 Y98.760
G1 F600 Z0.270
G1 F2400 E0.5000
G1 F1950 X116.259 Y111.888 E0.4168
G1 F2700 E-0.5000
G0 F6000 X116.259 Y111.251
G1 F600 Z0.270
G1 F2400 E0.5000
G1 F1950 X128.751 Y98.760 E0.3966
G1 F2700 E-0.5000
G0 F6000 X128.115 Y98.760
G1 F600 Z0.270
G1 F2400 E0.5000
G1 F1950 X116.259 Y110.615 E0.3764
G1 F2700 E-0.5000
G0 F6000 X116.259 Y109.979
G1 F600 Z0.270
G1 F2400 E0.5000
G1 F1950 X127.478 Y98.760 E0.3562
G1 F2700 E-0.5000
G0 F6000 X126.842 Y98.760
G1 F600 Z0.270
G1 F2400 E0.5000
G1 F1950 X116.259 Y109.342 E0.3360
G1 F2700 E-0.5000
G0 F6000 X116.259 Y108.706
G1 F600 Z0.270
G1 F2400 E0.5000
G1 F1950 X126.205 Y98.760 E0.3158
G1 F2700 E-0.5000
G0 F6000 X125.569 Y98.760
G1 F600 Z0.270
G1 F2400 E0.5000
G1 F1950 X116.259 Y108.069 E0.2956
G1 F2700 E-0.5000
G0 F6000 X116.259 Y107.433
G1 F600 Z0.270
G1 F2400 E0.5000
G1 F1950 X124.933 Y98.760 E0.2754
G1 F2700 E-0.5000
G0 F6000 X124.296 Y98.760
G1 F600 Z0.270
G1 F2400 E0.5000
G1 F1950 X116.259 Y106.797 E0.2552
G1 F2700 E-0.5000
G0 F6000 X116.259 Y106.160
G1 F600 Z0.270
G1 F2400 E0.5000
G1 F1950 X123.660 Y98.760 E0.2350
G1 F2700 E-0.5000
G0 F6000 X123.023 Y98.760
G1 F600 Z0.270
G1 F2400 E0.5000
G1 F1950 X116.259 Y105.524 E0.2148
G1 F2700 E-0.5000
G0 F6000 X116.259 Y104.887
G1 F600 Z0.270
G1 F2400 E0.5000
G1 F1950 X122.387 Y98.760 E0.1945
G1 F2700 E-0.5000
G0 F6000 X121.751 Y98.760
G1 F600 Z0.270
G1 F2400 E0.5000
G1 F1950 X116.259 Y104.251 E0.1744
G1 F2700 E-0.5000
G0 F6000 X116.259 Y103.615
G1 F600 Z0.270
G1 F2400 E0.5000
G1 F1950 X121.114 Y98.760 E0.1541
G1 F2700 E-0.5000
G0 F6000 X120.478 Y98.760
G1 F600 Z0.270
G1 F2400 E0.5000
G1 F1950 X116.259 Y102.978 E0.1339
G1 F2700 E-0.5000
G0 F6000 X116.259 Y102.342
G1 F600 Z0.270
G1 F2400 E0.5000
G1 F1950 X119.841 Y98.760 E0.1137
G1 F2700 E-0.5000
G0 F6000 X119.205 Y98.760
G1 F600 Z0.270
G1 F2400 E0.5000
G1 F1950 X116.259 Y101.705 E0.0935
