;Sliced by ideaMaker 3.5.3.4250, 2020-11-09 19:23:21 UTC+0100
;Dimension: 250.000 215.000 205.000 0.400
;Plate Shape: 0
;Extruder Offset #1: 25.000 0.000
;Filament Diameter #1: 1.750
;Filament Diameter #2: 1.750
;Filament Compensation #1: 94.00
;Filament Compensation #2: 94.00
;Filament Density #1: 1240.00
;Filament Density #2: 1240.00
;Bounding Box: 115.000 135.000 97.500 117.500 0.000 20.000
;Model Gap: 0.000
M92 E830.00000
M221 T0 S94.00
; ideaMaker Start G-Code
; Layer height=0.1500 ; Pass layer height information to DWC
; Set nozzle and bed to the specific temperatures declared within this slicer
M140 S60 ; set bed temp
M104 S215 ; set extruder temp
M116 ; wait for all temperatures
; Run macro to print primeline at a 'randomized' Y position from -1.1 to -2.9
M98 P"0:/sys/primeLine.g" ; primeline macro
; Set pressure advance
M572 D0 S0.07 ; set pressure advance
;end of Start GCode
M83
;LAYER:0
;Z:0.200
;HEIGHT:0.200
M106 S0
G1 F2700 E-0.5000
M204 T1250.00
M566 X480.00 Y480.00
M82
G92 E0.0
;1
M83
G0 F6000 X116.125 Y116.375
G0 F600 Z0.200
M204 P1000.00
;TYPE:WALL-INNER
;WIDTH:0.450
G1 F2400 E0.5000
G1 F1800 X116.125 Y98.625 E0.6642
G1 X133.832 Y98.625 E0.6626
G1 X133.872 Y116.375 E0.6642
G1 X116.625 Y116.375 E0.6453
G0 F1800 X116.125 Y116.375
G1 F2700 E-0.5000
G0 F6000 X115.675 Y116.825
G1 F2400 E0.5000
G1 F1800 X115.675 Y98.175 E0.6978
G1 X134.281 Y98.175 E0.6962
G1 X134.323 Y116.825 E0.6978
G1 X116.175 Y116.825 E0.6791
G0 F1800 X115.675 Y116.825
G1 F2700 E-0.5000
G0 F6000 X115.548 Y116.926
G0 F6000 X115.235 Y117.175
G0 F6000 X115.225 Y117.275
M204 P800.00
;TYPE:WALL-OUTER
;WIDTH:0.450
G1 F2400 E0.5000
G1 F1800 X115.225 Y97.725 E0.7315
G1 X134.730 Y97.725 E0.7298
G1 X134.774 Y117.275 E0.7315
G1 X115.725 Y117.275 E0.7128
G0 F1800 X115.225 Y117.275
G1 F2700 E-0.5000
G0 F6000 X115.235 Y117.175
G0 X115.940 Y116.325
G0 F6000 X116.259 Y115.941
M204 P1500.00
;TYPE:SOLID-FILL
;WIDTH:0.450
G1 F2400 E0.5000
G1 F1800 X116.558 Y116.239 E0.0158
G0 F6000 X117.194 Y116.239
G1 F1800 X116.259 Y115.305 E0.0495
G1 F2700 E-0.5000
G1 F600 Z0.240
G0 F6000 X116.259 Y114.668
G1 F600 Z0.200
G1 F2400 E0.5000
G1 F1800 X117.830 Y116.239 E0.0831
G1 F2700 E-0.5000
G1 F600 Z0.240
G0 F6000 X118.467 Y116.239
G1 F600 Z0.200
G1 F2400 E0.5000
G1 F1800 X116.259 Y114.032 E0.1168
G1 F2700 E-0.5000
G1 F600 Z0.240
G0 F6000 X116.259 Y113.395
G1 F600 Z0.200
G1 F2400 E0.5000
G1 F1800 X119.103 Y116.239 E0.1505
G1 F2700 E-0.5000
G1 F600 Z0.240
G0 F6000 X119.740 Y116.239
G1 F600 Z0.200
G1 F2400 E0.5000
G1 F1800 X116.259 Y112.759 E0.1842
G1 F2700 E-0.5000
G1 F600 Z0.240
G0 F6000 X116.259 Y112.123
G1 F600 Z0.200
G1 F2400 E0.5000
G1 F1800 X120.376 Y116.239 E0.2178
G1 F2700 E-0.5000
G1 F600 Z0.240
G0 F6000 X121.012 Y116.239
G1 F600 Z0.200
G1 F2400 E0.5000
G1 F1800 X116.259 Y111.486 E0.2515
G1 F2700 E-0.5000
G1 F600 Z0.240
G0 F6000 X116.259 Y110.850
G1 F600 Z0.200
G1 F2400 E0.5000
G1 F1800 X121.649 Y116.239 E0.2852
G1 F2700 E-0.5000
G1 F600 Z0.240
G0 F6000 X122.285 Y116.239
G1 F600 Z0.200
G1 F2400 E0.5000
G1 F1800 X116.259 Y110.213 E0.3189
G1 F2700 E-0.5000
G1 F600 Z0.240
G0 F6000 X116.259 Y109.577
G1 F600 Z0.200
G1 F2400 E0.5000
G1 F1800 X122.922 Y116.239 E0.3526
G1 F2700 E-0.5000
G1 F600 Z0.240
G0 F6000 X123.558 Y116.239
G1 F600 Z0.200
G1 F2400 E0.5000
G1 F1800 X116.259 Y108.941 E0.3862
G1 F2700 E-0.5000
G1 F600 Z0.240
G0 F6000 X116.259 Y108.304
G1 F600 Z0.200
G1 F2400 E0.5000
G1 F1800 X124.194 Y116.239 E0.4199
G1 F2700 E-0.5000
G1 F600 Z0.240
G0 F6000 X124.831 Y116.239
G1 F600 Z0.200
G1 F2400 E0.5000
G1 F1800 X116.259 Y107.668 E0.4536
G1 F2700 E-0.5000
G1 F600 Z0.240
G0 F6000 X116.259 Y107.031
G1 F600 Z0.200
G1 F2400 E0.5000
G1 F1800 X125.467 Y116.239 E0.4873
G1 F2700 E-0.5000
G1 F600 Z0.240
G0 F6000 X126.104 Y116.239
G1 F600 Z0.200
G1 F2400 E0.5000
G1 F1800 X116.259 Y106.395 E0.5209
G1 F2700 E-0.5000
G1 F600 Z0.240
G0 F6000 X116.259 Y105.759
G1 F600 Z0.200
G1 F2400 E0.5000
G1 F1800 X126.740 Y116.239 E0.5546
G1 F2700 E-0.5000
G1 F600 Z0.240
G0 F6000 X127.376 Y116.239
G1 F600 Z0.200
G1 F2400 E0.5000
G1 F1800 X116.259 Y105.122 E0.5883
G1 F2700 E-0.5000
G1 F600 Z0.240
G0 F6000 X116.259 Y104.486
G1 F600 Z0.200
G1 F2400 E0.5000
G1 F1800 X128.013 Y116.239 E0.6220
G1 F2700 E-0.5000
G1 F600 Z0.240
G0 F6000 X128.649 Y116.239
G1 F600 Z0.200
G1 F2400 E0.5000
G1 F1800 X116.259 Y103.849 E0.6556
G1 F2700 E-0.5000
G1 F600 Z0.240
G0 F6000 X116.259 Y103.213
G1 F600 Z0.200
G1 F2400 E0.5000
G1 F1800 X129.285 Y116.239 E0.6893
G1 F2700 E-0.5000
G1 F600 Z0.240
G0 F6000 X129.922 Y116.239
G1 F600 Z0.200
G1 F2400 E0.5000
G1 F1800 X116.259 Y102.577 E0.7230
G1 F2700 E-0.5000
G1 F600 Z0.240
G0 F6000 X116.259 Y101.940
G1 F600 Z0.200
G1 F2400 E0.5000
G1 F1800 X130.558 Y116.239 E0.7567
G1 F2700 E-0.5000
G1 F600 Z0.240
G0 F6000 X131.195 Y116.239
G1 F600 Z0.200
G1 F2400 E0.5000
G1 F1800 X116.259 Y101.304 E0.7903
G1 F2700 E-0.5000
G1 F600 Z0.240
G0 F6000 X116.259 Y100.667
G1 F600 Z0.200
G1 F2400 E0.5000
G1 F1800 X131.831 Y116.239 E0.8240
G1 F2700 E-0.5000
G1 F600 Z0.240
G0 F6000 X132.467 Y116.239
G1 F600 Z0.200
G1 F2400 E0.5000
G1 F1800 X116.259 Y100.031 E0.8577
G1 F2700 E-0.5000
G1 F600 Z0.240
G0 F6000 X116.259 Y99.395
G1 F600 Z0.200
G1 F2400 E0.5000
G1 F1800 X133.104 Y116.239 E0.8914
G1 F2700 E-0.5000
G1 F600 Z0.240
G0 F6000 X133.735 Y116.234
G1 F600 Z0.200
G1 F2400 E0.5000
G1 F1800 X116.261 Y98.760 E0.9247
G1 F2700 E-0.5000
G1 F600 Z0.240
G0 F6000 X116.897 Y98.760
G1 F600 Z0.200
G1 F2400 E0.5000
G1 F1800 X133.734 Y115.597 E0.8910
G1 F2700 E-0.5000
G1 F600 Z0.240
G0 F6000 X133.732 Y114.959
G1 F600 Z0.200
G1 F2400 E0.5000
G1 F1800 X117.533 Y98.760 E0.8572
G1 F2700 E-0.5000
G1 F600 Z0.240
G0 F6000 X118.170 Y98.760
G1 F600 Z0.200
G1 F2400 E0.5000
G1 F1800 X133.731 Y114.321 E0.8234
G1 F2700 E-0.5000
G1 F600 Z0.240
G0 F6000 X133.730 Y113.683
G1 F600 Z0.200
G1 F2400 E0.5000
G1 F1800 X118.806 Y98.760 E0.7897
G1 F2700 E-0.5000
G1 F600 Z0.240
G0 F6000 X119.443 Y98.760
G1 F600 Z0.200
G1 F2400 E0.5000
G1 F1800 X133.728 Y113.045 E0.7559
G1 F2700 E-0.5000
G1 F600 Z0.240
G0 F6000 X133.727 Y112.408
G1 F600 Z0.200
G1 F2400 E0.5000
G1 F1800 X120.079 Y98.760 E0.7222
G1 F2700 E-0.5000
G1 F600 Z0.240
G0 F6000 X120.715 Y98.760
G1 F600 Z0.200
G1 F2400 E0.5000
G1 F1800 X133.725 Y111.770 E0.6884
G1 F2700 E-0.5000
G1 F600 Z0.240
G0 F6000 X133.724 Y111.132
G1 F600 Z0.200
G1 F2400 E0.5000
G1 F1800 X121.352 Y98.760 E0.6547
G1 F2700 E-0.5000
G1 F600 Z0.240
G0 F6000 X121.988 Y98.760
G1 F600 Z0.200
G1 F2400 E0.5000
G1 F1800 X133.723 Y110.494 E0.6209
G1 F2700 E-0.5000
G1 F600 Z0.240
G0 F6000 X133.721 Y109.856
G1 F600 Z0.200
G1 F2400 E0.5000
G1 F1800 X122.625 Y98.760 E0.5872
G1 F2700 E-0.5000
G1 F600 Z0.240
G0 F6000 X123.261 Y98.760
G1 F600 Z0.200
G1 F2400 E0.5000
G1 F1800 X133.720 Y109.219 E0.5535
G1 F2700 E-0.5000
G1 F600 Z0.240
G0 F6000 X133.718 Y108.581
G1 F600 Z0.200
G1 F2400 E0.5000
G1 F1800 X123.897 Y98.760 E0.5197
G1 F2700 E-0.5000
G1 F600 Z0.240
G0 F6000 X124.534 Y98.760
G1 F600 Z0.200
G1 F2400 E0.5000
G1 F1800 X133.717 Y107.943 E0.4859
G1 F2700 E-0.5000
G1 F600 Z0.240
G0 F6000 X133.716 Y107.305
G1 F600 Z0.200
G1 F2400 E0.5000
G1 F1800 X125.170 Y98.760 E0.4522
G1 F2700 E-0.5000
G1 F600 Z0.240
G0 F6000 X125.807 Y98.760
G1 F600 Z0.200
G1 F2400 E0.5000
G1 F1800 X133.714 Y106.667 E0.4184
G1 F2700 E-0.5000
G1 F600 Z0.240
G0 F6000 X133.713 Y106.029
G1 F600 Z0.200
G1 F2400 E0.5000
G1 F1800 X126.443 Y98.760 E0.3847
G1 F2700 E-0.5000
G1 F600 Z0.240
G0 F6000 X127.079 Y98.760
G1 F600 Z0.200
G1 F2400 E0.5000
G1 F1800 X133.711 Y105.392 E0.3509
G1 F2700 E-0.5000
G1 F600 Z0.240
G0 F6000 X133.710 Y104.754
G1 F600 Z0.200
G1 F2400 E0.5000
G1 F1800 X127.716 Y98.760 E0.3172
G1 F2700 E-0.5000
G1 F600 Z0.240
G0 F6000 X128.352 Y98.760
G1 F600 Z0.200
G1 F2400 E0.5000
G1 F1800 X133.708 Y104.116 E0.2834
G1 F2700 E-0.5000
G1 F600 Z0.240
G0 F6000 X133.707 Y103.478
G1 F600 Z0.200
G1 F2400 E0.5000
G1 F1800 X128.989 Y98.760 E0.2497
G1 F2700 E-0.5000
G1 F600 Z0.240
G0 F6000 X129.625 Y98.760
G1 F600 Z0.200
G1 F2400 E0.5000
G1 F1800 X133.706 Y102.840 E0.2159
G1 F2700 E-0.5000
G1 F600 Z0.240
G0 F6000 X133.704 Y102.203
G1 F600 Z0.200
G1 F2400 E0.5000
G1 F1800 X130.261 Y98.760 E0.1822
G1 F2700 E-0.5000
G1 F600 Z0.240
G0 F6000 X130.898 Y98.760
G1 F600 Z0.200
G1 F2400 E0.5000
G1 F1800 X133.703 Y101.565 E0.1484
G1 F2700 E-0.5000
G1 F600 Z0.240
G0 F6000 X133.701 Y100.927
G1 F600 Z0.200
G1 F2400 E0.5000
G1 F1800 X131.534 Y98.760 E0.1147
G1 F2700 E-0.5000
G1 F600 Z0.240
G0 F6000 X132.170 Y98.760
G1 F600 Z0.200
G1 F2400 E0.5000
G1 F1800 X133.700 Y100.289 E0.0809
G1 F2700 E-0.5000
G1 F600 Z0.240
G0 F6000 X133.699 Y99.651
G1 F600 Z0.200
G1 F2400 E0.5000
G1 F1800 X132.807 Y98.760 E0.0472
G1 F2700 E-0.5000
G1 F600 Z0.240
G0 F6000 X133.443 Y98.760
G1 F600 Z0.200
G1 F2400 E0.5000
G1 F1800 X133.697 Y99.014 E0.0134
;LAYER:1
;Z:0.350
;HEIGHT:0.150
G1 F2700 E-0.5000
M82
G92 E0.0
;2
M83
G0 F600 Z0.350
G0 F6000 X116.125 Y98.625
M204 P1000.00
;TYPE:WALL-INNER
;WIDTH:0.450
G1 F600 Z0.350
G1 F2400 E0.5000
G1 F2250 X133.875 Y98.625 E0.4981
G1 X133.875 Y116.283 E0.4955
G1 X116.125 Y116.370 E0.4981
G1 X116.125 Y99.125 E0.4840
G0 F2250 X116.125 Y98.625
G1 F2700 E-0.5000
G0 F6000 X115.675 Y98.175
G1 F600 Z0.350
G1 F2400 E0.5000
G1 F2250 X134.325 Y98.175 E0.5234
G1 X134.325 Y116.731 E0.5207
G1 X115.675 Y116.822 E0.5234
G1 X115.675 Y98.675 E0.5093
G0 F2250 X115.675 Y98.175
G1 F2700 E-0.5000
G0 F6000 X115.574 Y98.048
G0 F6000 X115.325 Y97.735
G0 F6000 X115.225 Y97.725
M204 P800.00
;TYPE:WALL-OUTER
;WIDTH:0.450
G1 F600 Z0.350
G1 F2400 E0.5000
G1 F1800 X134.775 Y97.725 E0.5486
G1 X134.775 Y117.179 E0.5459
G1 X115.225 Y117.274 E0.5486
G1 X115.225 Y98.225 E0.5346
G0 F1800 X115.225 Y97.725
G1 F2700 E-0.5000
G0 F6000 X115.325 Y97.735
G0 X116.263 Y98.456
G0 F6000 X116.659 Y98.760
M204 P1500.00
;TYPE:SOLID-FILL
;WIDTH:0.450
G1 F600 Z0.350
G1 F2400 E0.5000
G1 F1950 X116.259 Y99.160 E0.0159
G0 F6000 X116.259 Y99.796
G1 F1950 X117.296 Y98.760 E0.0411
G1 F2700 E-0.5000
G0 F6000 X117.932 Y98.760
G1 F600 Z0.350
G1 F2400 E0.5000
G1 F1950 X116.259 Y100.433 E0.0664
G1 F2700 E-0.5000
G0 F6000 X116.259 Y101.069
G1 F600 Z0.350
G1 F2400 E0.5000
G1 F1950 X118.569 Y98.760 E0.0917
G1 F2700 E-0.5000
G0 F6000 X119.205 Y98.760
G1 F600 Z0.350
G1 F2400 E0.5000
G1 F1950 X116.259 Y101.705 E0.1169
G1 F2700 E-0.5000
G0 F6000 X116.259 Y102.342
G1 F600 Z0.350
G1 F2400 E0.5000
G1 F1950 X119.841 Y98.760 E0.1422
G1 F2700 E-0.5000
G0 F6000 X120.478 Y98.760
G1 F600 Z0.350
G1 F2400 E0.5000
G1 F1950 X116.259 Y102.978 E0.1674
G1 F2700 E-0.5000
G0 F6000 X116.259 Y103.615
G1 F600 Z0.350
G1 F2400 E0.5000
G1 F1950 X121.114 Y98.760 E0.1927
G1 F2700 E-0.5000
G0 F6000 X121.751 Y98.760
G1 F600 Z0.350
G1 F2400 E0.5000
G1 F1950 X116.259 Y104.251 E0.2179
G1 F2700 E-0.5000
G0 F6000 X116.259 Y104.887
G1 F600 Z0.350
G1 F2400 E0.5000
G1 F1950 X122.387 Y98.760 E0.2432
G1 F2700 E-0.5000
G0 F6000 X123.023 Y98.760
G1 F600 Z0.350
G1 F2400 E0.5000
G1 F1950 X116.259 Y105.524 E0.2684
G1 F2700 E-0.5000
G0 F6000 X116.259 Y106.160
G1 F600 Z0.350
G1 F2400 E0.5000
G1 F1950 X123.660 Y98.760 E0.2937
G1 F2700 E-0.5000
G0 F6000 X124.296 Y98.760
G1 F600 Z0.350
G1 F2400 E0.5000
G1 F1950 X116.259 Y106.797 E0.3190
G1 F2700 E-0.5000
G0 F6000 X116.259 Y107.433
G1 F600 Z0.350
G1 F2400 E0.5000
G1 F1950 X124.933 Y98.760 E0.3442
G1 F2700 E-0.5000
G0 F6000 X125.569 Y98.760
G1 F600 Z0.350
G1 F2400 E0.5000
G1 F1950 X116.259 Y108.069 E0.3695
G1 F2700 E-0.5000
G0 F6000 X116.259 Y108.706
G1 F600 Z0.350
G1 F2400 E0.5000
G1 F1950 X126.205 Y98.760 E0.3947
G1 F2700 E-0.5000
G0 F6000 X126.842 Y98.760
G1 F600 Z0.350
G1 F2400 E0.5000
G1 F1950 X116.259 Y109.342 E0.4200
G1 F2700 E-0.5000
G0 F6000 X116.259 Y109.979
G1 F600 Z0.350
G1 F2400 E0.5000
G1 F1950 X127.478 Y98.760 E0.4453
G1 F2700 E-0.5000
G0 F6000 X128.115 Y98.760
G1 F600 Z0.350
G1 F2400 E0.5000
G1 F1950 X116.259 Y110.615 E0.4705
G1 F2700 E-0.5000
G0 F6000 X116.259 Y111.251
G1 F600 Z0.350
G1 F2400 E0.5000
G1 F1950 X128.751 Y98.760 E0.4958
G1 F2700 E-0.5000
G0 F6000 X129.387 Y98.760
G1 F600 Z0.350
G1 F2400 E0.5000
G1 F1950 X116.259 Y111.888 E0.5210
G1 F2700 E-0.5000
G0 F6000 X116.259 Y112.524
G1 F600 Z0.350
G1 F2400 E0.5000
G1 F1950 X130.024 Y98.760 E0.5463
G1 F2700 E-0.5000
G0 F6000 X130.660 Y98.760
G1 F600 Z0.350
G1 F2400 E0.5000
G1 F1950 X116.259 Y113.161 E0.5715
G1 F2700 E-0.5000
G0 F6000 X116.259 Y113.797
G1 F600 Z0.350
G1 F2400 E0.5000
G1 F1950 X131.297 Y98.760 E0.5968
G1 F2700 E-0.5000
G0 F6000 X131.933 Y98.760
G1 F600 Z0.350
G1 F2400 E0.5000
G1 F1950 X116.259 Y114.433 E0.6220
G1 F2700 E-0.5000
G0 F6000 X116.259 Y115.070
G1 F600 Z0.350
G1 F2400 E0.5000
G1 F1950 X132.569 Y98.760 E0.6473
G1 F2700 E-0.5000
G0 F6000 X133.206 Y98.760
G1 F600 Z0.350
G1 F2400 E0.5000
G1 F1950 X116.259 Y115.706 E0.6726
G1 F2700 E-0.5000
G0 F6000 X116.368 Y116.234
G1 F600 Z0.350
G1 F2400 E0.5000
G1 F1950 X133.739 Y98.863 E0.6894
G1 F2700 E-0.5000
G0 F6000 X133.739 Y99.499
G1 F600 Z0.350
G1 F2400 E0.5000
G1 F1950 X117.008 Y116.230 E0.6640
G1 F2700 E-0.5000
G0 F6000 X117.647 Y116.227
G1 F600 Z0.350
G1 F2400 E0.5000
G1 F1950 X133.739 Y100.136 E0.6386
G1 F2700 E-0.5000
G0 F6000 X133.739 Y100.772
G1 F600 Z0.350
G1 F2400 E0.5000
G1 F1950 X118.286 Y116.225 E0.6133
G1 F2700 E-0.5000
G0 F6000 X118.926 Y116.221
G1 F600 Z0.350
G1 F2400 E0.5000
G1 F1950 X133.739 Y101.409 E0.5879
G1 F2700 E-0.5000
G0 F6000 X133.739 Y102.045
G1 F600 Z0.350
G1 F2400 E0.5000
G1 F1950 X119.566 Y116.218 E0.5625
G1 F2700 E-0.5000
G0 F6000 X120.206 Y116.215
G1 F600 Z0.350
G1 F2400 E0.5000
G1 F1950 X133.739 Y102.681 E0.5371
G1 F2700 E-0.5000
G0 F6000 X133.739 Y103.318
G1 F600 Z0.350
G1 F2400 E0.5000
G1 F1950 X120.845 Y116.212 E0.5117
G1 F2700 E-0.5000
G0 F6000 X121.484 Y116.209
G1 F600 Z0.350
G1 F2400 E0.5000
G1 F1950 X133.739 Y103.954 E0.4864
G1 F2700 E-0.5000
G0 F6000 X133.739 Y104.590
G1 F600 Z0.350
G1 F2400 E0.5000
G1 F1950 X122.124 Y116.205 E0.4610
G1 F2700 E-0.5000
G0 F6000 X122.763 Y116.203
G1 F600 Z0.350
G1 F2400 E0.5000
G1 F1950 X133.739 Y105.227 E0.4356
G1 F2700 E-0.5000
G0 F6000 X133.739 Y105.863
G1 F600 Z0.350
G1 F2400 E0.5000
G1 F1950 X123.403 Y116.199 E0.4102
G1 F2700 E-0.5000
G0 F6000 X124.042 Y116.196
G1 F600 Z0.350
G1 F2400 E0.5000
G1 F1950 X133.739 Y106.500 E0.3848
G1 F2700 E-0.5000
G0 F6000 X133.739 Y107.136
G1 F600 Z0.350
G1 F2400 E0.5000
G1 F1950 X124.682 Y116.193 E0.3594
G1 F2700 E-0.5000
G0 F6000 X125.321 Y116.190
G1 F600 Z0.350
G1 F2400 E0.5000
G1 F1950 X133.739 Y107.772 E0.3341
G1 F2700 E-0.5000
G0 F6000 X133.739 Y108.409
G1 F600 Z0.350
G1 F2400 E0.5000
G1 F1950 X125.961 Y116.187 E0.3087
G1 F2700 E-0.5000
G0 F6000 X126.600 Y116.184
G1 F600 Z0.350
G1 F2400 E0.5000
G1 F1950 X133.739 Y109.045 E0.2833
G1 F2700 E-0.5000
G0 F6000 X133.739 Y109.682
G1 F600 Z0.350
G1 F2400 E0.5000
G1 F1950 X127.240 Y116.181 E0.2579
G1 F2700 E-0.5000
G0 F6000 X127.879 Y116.178
G1 F600 Z0.350
G1 F2400 E0.5000
G1 F1950 X133.739 Y110.318 E0.2326
G1 F2700 E-0.5000
G0 F6000 X133.739 Y110.954
G1 F600 Z0.350
G1 F2400 E0.5000
G1 F1950 X128.519 Y116.174 E0.2072
G1 F2700 E-0.5000
G0 F6000 X129.158 Y116.171
G1 F600 Z0.350
G1 F2400 E0.5000
G1 F1950 X133.739 Y111.591 E0.1818
G1 F2700 E-0.5000
G0 F6000 X133.739 Y112.227
G1 F600 Z0.350
G1 F2400 E0.5000
G1 F1950 X129.797 Y116.169 E0.1564
G1 F2700 E-0.5000
G0 F6000 X130.437 Y116.165
G1 F600 Z0.350
G1 F2400 E0.5000
G1 F1950 X133.739 Y112.864 E0.1310
G1 F2700 E-0.5000
G0 F6000 X133.739 Y113.500
G1 F600 Z0.350
G1 F2400 E0.5000
G1 F1950 X131.077 Y116.162 E0.1056
G1 F2700 E-0.5000
G0 F6000 X131.717 Y116.159
G1 F600 Z0.350
G1 F2400 E0.5000
G1 F1950 X133.739 Y114.136 E0.0803
G1 F2700 E-0.5000
G0 F6000 X133.739 Y114.773
G1 F600 Z0.350
G1 F2400 E0.5000
G1 F1950 X132.356 Y116.156 E0.0549
G1 F2700 E-0.5000
G0 F6000 X132.995 Y116.153
G1 F600 Z0.350
G1 F2400 E0.5000
G1 F1950 X133.739 Y115.409 E0.0295
G1 F2700 E-0.5000
G0 F6000 X133.739 Y116.046
G1 F600 Z0.350
G1 F2400 E0.5000
G1 F1950 X133.635 Y116.150 E0.0041
;LAYER:2
;Z:0.500
;HEIGHT:0.150
M106 S255
G4 P500
M106 S153
M82
G92 E0.0
;3
M83
G0 F600 Z0.500
G0 F6000 X133.875 Y116.375
M204 P1000.00
;TYPE:WALL-INNER
;WIDTH:0.450
G1 F2700 X116.125 Y116.375 E0.4981
