;Sliced by ideaMaker 3.5.3.4250, 2020-11-14 13:13:20 UTC+0100
;Dimension: 250.000 215.000 205.000 0.400
;Plate Shape: 0
;Extruder Offset #1: 25.000 0.000
;Filament Diameter #1: 1.750
;Filament Diameter #2: 1.750
;Filament Compensation #1: 94.00
;Filament Compensation #2: 94.00
;Filament Density #1: 1240.00
;Filament Density #2: 1240.00
;Bounding Box: 101.197 148.825 98.491 135.292 0.000 13.000
;Model Gap: 0.000
M92 E830.00000
M221 T0 S94.00
; ideaMaker Start G-Code
; Layer height=0.2000 ; Pass layer height information to DWC
; Set nozzle and bed to the specific temperatures declared within this slicer
M140 S60 ; set bed temp
M104 S215 ; set extruder temp
M116 ; wait for all temperatures
; Run macro to print primeline at a 'randomized' Y position from -1.1 to -2.9
M98 P"0:/sys/primeLine.g" ; primeline macro
; Set pressure advance
M572 D0 S0.07 ; set pressure advance
;end of Start GCode
M83
;LAYER:0
;Z:0.200
;HEIGHT:0.200
M106 S0
G1 F2700 E-0.5000
M204 T1250.00
M566 X480.00 Y480.00
M82
G92 E0.0
;1
M83
G0 F6000 X119.036 Y98.830
G0 F600 Z0.200
G0 F6000 X119.420 Y99.149
M204 P1000.00
;TYPE:SKIRT
;WIDTH:0.450
G1 F2400 E0.5000
G1 F900 X120.034 Y98.716 E0.0281
G1 X120.757 Y98.511 E0.0281
G1 X121.428 Y98.542 E0.0251
G1 X122.681 Y99.080 E0.0510
G1 X123.542 Y100.270 E0.0550
G1 X123.729 Y101.375 E0.0419
G1 X123.538 Y102.101 E0.0281
G1 X122.609 Y103.514 E0.0633
G1 X122.356 Y104.446 E0.0361
G1 X122.564 Y105.687 E0.0471
G1 X123.007 Y106.380 E0.0308
G1 X123.608 Y106.894 E0.0296
G1 X124.190 Y107.161 E0.0240
G1 X125.006 Y107.285 E0.0309
G1 X125.784 Y107.170 E0.0294
G1 X126.978 Y106.399 E0.0532
G1 X127.413 Y105.728 E0.0299
G1 X127.631 Y104.954 E0.0301
G1 X127.613 Y104.194 E0.0284
G1 X127.352 Y103.406 E0.0311
G1 X126.334 Y101.684 E0.0749
G1 X126.268 Y100.935 E0.0281
G1 X126.455 Y100.208 E0.0281
G1 X127.103 Y99.292 E0.0420
G1 X127.669 Y98.798 E0.0281
G1 X128.367 Y98.520 E0.0281
G1 X129.118 Y98.491 E0.0281
G1 X130.321 Y98.958 E0.0483
G1 X130.937 Y99.568 E0.0324
G1 X132.098 Y101.342 E0.0793
G1 X132.649 Y103.057 E0.0674
G1 X132.825 Y110.861 E0.2921
G1 X132.554 Y111.948 E0.0419
G1 X132.089 Y112.538 E0.0281
G1 X131.197 Y113.022 E0.0380
G1 X131.193 Y114.272 E0.0468
G1 X130.856 Y115.267 E0.0393
G1 X130.202 Y116.177 E0.0419
G1 X129.552 Y116.553 E0.0281
G1 X127.847 Y116.791 E0.0644
G1 X126.814 Y116.358 E0.0419
G1 X125.543 Y114.936 E0.0714
G1 X125.325 Y113.710 E0.0466
G1 X124.675 Y113.710 E0.0243
G1 X124.393 Y115.060 E0.0516
G1 X123.413 Y116.161 E0.0552
G1 X122.800 Y116.595 E0.0281
G1 X121.354 Y116.814 E0.0547
G1 X120.270 Y116.532 E0.0419
G1 X119.685 Y116.060 E0.0281
G1 X118.891 Y114.637 E0.0610
G1 X118.797 Y113.022 E0.0605
G1 X118.175 Y112.742 E0.0255
G1 X117.627 Y112.229 E0.0281
G1 X117.197 Y111.195 E0.0419
G1 X117.236 Y103.791 E0.2770
G1 X118.004 Y101.130 E0.1036
G1 X119.130 Y99.555 E0.0724
G0 F900 X119.420 Y99.149
G1 F2700 E-0.5000
G0 F6000 X116.098 Y101.342
G1 F2400 E0.5000
G1 F900 X116.649 Y103.057 E0.0674
G1 X116.825 Y110.861 E0.2921
G1 X116.554 Y111.948 E0.0419
G1 X116.089 Y112.538 E0.0281
G1 X115.197 Y113.022 E0.0380
G1 X115.193 Y114.272 E0.0468
G1 X114.856 Y115.267 E0.0393
G1 X114.202 Y116.177 E0.0419
G1 X113.552 Y116.553 E0.0281
G1 X111.847 Y116.791 E0.0644
G1 X110.814 Y116.358 E0.0419
G1 X109.543 Y114.936 E0.0714
G1 X109.325 Y113.710 E0.0466
G1 X108.675 Y113.710 E0.0243
G1 X108.393 Y115.060 E0.0516
G1 X107.413 Y116.161 E0.0552
G1 X106.800 Y116.595 E0.0281
G1 X105.354 Y116.814 E0.0547
G1 X104.270 Y116.532 E0.0419
G1 X103.685 Y116.060 E0.0281
G1 X102.891 Y114.637 E0.0610
G1 X102.797 Y113.022 E0.0605
G1 X102.175 Y112.742 E0.0255
G1 X101.627 Y112.229 E0.0281
G1 X101.197 Y111.195 E0.0419
G1 X101.236 Y103.791 E0.2770
G1 X102.004 Y101.130 E0.1036
G1 X103.420 Y99.149 E0.0911
G1 X104.034 Y98.716 E0.0281
G1 X104.757 Y98.511 E0.0281
G1 X105.428 Y98.542 E0.0251
G1 X106.681 Y99.080 E0.0510
G1 X107.542 Y100.270 E0.0550
G1 X107.729 Y101.375 E0.0419
G1 X107.538 Y102.101 E0.0281
G1 X106.609 Y103.514 E0.0633
G1 X106.356 Y104.446 E0.0361
G1 X106.564 Y105.687 E0.0471
G1 X107.007 Y106.380 E0.0308
G1 X107.608 Y106.894 E0.0296
G1 X108.190 Y107.161 E0.0240
G1 X109.006 Y107.285 E0.0309
G1 X109.784 Y107.170 E0.0294
G1 X110.978 Y106.399 E0.0532
G1 X111.413 Y105.728 E0.0299
G1 X111.631 Y104.954 E0.0301
G1 X111.613 Y104.194 E0.0284
G1 X111.352 Y103.406 E0.0311
G1 X110.334 Y101.684 E0.0749
G1 X110.268 Y100.935 E0.0281
G1 X110.455 Y100.208 E0.0281
G1 X111.103 Y99.292 E0.0420
G1 X111.669 Y98.798 E0.0281
G1 X112.367 Y98.520 E0.0281
G1 X113.118 Y98.491 E0.0281
G1 X114.321 Y98.958 E0.0483
G1 X114.937 Y99.568 E0.0324
G1 X115.825 Y100.924 E0.0606
G0 F900 X116.098 Y101.342
G1 F2700 E-0.5000
G0 F6000 X120.757 Y116.989
G1 F2400 E0.5000
G1 F900 X121.428 Y117.020 E0.0251
G1 X122.681 Y117.558 E0.0510
G1 X123.542 Y118.748 E0.0550
G1 X123.729 Y119.853 E0.0419
G1 X123.538 Y120.579 E0.0281
G1 X122.609 Y121.992 E0.0633
G1 X122.356 Y122.924 E0.0361
G1 X122.564 Y124.165 E0.0471
G1 X123.007 Y124.858 E0.0308
G1 X123.608 Y125.372 E0.0296
G1 X124.190 Y125.639 E0.0240
G1 X125.006 Y125.763 E0.0309
G1 X125.784 Y125.648 E0.0294
G1 X126.978 Y124.877 E0.0532
G1 X127.413 Y124.206 E0.0299
G1 X127.631 Y123.432 E0.0301
G1 X127.613 Y122.672 E0.0284
G1 X127.352 Y121.884 E0.0311
G1 X126.334 Y120.162 E0.0749
G1 X126.268 Y119.413 E0.0281
G1 X126.455 Y118.686 E0.0281
G1 X127.103 Y117.770 E0.0420
G1 X127.669 Y117.276 E0.0281
G1 X128.367 Y116.998 E0.0281
G1 X129.118 Y116.969 E0.0281
G1 X130.321 Y117.436 E0.0483
G1 X130.937 Y118.046 E0.0324
G1 X132.098 Y119.820 E0.0793
G1 X132.649 Y121.535 E0.0674
G1 X132.825 Y129.339 E0.2921
G1 X132.554 Y130.426 E0.0419
G1 X132.089 Y131.016 E0.0281
G1 X131.197 Y131.500 E0.0380
G1 X131.193 Y132.750 E0.0468
G1 X130.856 Y133.745 E0.0393
G1 X130.202 Y134.655 E0.0419
G1 X129.552 Y135.031 E0.0281
G1 X127.847 Y135.269 E0.0644
G1 X126.814 Y134.836 E0.0419
G1 X125.544 Y133.417 E0.0713
G1 X125.325 Y132.188 E0.0467
G1 X124.675 Y132.188 E0.0243
G1 X124.393 Y133.539 E0.0516
G1 X123.411 Y134.640 E0.0552
G1 X122.798 Y135.074 E0.0281
G1 X121.354 Y135.292 E0.0546
G1 X120.270 Y135.010 E0.0419
G1 X119.685 Y134.538 E0.0281
G1 X118.891 Y133.115 E0.0610
G1 X118.797 Y131.500 E0.0605
G1 X118.175 Y131.220 E0.0255
G1 X117.627 Y130.707 E0.0281
G1 X117.197 Y129.673 E0.0419
G1 X117.236 Y122.269 E0.2770
G1 X118.004 Y119.608 E0.1036
G1 X119.420 Y117.627 E0.0911
G1 X120.034 Y117.194 E0.0281
G1 X120.276 Y117.125 E0.0094
G0 F900 X120.757 Y116.989
G1 F2700 E-0.5000
G0 F6000 X134.004 Y119.608
G1 F2400 E0.5000
G1 F900 X135.420 Y117.627 E0.0911
G1 X136.034 Y117.194 E0.0281
G1 X136.757 Y116.989 E0.0281
G1 X137.428 Y117.020 E0.0251
G1 X138.681 Y117.558 E0.0510
G1 X139.542 Y118.748 E0.0550
G1 X139.729 Y119.853 E0.0419
G1 X139.538 Y120.579 E0.0281
G1 X138.609 Y121.992 E0.0633
G1 X138.356 Y122.924 E0.0361
G1 X138.564 Y124.165 E0.0471
G1 X139.007 Y124.858 E0.0308
G1 X139.608 Y125.372 E0.0296
G1 X140.190 Y125.639 E0.0240
G1 X141.006 Y125.763 E0.0309
G1 X141.784 Y125.648 E0.0294
G1 X142.978 Y124.877 E0.0532
G1 X143.413 Y124.206 E0.0299
G1 X143.631 Y123.432 E0.0301
G1 X143.613 Y122.672 E0.0284
G1 X143.352 Y121.884 E0.0311
G1 X142.334 Y120.162 E0.0749
G1 X142.268 Y119.413 E0.0281
G1 X142.455 Y118.686 E0.0281
G1 X143.103 Y117.770 E0.0420
G1 X143.669 Y117.276 E0.0281
G1 X144.367 Y116.998 E0.0281
G1 X145.118 Y116.969 E0.0281
G1 X146.321 Y117.436 E0.0483
G1 X146.937 Y118.046 E0.0324
G1 X148.098 Y119.820 E0.0793
G1 X148.649 Y121.535 E0.0674
G1 X148.825 Y129.339 E0.2921
G1 X148.554 Y130.426 E0.0419
G1 X148.089 Y131.016 E0.0281
G1 X147.197 Y131.500 E0.0380
G1 X147.193 Y132.750 E0.0468
G1 X146.856 Y133.745 E0.0393
G1 X146.202 Y134.655 E0.0419
G1 X145.552 Y135.031 E0.0281
G1 X143.847 Y135.269 E0.0644
G1 X142.814 Y134.836 E0.0419
G1 X141.544 Y133.417 E0.0713
G1 X141.325 Y132.188 E0.0467
G1 X140.675 Y132.188 E0.0243
G1 X140.393 Y133.539 E0.0516
G1 X139.411 Y134.640 E0.0552
G1 X138.798 Y135.074 E0.0281
G1 X137.354 Y135.292 E0.0546
G1 X136.270 Y135.010 E0.0419
G1 X135.685 Y134.538 E0.0281
G1 X134.891 Y133.115 E0.0610
G1 X134.797 Y131.500 E0.0605
G1 X134.175 Y131.220 E0.0255
G1 X133.627 Y130.707 E0.0281
G1 X133.197 Y129.673 E0.0419
G1 X133.236 Y122.269 E0.2770
G1 X133.866 Y120.088 E0.0849
G0 F900 X134.004 Y119.608
G1 F2700 E-0.5000
G0 F6000 X136.270 Y116.532
G1 F2400 E0.5000
G1 F900 X135.685 Y116.060 E0.0281
G1 X134.891 Y114.637 E0.0610
G1 X134.797 Y113.022 E0.0605
G1 X134.175 Y112.742 E0.0255
G1 X133.627 Y112.229 E0.0281
G1 X133.197 Y111.195 E0.0419
G1 X133.236 Y103.791 E0.2770
G1 X134.004 Y101.130 E0.1036
G1 X135.420 Y99.149 E0.0911
G1 X136.034 Y98.716 E0.0281
G1 X136.757 Y98.511 E0.0281
G1 X137.428 Y98.542 E0.0251
G1 X138.681 Y99.080 E0.0510
G1 X139.542 Y100.270 E0.0550
G1 X139.729 Y101.375 E0.0419
G1 X139.538 Y102.101 E0.0281
G1 X138.609 Y103.514 E0.0633
G1 X138.356 Y104.446 E0.0361
G1 X138.564 Y105.687 E0.0471
G1 X139.007 Y106.380 E0.0308
G1 X139.608 Y106.894 E0.0296
G1 X140.190 Y107.161 E0.0240
G1 X141.006 Y107.285 E0.0309
G1 X141.784 Y107.170 E0.0294
G1 X142.978 Y106.399 E0.0532
G1 X143.413 Y105.728 E0.0299
G1 X143.631 Y104.954 E0.0301
G1 X143.613 Y104.194 E0.0284
G1 X143.352 Y103.406 E0.0311
G1 X142.334 Y101.684 E0.0749
G1 X142.268 Y100.935 E0.0281
G1 X142.455 Y100.208 E0.0281
G1 X143.103 Y99.292 E0.0420
G1 X143.669 Y98.798 E0.0281
G1 X144.367 Y98.520 E0.0281
G1 X145.118 Y98.491 E0.0281
G1 X146.321 Y98.958 E0.0483
G1 X146.937 Y99.568 E0.0324
G1 X148.098 Y101.342 E0.0793
G1 X148.649 Y103.057 E0.0674
G1 X148.825 Y110.861 E0.2921
G1 X148.554 Y111.948 E0.0419
G1 X148.089 Y112.538 E0.0281
G1 X147.197 Y113.022 E0.0380
G1 X147.193 Y114.272 E0.0468
G1 X146.856 Y115.267 E0.0393
G1 X146.202 Y116.177 E0.0419
G1 X145.552 Y116.553 E0.0281
G1 X143.847 Y116.791 E0.0644
G1 X142.814 Y116.358 E0.0419
G1 X141.543 Y114.936 E0.0714
G1 X141.325 Y113.710 E0.0466
G1 X140.675 Y113.710 E0.0243
G1 X140.393 Y115.060 E0.0516
G1 X139.413 Y116.161 E0.0552
G1 X138.800 Y116.595 E0.0281
G1 X137.354 Y116.814 E0.0547
G1 X136.753 Y116.657 E0.0232
G0 F900 X136.270 Y116.532
G1 F2700 E-0.5000
G0 F6000 X106.710 Y110.360
;TYPE:WALL-INNER
;WIDTH:0.450
G1 F2400 E0.5000
G1 F1800 X105.871 Y110.360 E0.0314
G1 X105.141 Y109.886 E0.0326
G1 X104.535 Y109.841 E0.0227
G1 X104.543 Y108.851 E0.0370
G1 X104.671 Y108.792 E0.0053
G1 X105.787 Y109.744 E0.0549
G1 X106.458 Y110.052 E0.0276
G0 F1800 X106.749 Y110.185
G0 F1800 X106.710 Y110.360
G1 F2700 E-0.5000
G0 F6000 X107.351 Y109.967
G1 F2400 E0.5000
G1 F1800 X108.999 Y110.218 E0.0624
G1 X110.607 Y109.980 E0.0608
G1 X111.930 Y109.386 E0.0543
G1 X113.174 Y108.340 E0.0608
G1 X113.731 Y107.482 E0.0383
G1 X113.889 Y107.528 E0.0062
G1 X113.919 Y110.262 E0.1023
G1 X112.856 Y110.347 E0.0399
G1 X112.342 Y110.810 E0.0259
G1 X105.738 Y110.810 E0.2471
G1 X104.993 Y110.326 E0.0332
G1 X104.081 Y110.258 E0.0342
G1 X104.104 Y107.518 E0.1025
G1 X104.264 Y107.472 E0.0062
G1 X104.795 Y108.306 E0.0370
G1 X106.032 Y109.361 E0.0608
G1 X106.897 Y109.759 E0.0356
G0 F1800 X107.351 Y109.967
G0 F6000 X107.481 Y109.532
M204 P800.00
;TYPE:WALL-OUTER
;WIDTH:0.450
G1 F1800 X109.000 Y109.763 E0.0575
G1 X110.479 Y109.544 E0.0559
G1 X111.688 Y109.001 E0.0496
G1 X112.833 Y108.039 E0.0560
G1 X113.671 Y106.748 E0.0576
G1 X114.089 Y105.266 E0.0576
G1 X114.053 Y103.769 E0.0560
G1 X113.537 Y102.213 E0.0613
G1 X113.711 Y102.128 E0.0072
G1 X113.866 Y102.357 E0.0103
G1 X114.299 Y103.752 E0.0547
G1 X114.373 Y110.677 E0.2591
G1 X113.044 Y110.783 E0.0499
G1 X112.654 Y111.135 E0.0197
G1 X112.622 Y113.510 E0.0889
G1 X112.775 Y113.510 E0.0057
G1 X112.775 Y113.854 E0.0129
G1 X112.615 Y114.270 E0.0167
G1 X112.237 Y114.345 E0.0144
G1 X111.775 Y113.883 E0.0244
G1 X111.775 Y111.260 E0.0981
G1 X106.225 Y111.260 E0.2077
G1 X106.225 Y113.883 E0.0981
G1 X105.745 Y114.364 E0.0254
G1 X105.489 Y114.364 E0.0096
G1 X105.226 Y113.874 E0.0208
G1 X105.225 Y113.510 E0.0136
G1 X105.383 Y113.510 E0.0059
G1 X105.295 Y111.020 E0.0932
G1 X104.857 Y110.767 E0.0189
G1 X103.627 Y110.676 E0.0461
G1 X103.682 Y104.289 E0.2390
G1 X103.899 Y104.286 E0.0081
G1 X103.938 Y105.443 E0.0433
G1 X104.312 Y106.711 E0.0495
G1 X105.138 Y108.007 E0.0575
G1 X106.277 Y108.978 E0.0560
G1 X107.027 Y109.323 E0.0309
G0 F1800 X107.481 Y109.532
G1 F2700 E-0.5000
G0 F6000 X111.250 Y110.184
M204 P1000.00
;TYPE:WALL-INNER
;WIDTH:0.450
G1 F2400 E0.5000
G1 F1800 X112.172 Y109.771 E0.0378
G1 X113.326 Y108.800 E0.0564
G1 X113.454 Y108.859 E0.0053
G1 X113.464 Y109.847 E0.0370
G1 X112.668 Y109.911 E0.0299
G1 X112.169 Y110.360 E0.0251
G1 X111.608 Y110.360 E0.0210
G0 F1800 X111.288 Y110.360
G0 F1800 X111.250 Y110.184
G1 F2700 E-0.5000
G0 F6000 X107.424 Y109.722
G0 X106.168 Y109.145
G0 X104.988 Y108.138
G0 X104.295 Y107.051
G0 X103.788 Y104.691
G0 F6000 X103.683 Y104.203
M204 P800.00
;TYPE:WALL-OUTER
;WIDTH:0.450
G1 F2400 E0.5000
G1 F1800 X104.188 Y102.247 E0.0756
G1 X105.096 Y100.966 E0.0588
G1 X105.240 Y101.181 E0.0097
G1 X104.353 Y102.469 E0.0585
G1 X103.956 Y103.935 E0.0568
G0 F1800 X103.876 Y104.230
G0 F1800 X103.683 Y104.203
G1 F2700 E-0.5000
G0 F6000 X104.131 Y106.795
G0 X104.988 Y108.138
G0 X106.168 Y109.145
G0 X107.424 Y109.722
G0 X109.001 Y109.963
G0 X110.536 Y109.736
G0 X111.793 Y109.172
G0 X112.983 Y108.170
G0 X113.853 Y106.831
G0 X114.060 Y105.263
G0 X114.042 Y104.420
G0 X113.007 Y101.211
G0 F6000 X112.884 Y100.830
G0 F6000 X112.924 Y100.739
;TYPE:WALL-OUTER
;WIDTH:0.672
G1 F2400 E0.5000
G1 F1800 X112.917 Y100.871 E0.0074
G1 X112.911 Y101.003 E0.0074
G1 X112.905 Y101.135 E0.0074
G1 X113.197 Y101.566 E0.0291
G0 F1800 X113.477 Y101.980
G1 F2700 E-0.5000
G0 F6000 X114.026 Y104.834
G0 X114.036 Y106.000
G0 F6000 X114.040 Y106.500
;TYPE:SOLID-FILL
;WIDTH:0.190
G1 F2400 E0.5000
G1 F1500 X114.015 Y106.687 E0.0030
;WIDTH:0.250
G1 X114.000 Y106.797 E0.0023
G0 F1500 X113.991 Y106.874
G0 F1500 X113.899 Y107.286
G0 F6000 X113.562 Y108.153
M204 P1500.00
;TYPE:SOLID-FILL
;WIDTH:0.450
G1 F1800 X113.671 Y108.262 E0.0058
G1 F2700 E-0.5000
G1 F600 Z0.240
G0 F6000 X112.928 Y109.428
G1 F600 Z0.200
G1 F2400 E0.5000
G1 F1800 X113.146 Y109.646 E0.0115
G1 F2700 E-0.5000
G1 F600 Z0.240
G0 F6000 X112.213 Y111.045
M204 P800.00
;TYPE:SOLID-FILL
;WIDTH:0.426
G1 F600 Z0.200
G1 F2400 E0.5000
G1 F1500 X112.198 Y113.442 E0.0849
G0 F1500 X112.197 Y113.708
G0 F1500 X112.207 Y113.732
G0 F1500 X112.340 Y113.893
G1 F2700 E-0.5000
G1 F600 Z0.240
G0 F6000 X111.959 Y111.397
G0 X111.363 Y110.700
G0 F6000 X111.038 Y110.321
;WIDTH:0.436
G1 F600 Z0.200
G1 F2400 E0.5000
G1 F1500 X110.754 Y110.382 E0.0105
G1 X110.700 Y110.390 E0.0020
G1 X110.418 Y110.410 E0.0102
;WIDTH:0.348
G1 X110.136 Y110.431 E0.0082
G1 X109.854 Y110.452 E0.0082
;WIDTH:0.265
G1 X109.572 Y110.473 E0.0062
G1 X109.509 Y110.478 E0.0014
G0 F1500 X109.290 Y110.494
G0 F1500 X109.009 Y110.515
G0 F6000 X108.988 Y110.515
;WIDTH:0.402
G1 F1500 X107.452 Y110.398 E0.0515
G0 F1500 X107.255 Y110.383
G0 F1500 X107.199 Y110.375
G0 F1500 X106.958 Y110.325
G1 F2700 E-0.5000
G1 F600 Z0.240
G0 F6000 X105.997 Y110.134
M204 P1500.00
;TYPE:SOLID-FILL
;WIDTH:0.450
G1 F600 Z0.200
G1 F2400 E0.5000
G1 F1800 X105.911 Y110.048 E0.0046
G1 F2700 E-0.5000
G1 F600 Z0.240
G0 F6000 X104.866 Y109.639
G1 F600 Z0.200
G1 F2400 E0.5000
G1 F1800 X104.762 Y109.535 E0.0055
G1 F2700 E-0.5000
G1 F600 Z0.240
G0 F6000 X105.559 Y111.022
M204 P800.00
;TYPE:SOLID-FILL
;WIDTH:0.190
G1 F600 Z0.200
G1 F2400 E0.5000
G1 F1500 X105.617 Y111.124 E0.0019
;WIDTH:0.286
G1 X105.642 Y111.155 E0.0009
G1 X105.668 Y111.187 E0.0010
;WIDTH:0.379
G1 X105.692 Y111.210 E0.0010
G1 X105.716 Y111.233 E0.0010
;WIDTH:0.472
G1 X105.740 Y111.256 E0.0013
G1 X105.764 Y111.280 E0.0013
G1 X105.807 Y113.708 E0.0953
G0 F1500 X105.807 Y113.710
G0 F1500 X105.800 Y113.728
G0 F1500 X105.672 Y113.887
G0 F1500 X105.424 Y113.767
G1 F2700 E-0.5000
G1 F600 Z0.240
G0 F6000 X105.457 Y111.460
G0 X104.644 Y109.091
G0 F6000 X104.482 Y108.618
M204 P1500.00
;TYPE:SOLID-FILL
;WIDTH:0.450
G1 F600 Z0.200
G1 F2400 E0.5000
G1 F1800 X104.320 Y108.457 E0.0085
G1 F2700 E-0.5000
G1 F600 Z0.240
G0 F6000 X104.093 Y107.276
M204 P800.00
;TYPE:SOLID-FILL
;WIDTH:0.240
G1 F600 Z0.200
G1 F2400 E0.5000
G1 F1500 X104.032 Y107.000 E0.0056
G0 F1500 X103.997 Y106.837
G0 F1500 X103.974 Y106.671
