;Sliced by ideaMaker 3.5.3.4250, 2020-11-11 13:07:04 UTC+0100
;Dimension: 250.000 215.000 205.000 0.400
;Plate Shape: 0
;Extruder Offset #1: 25.000 0.000
;Filament Diameter #1: 1.750
;Filament Diameter #2: 1.750
;Filament Compensation #1: 94.00
;Filament Compensation #2: 94.00
;Filament Density #1: 1240.00
;Filament Density #2: 1240.00
;Bounding Box: 115.326 134.675 97.829 117.175 0.000 70.000
;Model Gap: 0.000
M92 E830.00000
M221 T0 S94.00
; ideaMaker Start G-Code
; Layer height=0.2000 ; Pass layer height information to DWC
; Set nozzle and bed to the specific temperatures declared within this slicer
M140 S60 ; set bed temp
M104 S215 ; set extruder temp
M116 ; wait for all temperatures
; Run macro to print primeline at a 'randomized' Y position from -1.1 to -2.9
M98 P"0:/sys/primeLine.g" ; primeline macro
; Set pressure advance
M572 D0 S0.07 ; set pressure advance
;end of Start GCode
M83
;LAYER:0
;Z:0.200
;HEIGHT:0.200
M106 S0
G1 F2700 E-0.5000
M204 T1250.00
M566 X480.00 Y480.00
M82
G92 E0.0
;1
M83
G0 F6000 X117.832 Y100.278
G0 F600 Z0.200
G0 F6000 X118.212 Y100.602
M204 P1000.00
;TYPE:SKIRT
;WIDTH:0.450
G1 F2400 E0.5000
G1 F900 X119.421 Y99.592 E0.0589
G1 X121.202 Y98.604 E0.0762
G1 X123.199 Y97.996 E0.0781
G1 X125.170 Y97.829 E0.0740
G1 X126.858 Y98.008 E0.0635
G1 X128.410 Y98.443 E0.0603
G1 X130.232 Y99.364 E0.0764
G1 X131.520 Y100.349 E0.0607
G1 X132.871 Y101.878 E0.0763
G1 X133.894 Y103.697 E0.0781
G1 X134.504 Y105.699 E0.0783
G1 X134.675 Y107.316 E0.0608
G1 X134.495 Y109.346 E0.0763
G1 X134.057 Y110.910 E0.0608
G1 X133.136 Y112.732 E0.0764
G1 X132.151 Y114.020 E0.0607
G1 X130.622 Y115.371 E0.0763
G1 X128.803 Y116.394 E0.0781
G1 X126.801 Y117.004 E0.0783
G1 X125.184 Y117.175 E0.0608
G1 X123.154 Y116.995 E0.0763
G1 X121.158 Y116.376 E0.0782
G1 X119.339 Y115.343 E0.0783
G1 X118.102 Y114.288 E0.0608
G1 X117.092 Y113.079 E0.0589
G1 X116.104 Y111.298 E0.0762
G1 X115.496 Y109.301 E0.0781
G1 X115.326 Y107.676 E0.0611
G1 X115.504 Y105.654 E0.0760
G1 X116.124 Y103.656 E0.0783
G1 X117.157 Y101.839 E0.0782
G1 X117.888 Y100.982 E0.0421
G0 F900 X118.212 Y100.602
G0 F6000 X118.553 Y100.896
G1 F900 X119.708 Y99.939 E0.0561
G1 X121.419 Y98.998 E0.0731
G1 X123.328 Y98.427 E0.0746
G1 X125.123 Y98.276 E0.0674
G1 X126.811 Y98.455 E0.0635
G1 X128.286 Y98.876 E0.0574
G1 X130.027 Y99.765 E0.0731
G1 X131.245 Y100.705 E0.0576
G1 X132.533 Y102.175 E0.0731
G1 X133.501 Y103.916 E0.0745
G1 X134.073 Y105.828 E0.0747
G1 X134.227 Y107.361 E0.0576
G1 X134.047 Y109.305 E0.0731
G1 X133.624 Y110.786 E0.0576
G1 X132.735 Y112.527 E0.0731
G1 X131.795 Y113.745 E0.0576
G1 X130.325 Y115.033 E0.0731
G1 X128.584 Y116.001 E0.0745
G1 X126.672 Y116.573 E0.0747
G1 X125.139 Y116.727 E0.0576
G1 X123.195 Y116.547 E0.0731
G1 X121.293 Y115.947 E0.0746
G1 X119.563 Y114.953 E0.0747
G1 X118.396 Y113.947 E0.0577
G1 X117.439 Y112.792 E0.0561
G1 X116.498 Y111.081 E0.0731
G1 X115.927 Y109.172 E0.0746
G1 X115.774 Y107.632 E0.0579
G1 X115.952 Y105.695 E0.0728
G1 X116.553 Y103.792 E0.0747
G1 X117.547 Y102.063 E0.0746
G1 X118.227 Y101.274 E0.0390
G0 F900 X118.553 Y100.896
G0 F6000 X118.892 Y101.192
G1 F900 X119.994 Y100.287 E0.0534
G1 X121.634 Y99.393 E0.0699
G1 X123.455 Y98.859 E0.0710
G1 X125.076 Y98.723 E0.0609
G1 X126.764 Y98.902 E0.0635
G1 X128.160 Y99.308 E0.0544
G1 X129.821 Y100.165 E0.0699
G1 X130.968 Y101.060 E0.0544
G1 X132.193 Y102.470 E0.0699
G1 X133.107 Y104.133 E0.0710
G1 X133.641 Y105.955 E0.0710
G1 X133.779 Y107.404 E0.0545
G1 X133.599 Y109.262 E0.0698
G1 X133.192 Y110.660 E0.0545
G1 X132.335 Y112.321 E0.0699
G1 X131.440 Y113.468 E0.0544
G1 X130.030 Y114.693 E0.0699
G1 X128.367 Y115.607 E0.0710
G1 X126.545 Y116.141 E0.0710
G1 X125.096 Y116.279 E0.0545
G1 X123.238 Y116.099 E0.0698
G1 X121.430 Y115.519 E0.0710
G1 X119.789 Y114.564 E0.0710
G1 X118.692 Y113.608 E0.0544
G1 X117.787 Y112.506 E0.0534
G1 X116.893 Y110.866 E0.0699
G1 X116.359 Y109.045 E0.0710
G1 X116.222 Y107.590 E0.0547
G1 X116.400 Y105.738 E0.0696
G1 X116.981 Y103.930 E0.0711
G1 X117.936 Y102.289 E0.0710
G1 X118.564 Y101.568 E0.0358
G0 F900 X118.892 Y101.192
G0 F6000 X119.230 Y101.490
G1 F900 X120.278 Y100.636 E0.0506
G1 X121.848 Y99.789 E0.0667
G1 X123.579 Y99.292 E0.0674
G1 X125.029 Y99.170 E0.0544
G1 X126.717 Y99.349 E0.0635
G1 X128.032 Y99.739 E0.0513
G1 X129.613 Y100.564 E0.0667
G1 X130.689 Y101.413 E0.0513
G1 X131.852 Y102.764 E0.0667
G1 X132.711 Y104.348 E0.0674
G1 X133.208 Y106.079 E0.0674
G1 X133.331 Y107.444 E0.0513
G1 X133.151 Y109.217 E0.0667
G1 X132.761 Y110.532 E0.0513
G1 X131.936 Y112.113 E0.0667
G1 X131.087 Y113.189 E0.0513
G1 X129.736 Y114.352 E0.0667
G1 X128.152 Y115.211 E0.0674
G1 X126.421 Y115.708 E0.0674
G1 X125.056 Y115.831 E0.0513
G1 X123.283 Y115.651 E0.0667
G1 X121.570 Y115.091 E0.0674
G1 X120.018 Y114.176 E0.0674
G1 X118.990 Y113.270 E0.0513
G1 X118.136 Y112.222 E0.0506
G1 X117.289 Y110.652 E0.0667
G1 X116.792 Y108.921 E0.0674
G1 X116.670 Y107.550 E0.0515
G1 X116.848 Y105.783 E0.0665
G1 X117.409 Y104.070 E0.0674
G1 X118.324 Y102.518 E0.0674
G1 X118.900 Y101.865 E0.0326
G0 F900 X119.230 Y101.490
G0 F6000 X119.566 Y101.790
G1 F900 X120.561 Y100.986 E0.0479
G1 X122.060 Y100.186 E0.0636
G1 X123.701 Y99.725 E0.0638
G1 X124.982 Y99.617 E0.0481
G1 X126.670 Y99.796 E0.0635
G1 X127.901 Y100.170 E0.0481
G1 X129.403 Y100.962 E0.0635
G1 X130.408 Y101.765 E0.0481
G1 X131.510 Y103.056 E0.0635
G1 X132.314 Y104.560 E0.0638
G1 X132.775 Y106.201 E0.0638
G1 X132.883 Y107.482 E0.0481
G1 X132.704 Y109.170 E0.0635
G1 X132.330 Y110.401 E0.0481
G1 X131.538 Y111.903 E0.0635
G1 X130.735 Y112.908 E0.0481
G1 X129.444 Y114.010 E0.0635
G1 X127.940 Y114.814 E0.0638
G1 X126.299 Y115.275 E0.0638
G1 X125.018 Y115.383 E0.0481
G1 X123.330 Y115.204 E0.0635
G1 X121.712 Y114.664 E0.0638
G1 X120.249 Y113.790 E0.0638
G1 X119.290 Y112.934 E0.0481
G1 X118.486 Y111.939 E0.0479
G1 X117.686 Y110.440 E0.0636
G1 X117.225 Y108.799 E0.0638
G1 X117.118 Y107.513 E0.0483
G1 X117.296 Y105.830 E0.0633
G1 X117.836 Y104.212 E0.0638
G1 X118.710 Y102.749 E0.0638
G1 X119.233 Y102.163 E0.0294
G0 F900 X119.566 Y101.790
G1 F2700 E-0.5000
G0 F6000 X119.085 Y102.999
M204 P800.00
;TYPE:WALL-OUTER
;WIDTH:0.450
G1 F2400 E0.5000
G1 F1800 X120.826 Y101.350 E0.0897
G1 X122.249 Y100.595 E0.0603
G1 X123.801 Y100.165 E0.0603
G1 X124.997 Y100.067 E0.0449
G1 X126.600 Y100.241 E0.0603
G1 X127.748 Y100.594 E0.0449
G1 X129.174 Y101.350 E0.0604
G1 X130.109 Y102.102 E0.0449
G1 X131.152 Y103.329 E0.0603
G1 X131.905 Y104.749 E0.0601
G1 X132.335 Y106.301 E0.0603
G1 X132.433 Y107.497 E0.0449
G1 X132.259 Y109.100 E0.0603
G1 X131.906 Y110.248 E0.0449
G1 X131.150 Y111.674 E0.0604
G1 X130.398 Y112.609 E0.0449
G1 X129.171 Y113.652 E0.0603
G1 X127.751 Y114.405 E0.0601
G1 X126.199 Y114.835 E0.0603
G1 X125.003 Y114.933 E0.0449
G1 X123.403 Y114.759 E0.0602
G1 X121.879 Y114.246 E0.0602
G1 X120.499 Y113.415 E0.0603
G1 X118.850 Y111.674 E0.0897
G1 X118.095 Y110.251 E0.0603
G1 X117.665 Y108.700 E0.0602
G1 X117.568 Y107.498 E0.0451
G1 X117.741 Y105.903 E0.0600
G1 X118.254 Y104.379 E0.0602
G1 X118.827 Y103.427 E0.0416
G0 F1800 X119.085 Y102.999
G1 F2700 E-0.5000
G0 F6000 X119.160 Y103.065
G0 X119.213 Y103.720
G0 F6000 X119.245 Y104.119
G0 F6000 X119.339 Y104.153
G1 F2400 E0.5000
G1 F1800 X118.835 Y105.210 E0.0438
G1 X118.528 Y106.337 E0.0437
G1 X118.425 Y107.508 E0.0440
G1 X118.607 Y109.042 E0.0578
G1 X118.983 Y110.154 E0.0439
G1 X119.771 Y111.488 E0.0580
G1 X120.564 Y112.354 E0.0439
G1 X121.830 Y113.263 E0.0583
G1 X124.019 Y114.003 E0.0865
G1 X125.198 Y114.073 E0.0442
G1 X126.730 Y113.844 E0.0580
G1 X127.828 Y113.437 E0.0438
G1 X128.834 Y112.843 E0.0437
G1 X129.721 Y112.078 E0.0438
G1 X130.661 Y110.847 E0.0580
G1 X131.165 Y109.790 E0.0438
G1 X131.472 Y108.663 E0.0437
G1 X131.576 Y107.497 E0.0438
G1 X131.393 Y105.958 E0.0580
G1 X131.017 Y104.846 E0.0439
G1 X130.229 Y103.512 E0.0580
G1 X129.436 Y102.646 E0.0439
G1 X128.170 Y101.737 E0.0583
G1 X125.981 Y100.997 E0.0865
G1 X124.802 Y100.927 E0.0442
G1 X123.270 Y101.156 E0.0580
G1 X122.172 Y101.563 E0.0438
G1 X121.166 Y102.157 E0.0437
G1 X120.279 Y102.922 E0.0438
G1 X119.642 Y103.756 E0.0393
G0 F1800 X119.339 Y104.153
G1 F2700 E-0.5000
G0 F6000 X119.245 Y104.119
G0 X119.076 Y104.408
G0 X118.160 Y107.034
G0 F6000 X117.996 Y107.506
;TYPE:SOLID-FILL
;WIDTH:0.422
G1 F2400 E0.5000
G1 F1500 X117.998 Y107.493 E0.0005
G1 X118.117 Y106.280 E0.0428
G1 X118.122 Y106.247 E0.0012
G1 X118.169 Y105.995 E0.0090
G1 X118.446 Y105.083 E0.0334
;WIDTH:0.366
G1 X118.457 Y105.052 E0.0010
;WIDTH:0.431
G1 X118.555 Y104.808 E0.0094
G1 X118.654 Y104.565 E0.0094
G1 X118.982 Y103.957 E0.0248
;WIDTH:0.364
G1 X119.001 Y103.925 E0.0011
;WIDTH:0.450
G1 X119.219 Y103.603 E0.0146
G1 X119.438 Y103.282 E0.0145
G1 X119.988 Y102.671 E0.0308
;WIDTH:0.317
G1 X120.011 Y102.648 E0.0009
;WIDTH:0.370
G1 X120.461 Y102.240 E0.0187
G1 X120.912 Y101.832 E0.0187
G1 X120.938 Y101.811 E0.0010
G1 X121.080 Y101.704 E0.0055
G1 X121.981 Y101.200 E0.0318
G1 X122.010 Y101.185 E0.0010
;WIDTH:0.430
G1 X122.210 Y101.095 E0.0078
G1 X122.411 Y101.006 E0.0079
G1 X123.151 Y100.767 E0.0278
;WIDTH:0.364
G1 X123.187 Y100.757 E0.0011
;WIDTH:0.419
G1 X123.534 Y100.683 E0.0124
G1 X123.882 Y100.609 E0.0124
G1 X124.763 Y100.507 E0.0309
G1 X124.803 Y100.505 E0.0014
G1 X124.988 Y100.503 E0.0064
G1 X126.034 Y100.590 E0.0366
G1 X126.083 Y100.598 E0.0017
G1 X126.295 Y100.645 E0.0076
;WIDTH:0.495
G1 X126.508 Y100.692 E0.0090
G1 X127.565 Y101.033 E0.0457
G1 X128.332 Y101.363 E0.0344
;WIDTH:0.361
G1 X128.379 Y101.388 E0.0016
;WIDTH:0.420
G1 X128.652 Y101.557 E0.0112
G1 X128.926 Y101.727 E0.0113
G1 X129.701 Y102.316 E0.0340
G1 X129.732 Y102.342 E0.0014
G1 X129.806 Y102.411 E0.0035
G1 X130.547 Y103.251 E0.0391
G1 X130.571 Y103.282 E0.0014
G1 X130.676 Y103.429 E0.0063
G1 X130.782 Y103.577 E0.0064
G1 X131.386 Y104.655 E0.0432
G1 X131.403 Y104.690 E0.0014
G1 X131.497 Y104.910 E0.0084
G1 X131.786 Y105.849 E0.0343
;WIDTH:0.367
G1 X131.796 Y105.886 E0.0012
;WIDTH:0.423
G1 X131.844 Y106.134 E0.0089
G1 X131.893 Y106.382 E0.0089
G1 X132.002 Y107.470 E0.0385
G1 X132.004 Y107.488 E0.0006
G1 X132.002 Y107.511 E0.0008
G1 X131.882 Y108.719 E0.0427
G1 X131.878 Y108.753 E0.0012
G1 X131.828 Y109.013 E0.0093
G1 X131.566 Y109.920 E0.0332
;WIDTH:0.372
G1 X131.554 Y109.953 E0.0011
G1 X131.504 Y110.081 E0.0043
G1 X131.020 Y111.044 E0.0333
G1 X131.001 Y111.077 E0.0012
;WIDTH:0.439
G1 X130.888 Y111.253 E0.0076
G1 X130.776 Y111.429 E0.0076
G1 X130.088 Y112.306 E0.0407
;WIDTH:0.369
G1 X130.044 Y112.353 E0.0020
G1 X130.014 Y112.381 E0.0013
G1 X129.091 Y113.172 E0.0373
G1 X129.064 Y113.193 E0.0010
G1 X128.927 Y113.290 E0.0052
G1 X128.018 Y113.799 E0.0320
G1 X127.989 Y113.814 E0.0010
;WIDTH:0.427
G1 X127.788 Y113.903 E0.0078
G1 X127.588 Y113.993 E0.0078
G1 X126.848 Y114.232 E0.0276
;WIDTH:0.364
G1 X126.812 Y114.242 E0.0011
;WIDTH:0.415
G1 X126.464 Y114.316 E0.0123
G1 X126.117 Y114.390 E0.0122
G1 X125.236 Y114.492 E0.0306
G1 X125.196 Y114.494 E0.0014
G1 X125.011 Y114.496 E0.0064
G1 X123.965 Y114.408 E0.0362
G1 X123.916 Y114.401 E0.0017
G1 X123.708 Y114.355 E0.0074
;WIDTH:0.466
G1 X123.500 Y114.309 E0.0083
G1 X122.073 Y113.828 E0.0584
G1 X121.666 Y113.639 E0.0174
;WIDTH:0.368
G1 X121.619 Y113.613 E0.0016
;WIDTH:0.446
G1 X121.200 Y113.337 E0.0186
G1 X120.782 Y113.061 E0.0186
G1 X120.317 Y112.656 E0.0229
;WIDTH:0.351
G1 X120.293 Y112.633 E0.0010
G1 X119.461 Y111.740 E0.0356
G1 X119.437 Y111.712 E0.0011
;WIDTH:0.405
G1 X119.325 Y111.562 E0.0063
G1 X119.213 Y111.413 E0.0063
G1 X118.613 Y110.344 E0.0413
G1 X118.596 Y110.309 E0.0013
G1 X118.502 Y110.089 E0.0081
G1 X118.213 Y109.150 E0.0331
G1 X118.203 Y109.113 E0.0013
G1 X118.154 Y108.866 E0.0085
G1 X118.106 Y108.619 E0.0085
G1 X118.045 Y108.004 E0.0208
G0 F1500 X117.999 Y107.535
G0 F1500 X117.997 Y107.507
;LAYER:1
;Z:0.400
;HEIGHT:0.200
M106 S255
G4 P500
M106 S166
G1 F2700 E-0.5000
M82
G92 E0.0
;2
M83
G0 F600 Z0.400
G0 F6000 X117.997 Y107.507
G0 X119.059 Y103.452
G0 F6000 X119.160 Y103.065
G0 F6000 X119.085 Y102.999
;TYPE:WALL-OUTER
;WIDTH:0.450
G1 F2400 E0.5000
G1 F1066 X120.826 Y101.350 E0.0897
G1 X122.249 Y100.595 E0.0603
G1 X123.801 Y100.165 E0.0603
G1 X124.997 Y100.067 E0.0449
G1 X126.600 Y100.241 E0.0603
G1 X127.748 Y100.594 E0.0449
G1 X129.174 Y101.350 E0.0604
G1 X130.109 Y102.102 E0.0449
G1 X131.152 Y103.329 E0.0603
G1 X131.905 Y104.749 E0.0601
G1 X132.335 Y106.301 E0.0603
G1 X132.433 Y107.497 E0.0449
G1 X132.259 Y109.100 E0.0603
G1 X131.906 Y110.248 E0.0449
G1 X131.150 Y111.674 E0.0604
G1 X130.398 Y112.609 E0.0449
G1 X129.171 Y113.652 E0.0603
G1 X127.751 Y114.405 E0.0601
G1 X126.199 Y114.835 E0.0603
G1 X125.003 Y114.933 E0.0449
G1 X123.403 Y114.759 E0.0602
G1 X121.879 Y114.246 E0.0602
G1 X120.499 Y113.415 E0.0603
G1 X118.850 Y111.674 E0.0897
G1 X118.095 Y110.251 E0.0603
G1 X117.665 Y108.700 E0.0602
G1 X117.568 Y107.488 E0.0455
G1 X117.741 Y105.903 E0.0597
G1 X118.254 Y104.379 E0.0602
G1 X118.827 Y103.427 E0.0416
G0 F1066 X119.085 Y102.999
G1 F2700 E-0.5000
G0 F6000 X119.160 Y103.065
G0 X119.213 Y103.720
G0 F6000 X119.245 Y104.119
G0 F6000 X119.339 Y104.153
G1 F2400 E0.5000
G1 F1066 X118.835 Y105.210 E0.0438
G1 X118.528 Y106.337 E0.0437
G1 X118.425 Y107.519 E0.0444
G1 X118.607 Y109.042 E0.0574
G1 X118.983 Y110.154 E0.0439
G1 X119.771 Y111.488 E0.0580
G1 X120.564 Y112.354 E0.0439
G1 X121.830 Y113.263 E0.0583
G1 X124.019 Y114.003 E0.0865
G1 X125.198 Y114.073 E0.0442
G1 X126.730 Y113.844 E0.0580
G1 X127.828 Y113.437 E0.0438
G1 X128.834 Y112.843 E0.0437
G1 X129.721 Y112.078 E0.0438
G1 X130.661 Y110.847 E0.0580
G1 X131.165 Y109.790 E0.0438
G1 X131.472 Y108.663 E0.0437
G1 X131.576 Y107.497 E0.0438
G1 X131.393 Y105.958 E0.0580
G1 X131.017 Y104.846 E0.0439
G1 X130.229 Y103.512 E0.0580
G1 X129.436 Y102.646 E0.0439
G1 X128.170 Y101.737 E0.0583
G1 X125.981 Y100.997 E0.0865
G1 X124.802 Y100.927 E0.0442
G1 X123.270 Y101.156 E0.0580
G1 X122.172 Y101.563 E0.0438
G1 X121.166 Y102.157 E0.0437
G1 X120.279 Y102.922 E0.0438
G1 X119.642 Y103.756 E0.0393
G0 F1066 X119.339 Y104.153
G1 F2700 E-0.5000
G0 F6000 X119.245 Y104.119
G0 X119.076 Y104.408
G0 X118.162 Y107.033
G0 F6000 X117.998 Y107.505
;TYPE:SOLID-FILL
;WIDTH:0.404
G1 F2400 E0.5000
G1 F889 X118.000 Y107.547 E0.0014
G1 X118.106 Y108.619 E0.0362
G1 X118.154 Y108.866 E0.0085
G1 X118.203 Y109.113 E0.0085
G1 X118.213 Y109.150 E0.0013
G1 X118.502 Y110.089 E0.0330
G1 X118.596 Y110.309 E0.0080
G1 X118.613 Y110.344 E0.0013
G1 X119.213 Y111.413 E0.0412
G1 X119.325 Y111.562 E0.0063
G1 X119.437 Y111.712 E0.0063
;WIDTH:0.351
G1 X119.461 Y111.740 E0.0011
G1 X120.293 Y112.633 E0.0356
G1 X120.317 Y112.656 E0.0010
;WIDTH:0.446
G1 X120.782 Y113.061 E0.0229
G1 X121.200 Y113.337 E0.0186
G1 X121.619 Y113.613 E0.0186
;WIDTH:0.368
G1 X121.666 Y113.639 E0.0016
;WIDTH:0.466
G1 X122.073 Y113.828 E0.0174
G1 X123.500 Y114.309 E0.0584
G1 X123.708 Y114.355 E0.0083
;WIDTH:0.415
G1 X123.916 Y114.401 E0.0074
G1 X123.965 Y114.408 E0.0017
G1 X125.011 Y114.496 E0.0362
G1 X125.196 Y114.494 E0.0064
G1 X125.236 Y114.492 E0.0014
G1 X126.117 Y114.390 E0.0306
G1 X126.464 Y114.316 E0.0122
G1 X126.812 Y114.242 E0.0123
;WIDTH:0.364
G1 X126.848 Y114.232 E0.0011
;WIDTH:0.427
G1 X127.588 Y113.993 E0.0276
G1 X127.788 Y113.903 E0.0078
G1 X127.989 Y113.814 E0.0078
;WIDTH:0.369
G1 X128.018 Y113.799 E0.0010
G1 X128.927 Y113.290 E0.0320
G1 X129.064 Y113.193 E0.0052
G1 X129.091 Y113.172 E0.0010
G1 X130.014 Y112.381 E0.0373
G1 X130.044 Y112.353 E0.0013
G1 X130.088 Y112.306 E0.0020
;WIDTH:0.439
G1 X130.776 Y111.429 E0.0407
G1 X130.888 Y111.253 E0.0076
G1 X131.001 Y111.077 E0.0076
;WIDTH:0.372
G1 X131.020 Y111.044 E0.0012
G1 X131.504 Y110.081 E0.0333
G1 X131.554 Y109.953 E0.0043
G1 X131.566 Y109.920 E0.0011
;WIDTH:0.423
G1 X131.828 Y109.013 E0.0332
G1 X131.878 Y108.753 E0.0093
G1 X131.882 Y108.719 E0.0012
G1 X132.002 Y107.511 E0.0427
G1 X132.003 Y107.485 E0.0009
G1 X132.002 Y107.470 E0.0005
G1 X131.893 Y106.382 E0.0385
G1 X131.844 Y106.134 E0.0089
G1 X131.796 Y105.886 E0.0089
;WIDTH:0.367
G1 X131.786 Y105.849 E0.0012
;WIDTH:0.420
G1 X131.497 Y104.910 E0.0343
G1 X131.403 Y104.690 E0.0084
G1 X131.386 Y104.655 E0.0014
G1 X130.782 Y103.577 E0.0432
G1 X130.676 Y103.429 E0.0064
